; HEADER_BLOCK_START
; generated by OrcaSlicer 1.8.1 on 2023-12-18 at 23:15:03
; total layer number: 117
; HEADER_BLOCK_END

; THUMBNAIL_BLOCK_START

;
; THUMBNAIL_BLOCK_END

; external perimeters extrusion width = 0.62mm
; perimeters extrusion width = 0.62mm
; infill extrusion width = 0.62mm
; solid infill extrusion width = 0.62mm
; top infill extrusion width = 0.62mm
; first layer extrusion width = 0.62mm

; EXECUTABLE_BLOCK_START
EXCLUDE_OBJECT_DEFINE NAME=TensionMeter.stl_id_0_copy_0 CENTER=175,175 POLYGON=[[122.5,162.301],[227.5,162.301],[227.5,186.201],[227.496,186.295],[227.494,186.331],[227.478,186.447],[227.458,186.547],[227.448,186.589],[227.418,186.687],[227.378,186.789],[227.358,186.835],[227.318,186.913],[227.26,187.013],[227.228,187.061],[227.182,187.121],[227.104,187.215],[227.06,187.261],[227.016,187.303],[226.916,187.387],[226.86,187.429],[226.82,187.455],[226.702,187.525],[226.634,187.559],[226.602,187.575],[226.468,187.625],[226.388,187.649],[226.22,187.683],[226.13,187.695],[225.968,187.699],[179.03,187.699],[178.868,187.695],[178.776,187.683],[178.61,187.649],[178.53,187.625],[122.5,169.099],[122.5,162.301]]
M73 P0 R17
;TYPE:Custom
status_heating
M190 S50
M109 S205
PRINT_START
G90
G21
M83 ; use relative distances for extrusion
; filament start gcode
SET_PRESSURE_ADVANCE ADVANCE=0.015; Override pressure advance value
M106 S0
;LAYER_CHANGE
;Z:0.3
;HEIGHT:0.3
;BEFORE_LAYER_CHANGE
;0.3
G92 E0

G1 E-.8 F1800
;AFTER_LAYER_CHANGE
;0.3
;_SET_FAN_SPEED_CHANGING_LAYER
SET_VELOCITY_LIMIT ACCEL=500 ACCEL_TO_DECEL=250
SET_VELOCITY_LIMIT SQUARE_CORNER_VELOCITY=9
; printing object TensionMeter.stl id:0 copy 0
EXCLUDE_OBJECT_START NAME=TensionMeter.stl_id_0_copy_0
G1 Z.4 F21000
G1 X122.392 Y163.862
G1 Z.4
G1 Z.3
G1 E.8 F1800
;TYPE:Brim
;WIDTH:0.62
G1 F3000
G1 X122.925 Y163.543 E.04166
G1 X123.7 Y163.245 E.05572
G1 X124.311 Y163.118 E.04186
G1 X124.472 Y163.107 E.01082
G1 X124.472 Y164.051 E.06331
G1 X124.498 Y164.181 E.00889
G1 X124.631 Y164.347 E.01426
G1 X124.716 Y164.394 E.00649
G1 X124.85 Y164.429 E.00932
G1 X179.003 Y164.429 E3.63176
G1 X179.122 Y164.573 E.01256
G1 X125.673 Y164.584 E3.58454
G1 X125.62 Y164.599 E.00371
G1 X125.454 Y164.732 E.01426
G1 X125.407 Y164.817 E.00649
G1 X125.372 Y164.951 E.00932
G1 X125.372 Y166.449 E.10046
G1 X125.398 Y166.579 E.00889
G1 X125.531 Y166.745 E.01426
G1 X125.616 Y166.792 E.00649
G1 X125.75 Y166.827 E.00932
G1 X177.37 Y166.827 E3.46188
G1 X177.37 Y172.831 E.40266
G1 X177.048 Y172.953 E.02309
G1 X176.437 Y173.08 E.04189
G1 X175.889 Y173.116 E.03681
G1 X124.86 Y173.116 E3.4222
G1 X124.227 Y173.069 E.04258
G1 X123.622 Y172.93 E.04162
G1 X122.829 Y172.592 E.05786
G1 X122.225 Y172.204 E.0481
G1 X121.761 Y171.789 E.04179
G1 X121.363 Y171.307 E.04188
G1 X121.044 Y170.774 E.04166
G1 X120.746 Y169.999 E.05572
G1 X120.619 Y169.388 E.04186
G1 X120.583 Y168.84 E.03681
G1 X120.583 Y167.359 E.09929
G1 X120.63 Y166.726 E.04258
G1 X120.769 Y166.123 E.04153
G1 X121.153 Y165.245 E.06424
G1 X121.494 Y164.725 E.04171
G1 X121.91 Y164.26 E.04188
G1 X122.346 Y163.9 E.03786
G1 X122.701 Y164.328 F21000
G1 F3000
G1 X122.704 Y164.325 E.00025
G1 X123.182 Y164.039 E.03741
G1 X123.69 Y163.844 E.03647
G1 X123.817 Y163.847 E.00849
G1 X123.917 Y163.999 E.01224
G1 X123.951 Y164.275 E.01863
G1 X124.076 Y164.543 E.01981
G1 X124.186 Y164.681 E.01183
G1 X124.371 Y164.837 E.01623
G1 X124.692 Y164.962 E.02308
G1 X124.793 Y165.038 E.00849
G1 X124.817 Y165.123 E.00595
G1 X124.817 Y166.275 E.07723
G1 X124.768 Y166.392 E.00849
G1 X124.358 Y166.575 E.03013
G1 X124.22 Y166.685 E.01183
G1 X124.06 Y166.875 E.0167
G1 X123.936 Y167.206 E.02368
G1 X123.917 Y167.36 E.01039
G1 X123.917 Y168.841 E.09934
G1 X123.95 Y169.069 E.01546
G1 X124.076 Y169.341 E.0201
G1 X124.186 Y169.479 E.01183
G1 X124.433 Y169.671 E.02101
G1 X124.707 Y169.763 E.01936
G1 X124.861 Y169.782 E.01039
G1 X175.886 Y169.782 E3.42198
G1 X176.122 Y169.748 E.01601
G1 X176.389 Y169.623 E.01978
G1 X176.543 Y169.499 E.01327
G1 X176.665 Y169.463 E.00849
G1 X176.776 Y169.523 E.00849
G1 X176.815 Y169.629 E.00756
G1 X176.815 Y172.299 E.17906
G1 X176.766 Y172.416 E.00849
G1 X176.682 Y172.462 E.00646
G1 X176.35 Y172.529 E.0227
G1 X175.865 Y172.561 E.03257
G1 X124.888 Y172.561 E3.41881
G1 X124.298 Y172.515 E.03963
G1 X123.781 Y172.394 E.03564
G1 X123.102 Y172.105 E.04947
G1 X122.574 Y171.768 E.04201
G1 X122.155 Y171.393 E.03772
G1 X121.812 Y170.975 E.03627
G1 X121.54 Y170.517 E.03574
G1 X121.278 Y169.828 E.04938
G1 X121.173 Y169.324 E.03454
G1 X121.139 Y168.827 E.0334
G1 X121.138 Y167.387 E.09663
G1 X121.18 Y166.822 E.03796
G1 X121.305 Y166.283 E.03709
G1 X121.637 Y165.524 E.05561
G1 X121.944 Y165.055 E.03754
G1 X122.288 Y164.671 E.0346
G1 X122.655 Y164.366 E.03199
G1 X123.012 Y164.792 F21000
G1 F3000
G1 X123.016 Y164.788 E.00038
G1 X123.296 Y164.618 E.02193
G1 X123.421 Y164.6 E.00849
G1 X123.532 Y164.691 E.00967
G1 X123.646 Y164.894 E.01555
G1 X123.837 Y165.113 E.01953
G1 X124.002 Y165.252 E.01445
G1 X124.179 Y165.358 E.01388
G1 X124.261 Y165.501 E.01105
G1 X124.261 Y165.902 E.02687
G1 X124.178 Y166.046 E.01115
G1 X124.003 Y166.148 E.01362
G1 X123.885 Y166.242 E.01011
G1 X123.643 Y166.508 E.0241
G1 X123.534 Y166.694 E.01446
G1 X123.419 Y167.002 E.02207
G1 X123.361 Y167.368 E.02484
G1 X123.361 Y168.831 E.09808
G1 X123.399 Y169.138 E.02079
G1 X123.451 Y169.314 E.01231
G1 X123.568 Y169.566 E.01862
G1 X123.645 Y169.69 E.00981
G1 X123.857 Y169.926 E.02125
G1 X124.081 Y170.101 E.01907
G1 X124.267 Y170.201 E.01416
G1 X124.649 Y170.315 E.02672
G1 X124.869 Y170.338 E.01486
G1 X175.877 Y170.338 E3.42079
M73 P1 R17
G1 X176.074 Y170.316 E.01332
G1 X176.196 Y170.351 E.00849
G1 X176.259 Y170.482 E.00973
G1 X176.259 Y171.822 E.08987
G1 X176.211 Y171.939 E.00849
G1 X176.103 Y171.988 E.00795
G1 X175.842 Y172.005 E.01752
G1 X124.915 Y172.005 E3.41538
G1 X124.396 Y171.965 E.03492
G1 X123.941 Y171.858 E.03137
G1 X123.375 Y171.617 E.04128
G1 X122.922 Y171.331 E.0359
G1 X122.567 Y171.016 E.03185
G1 X122.276 Y170.665 E.03058
G1 X122.037 Y170.261 E.03149
G1 X121.817 Y169.684 E.04135
G1 X121.724 Y169.237 E.03066
G1 X121.694 Y168.803 E.0292
G1 X121.695 Y167.401 E.09401
G1 X121.734 Y166.893 E.03415
G1 X121.841 Y166.444 E.03094
G1 X122.135 Y165.777 E.0489
G1 X122.379 Y165.405 E.02982
G1 X122.667 Y165.081 E.02906
G1 X122.966 Y164.83 E.02619
G1 X123.149 Y165.406 F21000
G1 F3000
G1 X123.261 Y165.37 E.00791
G1 X123.374 Y165.427 E.00842
G1 X123.525 Y165.577 E.01433
G1 X123.578 Y165.693 E.00849
G1 X123.533 Y165.813 E.00861
G1 X123.24 Y166.125 E.02871
G1 X123.06 Y166.406 E.02238
G1 X122.903 Y166.796 E.0282
G1 X122.814 Y167.271 E.03238
G1 X122.805 Y168.82 E.1039
G1 X122.87 Y169.308 E.03297
G1 X122.951 Y169.557 E.01757
G1 X123.099 Y169.863 E.0228
G1 X123.238 Y170.068 E.01663
G1 X123.526 Y170.373 E.02811
G1 X123.731 Y170.532 E.01744
G1 X123.999 Y170.687 E.02078
G1 X124.604 Y170.869 E.04236
G1 X124.877 Y170.894 E.01835
G1 X175.537 Y170.894 E3.39749
G1 X175.654 Y170.942 E.00849
G1 X175.703 Y171.06 E.00862
G1 X175.703 Y171.283 E.0149
G1 X175.655 Y171.4 E.00849
G1 X175.537 Y171.449 E.00862
G1 X124.943 Y171.449 E3.39303
G1 X124.495 Y171.415 E.03016
G1 X124.102 Y171.322 E.02708
G1 X123.646 Y171.128 E.03323
G1 X123.268 Y170.893 E.02985
G1 X122.977 Y170.637 E.02597
G1 X122.725 Y170.333 E.02649
G1 X122.534 Y170.005 E.02544
G1 X122.357 Y169.54 E.03338
G1 X122.278 Y169.172 E.02522
G1 X122.25 Y168.778 E.02649
G1 X122.25 Y167.429 E.09048
G1 X122.284 Y166.992 E.02937
G1 X122.366 Y166.637 E.02446
G1 X122.62 Y166.056 E.04252
G1 X122.83 Y165.734 E.02575
G1 X123.105 Y165.446 E.02677
G1 E-.56 F1800
;WIPE_START
G1 F3000
G1 X123.261 Y165.37 E-.04164
G1 X123.374 Y165.427 E-.03015
G1 X123.525 Y165.577 E-.05129
G1 X123.578 Y165.693 E-.0304
G1 X123.533 Y165.813 E-.03081
G1 X123.374 Y165.982 E-.05572
;WIPE_END
G1 Z.7 F21000
G1 X124.554 Y167.13 Z.7
G1 Z.3
G1 E.8 F1800
G1 F3000
G1 X124.72 Y166.997 E.01426
G1 X124.85 Y166.971 E.00889
G1 X144.086 Y166.971 E1.29005
G1 X175.898 Y166.971 E2.13346
G1 X176.032 Y167.006 E.00932
G1 X176.117 Y167.053 E.00649
G1 X176.25 Y167.219 E.01426
G1 X176.265 Y167.272 E.00371
G1 X176.276 Y168.849 E.10575
G1 X176.241 Y168.983 E.00932
G1 X176.194 Y169.068 E.00649
G1 X176.028 Y169.201 E.01426
G1 X175.898 Y169.227 E.00889
G1 X124.85 Y169.227 E3.42351
G1 X124.716 Y169.192 E.00932
G1 X124.631 Y169.145 E.00649
G1 X124.498 Y168.979 E.01426
G1 X124.472 Y168.849 E.00889
G1 X124.472 Y167.349 E.1006
G1 X124.507 Y167.215 E.00932
G1 X124.525 Y167.182 E.00247
G1 E-.56 F1800
;WIPE_START
G1 F3000
G1 X124.72 Y166.997 E-.06457
G1 X124.85 Y166.971 E-.0318
G1 X125.448 Y166.971 E-.14363
;WIPE_END
G1 Z.7 F21000
G1 X125.764 Y167.891 Z.7
G1 X153.342 Y165.908
G1 X178.289 Y165.908
G1 X225.582 Y173.616
G1 X204.411 Y163.385
G1 X204.27 Y163.358
G1 X204.156 Y163.972
G1 Z.3
G1 E.8 F1800
;TYPE:Inner wall
;WIDTH:0.62
G1 F3000
G1 X225.829 Y163.972 E1.45349
G1 X225.829 Y168.5 E.30365
M73 P2 R17
G1 X225.829 Y173.535 E.33765
G1 X225.314 Y173.135 E.0437
G1 X224.78 Y173.028 E.03654
G1 X202.782 Y173.028 E1.47528
G1 X202.039 Y173.039 E.04984
G1 X201.708 Y173.125 E.0229
G1 X201.358 Y173.326 E.0271
G1 X201.045 Y173.672 E.03131
G1 X200.999 Y173.831 E.01107
G1 X200.953 Y173.672 E.01107
G1 X200.64 Y173.326 E.03131
G1 X200.426 Y173.187 E.01708
G1 X200.198 Y173.092 E.01659
G1 X199.78 Y173.028 E.02835
G1 X180.218 Y173.028 E1.31194
G1 X179.684 Y173.135 E.03654
G1 X179.169 Y173.535 E.0437
G1 X179.169 Y166.417 E.47735
G1 X179.154 Y166.372 E.00315
G1 X202.782 Y166.372 E1.58458
G1 X203.236 Y166.296 E.03089
G1 X203.621 Y166.09 E.02928
G1 X203.899 Y165.809 E.02651
G1 X204.117 Y165.367 E.03307
G1 X204.171 Y164.983 E.02596
G1 X204.157 Y164.032 E.06378
G1 X203.569 Y163.878 F21000
G1 F3000
G1 X203.449 Y163.519 E.02538
G1 X203.245 Y163.417 E.01532
G1 X226.384 Y163.417 E1.55185
G1 X226.384 Y168.5 E.34091
G1 X226.384 Y173.604 E.34231
;WIDTH:0.655857
G1 X226.366 Y173.875 E.01938
;WIDTH:0.691714
G1 X226.349 Y174.146 E.02055
;WIDTH:0.727572
G1 X226.331 Y174.417 E.02173
G1 X226.331 Y186.122 E.93701
G1 X226.247 Y186.401 E.02331
;WIDTH:0.723218
G1 X226.047 Y186.519 E.01842
G1 X225.866 Y186.488 E.01461
G1 X225.72 Y186.356 E.01563
;WIDTH:0.727572
G1 X225.667 Y186.093 E.02145
G1 X225.667 Y174.417 E.9347
G1 X225.594 Y174.25 E.01458
;WIDTH:0.691714
G1 X225.52 Y174.083 E.01379
;WIDTH:0.655857
G1 X225.447 Y173.917 E.01301
;WIDTH:0.62
G1 X225.101 Y173.647 E.02941
G1 X224.78 Y173.583 E.02192
G1 X202.782 Y173.583 E1.47528
G1 X202.006 Y173.611 E.05209
G1 X201.702 Y173.762 E.02278
G1 X201.514 Y173.97 E.01879
;WIDTH:0.655861
G1 X201.453 Y174.119 E.01148
;WIDTH:0.691721
G1 X201.392 Y174.268 E.01217
;WIDTH:0.727583
G1 X201.331 Y174.416 E.01287
G1 X201.324 Y186.144 E.93879
;WIDTH:0.723503
G1 X201.249 Y186.4 E.02123
G1 X201.047 Y186.519 E.01866
G1 X200.866 Y186.488 E.01459
G1 X200.721 Y186.357 E.01557
G1 X200.665 Y186.144 E.01752
;WIDTH:0.727582
G1 X200.667 Y174.417 E.93872
G1 X200.606 Y174.268 E.01289
;WIDTH:0.691721
G1 X200.545 Y174.119 E.01219
;WIDTH:0.65586
G1 X200.484 Y173.97 E.01149
;WIDTH:0.62
G1 X200.296 Y173.762 E.01879
G1 X200.086 Y173.641 E.01626
G1 X199.78 Y173.583 E.02086
G1 X180.218 Y173.583 E1.31194
G1 X179.897 Y173.647 E.02192
G1 X179.551 Y173.917 E.02941
;WIDTH:0.655857
G1 X179.478 Y174.083 E.01301
;WIDTH:0.691714
G1 X179.404 Y174.25 E.01379
;WIDTH:0.727571
G1 X179.331 Y174.417 E.01458
G1 X179.331 Y186.122 E.93701
G1 X179.247 Y186.401 E.02331
;WIDTH:0.723219
G1 X179.062 Y186.513 E.01716
G1 X178.848 Y186.49 E.01718
G1 X178.726 Y186.373 E.01341
;WIDTH:0.727571
G1 X178.667 Y186.093 E.02284
G1 X178.667 Y174.417 E.9347
G1 X178.649 Y174.146 E.02173
;WIDTH:0.691714
G1 X178.632 Y173.875 E.02055
;WIDTH:0.655857
G1 X178.614 Y173.604 E.01938
;WIDTH:0.62
G1 X178.614 Y166.417 E.48202
G1 X178.447 Y165.917 E.03535
G1 X178.247 Y165.817 E.01502
G1 X202.782 Y165.817 E1.64546
G1 X203.055 Y165.771 E.01853
G1 X203.286 Y165.647 E.01757
G1 X203.52 Y165.371 E.0243
G1 X203.616 Y164.983 E.02678
G1 X203.616 Y164.019 E.06468
G1 X203.588 Y163.935 E.00595
G1 X203.06 Y164.019 F21000
;TYPE:Outer wall
G1 F3000
G1 X203.004 Y163.852 E.01178
;WIDTH:0.660547
G1 X202.949 Y163.804 E.00529
;WIDTH:0.701095
G1 X202.893 Y163.756 E.00565
;WIDTH:0.741643
G1 X202.838 Y163.708 E.00601
;WIDTH:0.782191
G1 X202.782 Y163.66 E.00636
G1 X125.241 Y163.66 E6.71825
G1 X125.241 Y162.942 E.06219
G1 X202.782 Y162.942 E6.71825
M73 P3 R16
G1 X202.962 Y162.922 E.01565
;WIDTH:0.741643
G1 X203.141 Y162.902 E.01476
;WIDTH:0.701095
G1 X203.321 Y162.881 E.01388
;WIDTH:0.660547
G1 X203.5 Y162.861 E.013
;WIDTH:0.62
G1 X226.94 Y162.861 E1.57199
G1 X226.94 Y168.5 E.37818
G1 X226.94 Y186.093 E1.1799
G1 X226.881 Y186.513 E.0284
G1 X226.726 Y186.789 E.02127
G1 X226.488 Y186.998 E.02122
G1 X226.122 Y187.127 E.02601
G1 X225.649 Y187.066 E.03198
G1 X225.383 Y186.904 E.02088
G1 X225.183 Y186.658 E.02128
G1 X225.131 Y186.511 E.01046
G1 X225.058 Y186.187 E.02228
G1 X225.058 Y174.417 E.78934
G1 X225.002 Y174.25 E.01178
G1 X224.887 Y174.16 E.0098
G1 X224.78 Y174.139 E.00731
G1 X202.147 Y174.148 E1.51787
G1 X201.983 Y174.268 E.01362
G1 X201.94 Y174.417 E.01039
G1 X201.932 Y186.144 E.7865
G1 X201.883 Y186.511 E.02481
G1 X201.727 Y186.789 E.02139
G1 X201.487 Y186.998 E.02135
G1 X201.121 Y187.127 E.026
G1 X200.649 Y187.066 E.03193
G1 X200.383 Y186.904 E.0209
G1 X200.183 Y186.658 E.02125
G1 X200.131 Y186.512 E.0104
G1 X200.058 Y186.187 E.02235
G1 X200.058 Y174.417 E.78934
G1 X200.015 Y174.268 E.0104
G1 X199.952 Y174.199 E.00626
G1 X199.78 Y174.139 E.01221
G1 X180.218 Y174.139 E1.31194
G1 X180.111 Y174.16 E.00731
G1 X179.996 Y174.25 E.0098
G1 X179.94 Y174.417 E.01178
G1 X179.94 Y186.093 E.78309
G1 X179.881 Y186.513 E.0284
G1 X179.726 Y186.789 E.02127
G1 X179.488 Y186.998 E.02122
G1 X179.08 Y187.126 E.02865
G1 X178.642 Y187.067 E.02968
G1 X178.317 Y186.84 E.02656
G1 X178.143 Y186.546 E.02291
G1 X178.058 Y186.187 E.02475
G1 X178.058 Y166.417 E1.32586
G1 X178.002 Y166.25 E.01178
;WIDTH:0.660297
G1 X177.947 Y166.202 E.00528
;WIDTH:0.700595
G1 X177.891 Y166.154 E.00563
;WIDTH:0.740893
G1 X177.836 Y166.106 E.00599
;WIDTH:0.781191
G1 X177.78 Y166.058 E.00635
G1 X126.141 Y166.058 E4.46788
G1 X126.141 Y165.342 E.06202
G1 X177.78 Y165.342 E4.46788
G1 X177.959 Y165.321 E.0156
;WIDTH:0.740893
G1 X178.139 Y165.301 E.01473
;WIDTH:0.700595
G1 X178.318 Y165.281 E.01385
;WIDTH:0.660297
G1 X178.497 Y165.261 E.01297
;WIDTH:0.62
G1 X202.218 Y165.261 E1.59082
G1 X202.873 Y165.246 E.04395
G1 X203.006 Y165.148 E.01103
G1 X203.06 Y164.983 E.01166
G1 X203.06 Y164.079 E.06065
G1 E-.56 F1800
;WIPE_START
G1 F3000
G1 X203.004 Y163.852 E-.05601
G1 X202.949 Y163.804 E-.01763
G1 X202.893 Y163.756 E-.01763
G1 X202.838 Y163.708 E-.01763
G1 X202.782 Y163.66 E-.01763
G1 X202.309 Y163.66 E-.11346
;WIPE_END
G1 Z.7 F21000
G1 X224.532 Y164.139 Z.7
G1 Z.3
G1 E.8 F1800
;TYPE:Bottom surface
;WIDTH:0.623441
G1 F4292.92
G1 X225.412 Y165.019 E.08402
G1 X225.412 Y165.81 E.05335
G1 X223.991 Y164.389 E.13561
G1 X223.2 Y164.389 E.05335
G1 X225.412 Y166.601 E.21106
G1 X225.412 Y167.391 E.05335
G1 X222.41 Y164.389 E.28651
G1 X221.619 Y164.389 E.05335
G1 X225.412 Y168.182 E.36196
G1 X225.412 Y168.973 E.05335
G1 X220.829 Y164.389 E.43741
G1 X220.038 Y164.389 E.05335
G1 X225.412 Y169.763 E.51286
G1 X225.412 Y170.554 E.05335
G1 X219.247 Y164.389 E.58831
G1 X218.457 Y164.389 E.05335
G1 X225.412 Y171.344 E.66376
G1 X225.412 Y172.135 E.05335
G1 X217.666 Y164.389 E.73921
G1 X216.875 Y164.389 E.05335
G1 X225.173 Y172.687 E.79188
G1 X224.794 Y172.611 E.02611
G1 X224.307 Y172.611 E.03287
G1 X216.085 Y164.389 E.78464
M73 P4 R16
G1 X215.294 Y164.389 E.05335
G1 X223.516 Y172.611 E.78464
G1 X222.726 Y172.611 E.05335
G1 X214.503 Y164.389 E.78464
G1 X213.713 Y164.389 E.05335
G1 X221.935 Y172.611 E.78464
G1 X221.144 Y172.611 E.05335
G1 X212.922 Y164.389 E.78464
G1 X212.132 Y164.389 E.05335
G1 X220.354 Y172.611 E.78464
G1 X219.563 Y172.611 E.05335
G1 X211.341 Y164.389 E.78464
G1 X210.55 Y164.389 E.05335
G1 X218.772 Y172.611 E.78464
G1 X217.982 Y172.611 E.05335
G1 X209.76 Y164.389 E.78464
G1 X208.969 Y164.389 E.05335
G1 X217.191 Y172.611 E.78464
G1 X216.401 Y172.611 E.05335
