; HEADER_BLOCK_START
; generated by OrcaSlicer 1.8.0 on 2023-12-17 at 20:56:07
; total layer number: 1
; HEADER_BLOCK_END

; THUMBNAIL_BLOCK_START

;
; THUMBNAIL_BLOCK_END

; external perimeters extrusion width = 0.62mm
; perimeters extrusion width = 0.62mm
; infill extrusion width = 0.62mm
; solid infill extrusion width = 0.62mm
; top infill extrusion width = 0.62mm
; first layer extrusion width = 0.72mm

; external perimeters extrusion width = 0.62mm
; perimeters extrusion width = 0.62mm
; infill extrusion width = 0.62mm
; solid infill extrusion width = 0.62mm
; top infill extrusion width = 0.62mm
; first layer extrusion width = 0.72mm

; external perimeters extrusion width = 0.62mm
; perimeters extrusion width = 0.62mm
; infill extrusion width = 0.62mm
; solid infill extrusion width = 0.62mm
; top infill extrusion width = 0.62mm
; first layer extrusion width = 0.72mm

; external perimeters extrusion width = 0.62mm
; perimeters extrusion width = 0.62mm
; infill extrusion width = 0.62mm
; solid infill extrusion width = 0.62mm
; top infill extrusion width = 0.62mm
; first layer extrusion width = 0.72mm

; external perimeters extrusion width = 0.62mm
; perimeters extrusion width = 0.62mm
; infill extrusion width = 0.62mm
; solid infill extrusion width = 0.62mm
; top infill extrusion width = 0.62mm
; first layer extrusion width = 0.72mm

; external perimeters extrusion width = 0.62mm
; perimeters extrusion width = 0.62mm
; infill extrusion width = 0.62mm
; solid infill extrusion width = 0.62mm
; top infill extrusion width = 0.62mm
; first layer extrusion width = 0.72mm

; external perimeters extrusion width = 0.62mm
; perimeters extrusion width = 0.62mm
; infill extrusion width = 0.62mm
; solid infill extrusion width = 0.62mm
; top infill extrusion width = 0.62mm
; first layer extrusion width = 0.72mm

; external perimeters extrusion width = 0.62mm
; perimeters extrusion width = 0.62mm
; infill extrusion width = 0.62mm
; solid infill extrusion width = 0.62mm
; top infill extrusion width = 0.62mm
; first layer extrusion width = 0.72mm

; external perimeters extrusion width = 0.62mm
; perimeters extrusion width = 0.62mm
; infill extrusion width = 0.62mm
; solid infill extrusion width = 0.62mm
; top infill extrusion width = 0.62mm
; first layer extrusion width = 0.72mm

; EXECUTABLE_BLOCK_START
EXCLUDE_OBJECT_DEFINE NAME=First_Layer_Patch-0.3mm.stl_id_0_copy_0 CENTER=260,260 POLYGON=[[247.5,247.5],[272.5,247.5],[272.5,272.5],[247.5,272.5],[247.5,247.5]]
EXCLUDE_OBJECT_DEFINE NAME=First_Layer_Patch-0.3mm.stl_id_1_copy_0 CENTER=260,175 POLYGON=[[247.5,162.5],[272.5,162.5],[272.5,187.5],[247.5,187.5],[247.5,162.5]]
EXCLUDE_OBJECT_DEFINE NAME=First_Layer_Patch-0.3mm.stl_id_2_copy_0 CENTER=175,175 POLYGON=[[162.5,162.5],[187.5,162.5],[187.5,187.5],[162.5,187.5],[162.5,162.5]]
EXCLUDE_OBJECT_DEFINE NAME=First_Layer_Patch-0.3mm.stl_id_3_copy_0 CENTER=175,260 POLYGON=[[162.5,247.5],[187.5,247.5],[187.5,272.5],[162.5,272.5],[162.5,247.5]]
EXCLUDE_OBJECT_DEFINE NAME=First_Layer_Patch-0.3mm.stl_id_4_copy_0 CENTER=90,175 POLYGON=[[77.5,162.5],[102.5,162.5],[102.5,187.5],[77.5,187.5],[77.5,162.5]]
EXCLUDE_OBJECT_DEFINE NAME=First_Layer_Patch-0.3mm.stl_id_5_copy_0 CENTER=90,260 POLYGON=[[77.5,247.5],[102.5,247.5],[102.5,272.5],[77.5,272.5],[77.5,247.5]]
EXCLUDE_OBJECT_DEFINE NAME=First_Layer_Patch-0.3mm.stl_id_6_copy_0 CENTER=175,90 POLYGON=[[162.5,77.5],[187.5,77.5],[187.5,102.5],[162.5,102.5],[162.5,77.5]]
EXCLUDE_OBJECT_DEFINE NAME=First_Layer_Patch-0.3mm.stl_id_7_copy_0 CENTER=90,90 POLYGON=[[77.5,77.5],[102.5,77.5],[102.5,102.5],[77.5,102.5],[77.5,77.5]]
EXCLUDE_OBJECT_DEFINE NAME=First_Layer_Patch-0.3mm.stl_id_8_copy_0 CENTER=260,90 POLYGON=[[247.5,77.5],[272.5,77.5],[272.5,102.5],[247.5,102.5],[247.5,77.5]]
M73 P0 R3
;TYPE:Custom
M190 S60
M109 S210
PRINT_START EXTRUDER=210 BED=60
; You can use following code instead if your PRINT_START macro support Chamber and print area bedmesh
; PRINT_START EXTRUDER=210 BED=60 Chamber=0 PRINT_MIN=77.5,77.5 PRINT_MAX=272.5,272.5
G90
G21
M83 ; use relative distances for extrusion
; filament start gcode
M106 S0
;LAYER_CHANGE
;Z:0.3
;HEIGHT:0.3
;BEFORE_LAYER_CHANGE
;0.3
G92 E0

G1 E-.8 F1800
;AFTER_LAYER_CHANGE
;0.3
;_SET_FAN_SPEED_CHANGING_LAYER
SET_VELOCITY_LIMIT ACCEL=500 ACCEL_TO_DECEL=250
SET_VELOCITY_LIMIT SQUARE_CORNER_VELOCITY=9
; printing object First_Layer_Patch-0.3mm.stl id:5 copy 0
EXCLUDE_OBJECT_START NAME=First_Layer_Patch-0.3mm.stl_id_5_copy_0
G1 Z.4 F21000
G1 X100.829 Y270.829
G1 Z.4
G1 Z.3
G1 E.8 F1800
;TYPE:Inner wall
;WIDTH:0.72
G1 F3000
G1 X79.171 Y270.829 E1.73557
G1 X79.171 Y249.171 E1.73557
M73 P1 R3
G1 X100.829 Y249.171 E1.73557
G1 X100.829 Y270.769 E1.73076
G1 X101.484 Y271.484 F21000
G1 F3000
G1 X78.516 Y271.484 E1.84065
G1 X78.516 Y248.516 E1.84065
M73 P2 R3
G1 X101.484 Y248.516 E1.84065
G1 X101.484 Y271.424 E1.83584
G1 X102.14 Y272.14 F21000
;TYPE:Outer wall
G1 F3000
G1 X77.86 Y272.14 E1.94573
G1 X77.86 Y247.86 E1.94573
M73 P3 R3
G1 X102.14 Y247.86 E1.94573
G1 X102.14 Y272.08 E1.94092
G1 E-.56 F1800
;WIPE_START
G1 F3000
G1 X101.14 Y272.082 E-.24
;WIPE_END
G1 Z.7 F21000
G1 X100.632 Y250.693 Z.7
G1 Z.3
G1 E.8 F1800
;TYPE:Bottom surface
;WIDTH:0.720136
G1 F3659.903
G1 X99.602 Y249.663 E.11682
G1 X98.674 Y249.663 E.07433
G1 X100.337 Y251.326 E.1885
G1 X100.337 Y252.253 E.07433
M73 P4 R3
G1 X97.747 Y249.663 E.29362
G1 X96.819 Y249.663 E.07433
G1 X100.337 Y253.181 E.39874
G1 X100.337 Y254.108 E.07433
G1 X95.892 Y249.663 E.50386
G1 X94.965 Y249.663 E.07433
G1 X100.337 Y255.035 E.60899
G1 X100.337 Y255.963 E.07433
G1 X94.037 Y249.663 E.71411
G1 X93.11 Y249.663 E.07433
G1 X100.337 Y256.89 E.81923
G1 X100.337 Y257.817 E.07433
G1 X92.183 Y249.663 E.92435
G1 X91.255 Y249.663 E.07433
G1 X100.337 Y258.745 E1.02947
G1 X100.337 Y259.672 E.07433
G1 X90.328 Y249.663 E1.1346
M73 P5 R3
G1 X89.4 Y249.663 E.07433
G1 X100.337 Y260.6 E1.23972
G1 X100.337 Y261.527 E.07433
G1 X88.473 Y249.663 E1.34484
G1 X87.546 Y249.663 E.07433
G1 X100.337 Y262.454 E1.44996
G1 X100.337 Y263.382 E.07433
G1 X86.618 Y249.663 E1.55509
G1 X85.691 Y249.663 E.07433
G1 X100.337 Y264.309 E1.66021
M73 P6 R3
G1 X100.337 Y265.237 E.07433
G1 X84.763 Y249.663 E1.76533
G1 X83.836 Y249.663 E.07433
G1 X100.337 Y266.164 E1.87045
G1 X100.337 Y267.091 E.07433
G1 X82.909 Y249.663 E1.97557
G1 X81.981 Y249.663 E.07433
G1 X100.337 Y268.019 E2.0807
M73 P7 R3
G1 X100.337 Y268.946 E.07433
G1 X81.054 Y249.663 E2.18582
G1 X80.127 Y249.663 E.07433
G1 X100.337 Y269.873 E2.29094
G1 X100.337 Y270.337 E.03716
G1 X99.873 Y270.337 E.03717
G1 X79.663 Y250.127 E2.29093
G1 X79.663 Y251.054 E.07433
G1 X98.946 Y270.337 E2.18581
M73 P8 R3
G1 X98.019 Y270.337 E.07433
G1 X79.663 Y251.981 E2.08069
G1 X79.663 Y252.909 E.07433
G1 X97.091 Y270.337 E1.97557
G1 X96.164 Y270.337 E.07433
G1 X79.663 Y253.836 E1.87044
G1 X79.663 Y254.764 E.07433
G1 X95.236 Y270.337 E1.76532
M73 P9 R3
G1 X94.309 Y270.337 E.07433
G1 X79.663 Y255.691 E1.6602
G1 X79.663 Y256.618 E.07433
G1 X93.382 Y270.337 E1.55508
G1 X92.454 Y270.337 E.07433
G1 X79.663 Y257.546 E1.44995
G1 X79.663 Y258.473 E.07433
G1 X91.527 Y270.337 E1.34483
G1 X90.6 Y270.337 E.07433
G1 X79.663 Y259.4 E1.23971
M73 P10 R3
G1 X79.663 Y260.328 E.07433
G1 X89.672 Y270.337 E1.13459
G1 X88.745 Y270.337 E.07433
G1 X79.663 Y261.255 E1.02947
G1 X79.663 Y262.183 E.07433
G1 X87.817 Y270.337 E.92434
G1 X86.89 Y270.337 E.07433
G1 X79.663 Y263.11 E.81922
G1 X79.663 Y264.037 E.07433
G1 X85.963 Y270.337 E.7141
G1 X85.035 Y270.337 E.07433
G1 X79.663 Y264.965 E.60898
G1 X79.663 Y265.892 E.07433
G1 X84.108 Y270.337 E.50385
M73 P11 R3
G1 X83.181 Y270.337 E.07433
G1 X79.663 Y266.819 E.39873
G1 X79.663 Y267.747 E.07433
G1 X82.253 Y270.337 E.29361
G1 X81.326 Y270.337 E.07433
G1 X79.663 Y268.674 E.18849
G1 X79.663 Y269.602 E.07433
G1 X80.693 Y270.632 E.11681
; stop printing object First_Layer_Patch-0.3mm.stl id:5 copy 0
; printing object First_Layer_Patch-0.3mm.stl id:3 copy 0
G1 E-.56 F1800
;WIPE_START
G1 F3659.903
G1 X79.986 Y269.925 E-.24
;WIPE_END
EXCLUDE_OBJECT_END NAME=First_Layer_Patch-0.3mm.stl_id_5_copy_0
EXCLUDE_OBJECT_START NAME=First_Layer_Patch-0.3mm.stl_id_3_copy_0
G1 Z.7 F21000
G1 X185.829 Y270.829 Z.7
G1 Z.3
G1 E.8 F1800
;TYPE:Inner wall
;WIDTH:0.72
G1 F3000
G1 X164.171 Y270.829 E1.73557
M73 P12 R3
G1 X164.171 Y249.171 E1.73557
G1 X185.829 Y249.171 E1.73557
G1 X185.829 Y270.769 E1.73076
G1 X186.484 Y271.484 F21000
G1 F3000
G1 X163.516 Y271.484 E1.84065
G1 X163.516 Y248.516 E1.84065
M73 P13 R3
G1 X186.484 Y248.516 E1.84065
G1 X186.484 Y271.424 E1.83584
G1 X187.14 Y272.14 F21000
;TYPE:Outer wall
G1 F3000
G1 X162.86 Y272.14 E1.94573
G1 X162.86 Y247.86 E1.94573
M73 P14 R3
G1 X187.14 Y247.86 E1.94573
G1 X187.14 Y272.08 E1.94092
G1 E-.56 F1800
;WIPE_START
G1 F3000
G1 X186.14 Y272.082 E-.24
;WIPE_END
G1 Z.7 F21000
G1 X185.632 Y250.693 Z.7
G1 Z.3
G1 E.8 F1800
;TYPE:Bottom surface
;WIDTH:0.720136
G1 F3659.903
G1 X184.602 Y249.663 E.11682
M73 P15 R3
G1 X183.674 Y249.663 E.07433
G1 X185.337 Y251.326 E.1885
G1 X185.337 Y252.253 E.07433
G1 X182.747 Y249.663 E.29362
G1 X181.819 Y249.663 E.07433
G1 X185.337 Y253.181 E.39874
G1 X185.337 Y254.108 E.07433
G1 X180.892 Y249.663 E.50386
G1 X179.965 Y249.663 E.07433
G1 X185.337 Y255.035 E.60899
G1 X185.337 Y255.963 E.07433
G1 X179.037 Y249.663 E.71411
G1 X178.11 Y249.663 E.07433
G1 X185.337 Y256.89 E.81923
G1 X185.337 Y257.817 E.07433
G1 X177.183 Y249.663 E.92435
G1 X176.255 Y249.663 E.07433
G1 X185.337 Y258.745 E1.02947
M73 P16 R3
G1 X185.337 Y259.672 E.07433
G1 X175.328 Y249.663 E1.1346
G1 X174.4 Y249.663 E.07433
G1 X185.337 Y260.6 E1.23972
G1 X185.337 Y261.527 E.07433
G1 X173.473 Y249.663 E1.34484
G1 X172.546 Y249.663 E.07433
G1 X185.337 Y262.454 E1.44996
G1 X185.337 Y263.382 E.07433
G1 X171.618 Y249.663 E1.55509
M73 P17 R3
G1 X170.691 Y249.663 E.07433
G1 X185.337 Y264.309 E1.66021
G1 X185.337 Y265.237 E.07433
G1 X169.763 Y249.663 E1.76533
G1 X168.836 Y249.663 E.07433
G1 X185.337 Y266.164 E1.87045
G1 X185.337 Y267.091 E.07433
G1 X167.909 Y249.663 E1.97557
G1 X166.981 Y249.663 E.07433
G1 X185.337 Y268.019 E2.0807
M73 P18 R3
G1 X185.337 Y268.946 E.07433
G1 X166.054 Y249.663 E2.18582
G1 X165.127 Y249.663 E.07433
G1 X185.337 Y269.873 E2.29094
G1 X185.337 Y270.337 E.03716
G1 X184.873 Y270.337 E.03717
G1 X164.663 Y250.127 E2.29093
G1 X164.663 Y251.054 E.07433
M73 P19 R3
G1 X183.946 Y270.337 E2.18581
G1 X183.019 Y270.337 E.07433
G1 X164.663 Y251.981 E2.08069
G1 X164.663 Y252.909 E.07433
G1 X182.091 Y270.337 E1.97557
G1 X181.164 Y270.337 E.07433
G1 X164.663 Y253.836 E1.87044
G1 X164.663 Y254.764 E.07433
G1 X180.236 Y270.337 E1.76532
M73 P20 R3
G1 X179.309 Y270.337 E.07433
G1 X164.663 Y255.691 E1.6602
G1 X164.663 Y256.618 E.07433
G1 X178.382 Y270.337 E1.55508
G1 X177.454 Y270.337 E.07433
G1 X164.663 Y257.546 E1.44995
G1 X164.663 Y258.473 E.07433
G1 X176.527 Y270.337 E1.34483
G1 X175.6 Y270.337 E.07433
M73 P21 R3
G1 X164.663 Y259.4 E1.23971
M73 P21 R2
G1 X164.663 Y260.328 E.07433
G1 X174.672 Y270.337 E1.13459
G1 X173.745 Y270.337 E.07433
G1 X164.663 Y261.255 E1.02947
G1 X164.663 Y262.183 E.07433
G1 X172.817 Y270.337 E.92434
G1 X171.89 Y270.337 E.07433
G1 X164.663 Y263.11 E.81922
G1 X164.663 Y264.037 E.07433
G1 X170.963 Y270.337 E.7141
G1 X170.035 Y270.337 E.07433
G1 X164.663 Y264.965 E.60898
M73 P22 R2
G1 X164.663 Y265.892 E.07433
G1 X169.108 Y270.337 E.50385
G1 X168.181 Y270.337 E.07433
G1 X164.663 Y266.819 E.39873
G1 X164.663 Y267.747 E.07433
G1 X167.253 Y270.337 E.29361
G1 X166.326 Y270.337 E.07433
G1 X164.663 Y268.674 E.18849
G1 X164.663 Y269.602 E.07433
G1 X165.693 Y270.632 E.11681
; stop printing object First_Layer_Patch-0.3mm.stl id:3 copy 0
; printing object First_Layer_Patch-0.3mm.stl id:0 copy 0
G1 E-.56 F1800
;WIPE_START
G1 F3659.903
G1 X164.986 Y269.925 E-.24
;WIPE_END
EXCLUDE_OBJECT_END NAME=First_Layer_Patch-0.3mm.stl_id_3_copy_0
EXCLUDE_OBJECT_START NAME=First_Layer_Patch-0.3mm.stl_id_0_copy_0
G1 Z.7 F21000
G1 X270.829 Y270.829 Z.7
G1 Z.3
G1 E.8 F1800
;TYPE:Inner wall
;WIDTH:0.72
G1 F3000
G1 X249.171 Y270.829 E1.73557
M73 P23 R2
G1 X249.171 Y249.171 E1.73557
G1 X270.829 Y249.171 E1.73557
G1 X270.829 Y270.769 E1.73076
G1 X271.484 Y271.484 F21000
G1 F3000
G1 X248.516 Y271.484 E1.84065
M73 P24 R2
G1 X248.516 Y248.516 E1.84065
G1 X271.484 Y248.516 E1.84065
G1 X271.484 Y271.424 E1.83584
G1 X272.14 Y272.14 F21000
;TYPE:Outer wall
G1 F3000
G1 X247.86 Y272.14 E1.94573
M73 P25 R2
G1 X247.86 Y247.86 E1.94573
G1 X272.14 Y247.86 E1.94573
G1 X272.14 Y272.08 E1.94092
G1 E-.56 F1800
;WIPE_START
G1 F3000
G1 X271.14 Y272.082 E-.24
;WIPE_END
G1 Z.7 F21000
G1 X270.632 Y250.693 Z.7
M73 P26 R2
G1 Z.3
G1 E.8 F1800
;TYPE:Bottom surface
;WIDTH:0.720136
G1 F3659.903
G1 X269.602 Y249.663 E.11682
G1 X268.674 Y249.663 E.07433
G1 X270.337 Y251.326 E.1885
G1 X270.337 Y252.253 E.07433
G1 X267.747 Y249.663 E.29362
G1 X266.819 Y249.663 E.07433
G1 X270.337 Y253.181 E.39874
G1 X270.337 Y254.108 E.07433
G1 X265.892 Y249.663 E.50386
G1 X264.965 Y249.663 E.07433
G1 X270.337 Y255.035 E.60899
G1 X270.337 Y255.963 E.07433
G1 X264.037 Y249.663 E.71411
G1 X263.11 Y249.663 E.07433
G1 X270.337 Y256.89 E.81923
G1 X270.337 Y257.817 E.07433
G1 X262.183 Y249.663 E.92435
M73 P27 R2
G1 X261.255 Y249.663 E.07433
G1 X270.337 Y258.745 E1.02947
G1 X270.337 Y259.672 E.07433
G1 X260.328 Y249.663 E1.1346
G1 X259.4 Y249.663 E.07433
G1 X270.337 Y260.6 E1.23972
G1 X270.337 Y261.527 E.07433
G1 X258.473 Y249.663 E1.34484
G1 X257.546 Y249.663 E.07433
G1 X270.337 Y262.454 E1.44996
G1 X270.337 Y263.382 E.07433
G1 X256.618 Y249.663 E1.55509
M73 P28 R2
G1 X255.691 Y249.663 E.07433
G1 X270.337 Y264.309 E1.66021
G1 X270.337 Y265.237 E.07433
G1 X254.763 Y249.663 E1.76533
G1 X253.836 Y249.663 E.07433
G1 X270.337 Y266.164 E1.87045
G1 X270.337 Y267.091 E.07433
G1 X252.909 Y249.663 E1.97557
M73 P29 R2
G1 X251.981 Y249.663 E.07433
G1 X270.337 Y268.019 E2.0807
G1 X270.337 Y268.946 E.07433
G1 X251.054 Y249.663 E2.18582
G1 X250.127 Y249.663 E.07433
G1 X270.337 Y269.873 E2.29094
G1 X270.337 Y270.337 E.03716
G1 X269.873 Y270.337 E.03717
G1 X249.663 Y250.127 E2.29093
M73 P30 R2
G1 X249.663 Y251.054 E.07433
G1 X268.946 Y270.337 E2.18581
G1 X268.019 Y270.337 E.07433
G1 X249.663 Y251.981 E2.08069
G1 X249.663 Y252.909 E.07433
G1 X267.091 Y270.337 E1.97557
G1 X266.164 Y270.337 E.07433
G1 X249.663 Y253.836 E1.87044
M73 P31 R2
G1 X249.663 Y254.764 E.07433
G1 X265.236 Y270.337 E1.76532
G1 X264.309 Y270.337 E.07433
G1 X249.663 Y255.691 E1.6602
G1 X249.663 Y256.618 E.07433
G1 X263.382 Y270.337 E1.55508
G1 X262.454 Y270.337 E.07433
G1 X249.663 Y257.546 E1.44995
G1 X249.663 Y258.473 E.07433
G1 X261.527 Y270.337 E1.34483
M73 P32 R2
G1 X260.6 Y270.337 E.07433
G1 X249.663 Y259.4 E1.23971
G1 X249.663 Y260.328 E.07433
G1 X259.672 Y270.337 E1.13459
G1 X258.745 Y270.337 E.07433
G1 X249.663 Y261.255 E1.02947
G1 X249.663 Y262.183 E.07433
G1 X257.817 Y270.337 E.92434
G1 X256.89 Y270.337 E.07433
G1 X249.663 Y263.11 E.81922
G1 X249.663 Y264.037 E.07433
G1 X255.963 Y270.337 E.7141
M73 P33 R2
G1 X255.035 Y270.337 E.07433
G1 X249.663 Y264.965 E.60898
G1 X249.663 Y265.892 E.07433
G1 X254.108 Y270.337 E.50385
G1 X253.181 Y270.337 E.07433
G1 X249.663 Y266.819 E.39873
G1 X249.663 Y267.747 E.07433
G1 X252.253 Y270.337 E.29361
G1 X251.326 Y270.337 E.07433
G1 X249.663 Y268.674 E.18849
G1 X249.663 Y269.602 E.07433
G1 X250.693 Y270.632 E.11681
; stop printing object First_Layer_Patch-0.3mm.stl id:0 copy 0
; printing object First_Layer_Patch-0.3mm.stl id:1 copy 0
G1 E-.56 F1800
;WIPE_START
G1 F3659.903
G1 X249.986 Y269.925 E-.24
;WIPE_END
EXCLUDE_OBJECT_END NAME=First_Layer_Patch-0.3mm.stl_id_0_copy_0
EXCLUDE_OBJECT_START NAME=First_Layer_Patch-0.3mm.stl_id_1_copy_0
G1 Z.7 F21000
G1 X270.829 Y185.829 Z.7
M73 P34 R2
G1 Z.3
G1 E.8 F1800
;TYPE:Inner wall
;WIDTH:0.72
G1 F3000
G1 X249.171 Y185.829 E1.73557
G1 X249.171 Y164.171 E1.73557
G1 X270.829 Y164.171 E1.73557
G1 X270.829 Y185.769 E1.73076
G1 X271.484 Y186.484 F21000
G1 F3000
G1 X248.516 Y186.484 E1.84065
M73 P35 R2
G1 X248.516 Y163.516 E1.84065
G1 X271.484 Y163.516 E1.84065
G1 X271.484 Y186.424 E1.83584
