; HEADER_BLOCK_START
; generated by OrcaSlicer 1.8.0 on 2023-12-18 at 01:01:55
; total layer number: 7
; HEADER_BLOCK_END

; THUMBNAIL_BLOCK_START

;
; THUMBNAIL_BLOCK_END

; external perimeters extrusion width = 0.62mm
; perimeters extrusion width = 0.62mm
; infill extrusion width = 0.62mm
; solid infill extrusion width = 0.72mm
; top infill extrusion width = 0.72mm
; first layer extrusion width = 0.62mm

; external perimeters extrusion width = 0.62mm
; perimeters extrusion width = 0.62mm
; infill extrusion width = 0.62mm
; solid infill extrusion width = 0.72mm
; top infill extrusion width = 0.72mm
; first layer extrusion width = 0.62mm

; external perimeters extrusion width = 0.62mm
; perimeters extrusion width = 0.62mm
; infill extrusion width = 0.62mm
; solid infill extrusion width = 0.72mm
; top infill extrusion width = 0.72mm
; first layer extrusion width = 0.62mm

; external perimeters extrusion width = 0.62mm
; perimeters extrusion width = 0.62mm
; infill extrusion width = 0.62mm
; solid infill extrusion width = 0.72mm
; top infill extrusion width = 0.72mm
; first layer extrusion width = 0.62mm

; external perimeters extrusion width = 0.62mm
; perimeters extrusion width = 0.62mm
; infill extrusion width = 0.62mm
; solid infill extrusion width = 0.72mm
; top infill extrusion width = 0.72mm
; first layer extrusion width = 0.62mm

; external perimeters extrusion width = 0.62mm
; perimeters extrusion width = 0.62mm
; infill extrusion width = 0.62mm
; solid infill extrusion width = 0.72mm
; top infill extrusion width = 0.72mm
; first layer extrusion width = 0.62mm

; external perimeters extrusion width = 0.62mm
; perimeters extrusion width = 0.62mm
; infill extrusion width = 0.62mm
; solid infill extrusion width = 0.72mm
; top infill extrusion width = 0.72mm
; first layer extrusion width = 0.62mm

; external perimeters extrusion width = 0.62mm
; perimeters extrusion width = 0.62mm
; infill extrusion width = 0.62mm
; solid infill extrusion width = 0.72mm
; top infill extrusion width = 0.72mm
; first layer extrusion width = 0.62mm

; external perimeters extrusion width = 0.62mm
; perimeters extrusion width = 0.62mm
; infill extrusion width = 0.62mm
; solid infill extrusion width = 0.72mm
; top infill extrusion width = 0.72mm
; first layer extrusion width = 0.62mm

; external perimeters extrusion width = 0.62mm
; perimeters extrusion width = 0.62mm
; infill extrusion width = 0.62mm
; solid infill extrusion width = 0.72mm
; top infill extrusion width = 0.72mm
; first layer extrusion width = 0.62mm

; EXECUTABLE_BLOCK_START
EXCLUDE_OBJECT_DEFINE NAME=flowrate_0_id_0_copy_0 CENTER=175,223 POLYGON=[[155,208],[195,208],[195,228],[185,238],[165,238],[155,228],[155,208]]
EXCLUDE_OBJECT_DEFINE NAME=flowrate_m1_id_1_copy_0 CENTER=133,191 POLYGON=[[113,176],[153,176],[153,196],[143,206],[123,206],[113,196],[113,176]]
EXCLUDE_OBJECT_DEFINE NAME=flowrate_m2_id_2_copy_0 CENTER=175,191 POLYGON=[[155,176],[195,176],[195,196],[185,206],[165,206],[155,196],[155,176]]
EXCLUDE_OBJECT_DEFINE NAME=flowrate_m3_id_3_copy_0 CENTER=217,191 POLYGON=[[197,176],[237,176],[237,196],[227,206],[207,206],[197,196],[197,176]]
EXCLUDE_OBJECT_DEFINE NAME=flowrate_m4_id_4_copy_0 CENTER=133,159 POLYGON=[[113,144],[153,144],[153,164],[143,174],[123,174],[113,164],[113,144]]
EXCLUDE_OBJECT_DEFINE NAME=flowrate_m5_id_5_copy_0 CENTER=175,159 POLYGON=[[155,144],[195,144],[195,164],[185,174],[165,174],[155,164],[155,144]]
EXCLUDE_OBJECT_DEFINE NAME=flowrate_m6_id_6_copy_0 CENTER=217,159 POLYGON=[[197,144],[237,144],[237,164],[227,174],[207,174],[197,164],[197,144]]
EXCLUDE_OBJECT_DEFINE NAME=flowrate_m7_id_7_copy_0 CENTER=217,127 POLYGON=[[197,112],[237,112],[237,132],[227,142],[207,142],[197,132],[197,112]]
EXCLUDE_OBJECT_DEFINE NAME=flowrate_m8_id_8_copy_0 CENTER=175,127 POLYGON=[[155,112],[195,112],[195,132],[185,142],[165,142],[155,132],[155,112]]
EXCLUDE_OBJECT_DEFINE NAME=flowrate_m9_id_9_copy_0 CENTER=133,127 POLYGON=[[113,112],[153,112],[153,132],[143,142],[123,142],[113,132],[113,112]]
M73 P0 R30
;TYPE:Custom
M190 S60
M109 S210
PRINT_START EXTRUDER=210 BED=60
; You can use following code instead if your PRINT_START macro support Chamber and print area bedmesh
; PRINT_START EXTRUDER=210 BED=60 Chamber=0 PRINT_MIN=113,112 PRINT_MAX=237,238
G90
G21
M83 ; use relative distances for extrusion
; filament start gcode
M106 S0
;LAYER_CHANGE
;Z:0.3
;HEIGHT:0.3
;BEFORE_LAYER_CHANGE
;0.3
G92 E0

G1 E-.8 F1800
;AFTER_LAYER_CHANGE
;0.3
;_SET_FAN_SPEED_CHANGING_LAYER
SET_VELOCITY_LIMIT ACCEL=500 ACCEL_TO_DECEL=250
SET_VELOCITY_LIMIT SQUARE_CORNER_VELOCITY=9
; printing object flowrate_m3 id:3 copy 0
EXCLUDE_OBJECT_START NAME=flowrate_m3_id_3_copy_0
G1 Z.4 F21000
G1 X208.402 Y195.857
G1 Z.4
G1 Z.3
G1 E.8 F1800
;TYPE:Inner wall
;WIDTH:0.62
G1 F3000
G1 X208.363 Y195.569 E.01821
G1 X208.184 Y195.191 E.02618
G1 X207.866 Y194.857 E.02886
G1 X207.483 Y194.654 E.02712
G1 X207.032 Y194.579 E.02858
G1 X198.421 Y194.579 E.5389
G1 X198.421 Y177.421 E1.07376
G1 X235.579 Y177.421 E2.32542
G1 X235.579 Y186 E.53688
G1 X235.579 Y194.579 E.53688
G1 X226.968 Y194.579 E.5389
G1 X226.517 Y194.654 E.02858
G1 X226.134 Y194.857 E.02712
G1 X225.817 Y195.191 E.02886
G1 X225.637 Y195.569 E.02618
G1 X225.579 Y195.968 E.02525
G1 X225.579 Y204.579 E.5389
G1 X208.421 Y204.579 E1.07376
G1 X208.421 Y196 E.53688
G1 X208.41 Y195.916 E.00528
G1 X207.852 Y195.915 F21000
G1 F3000
G1 X207.813 Y195.675 E.01519
G1 X207.624 Y195.381 E.02187
G1 X207.365 Y195.204 E.01964
G1 X207.032 Y195.134 E.02128
G1 X197.866 Y195.134 E.57367
G1 X197.866 Y176.866 E1.14331
G1 X236.134 Y176.866 E2.39496
G1 X236.134 Y186 E.57165
G1 X236.134 Y195.134 E.57165
G1 X226.968 Y195.134 E.57367
G1 X226.635 Y195.204 E.02128
G1 X226.376 Y195.381 E.01964
G1 X226.208 Y195.626 E.01859
G1 X226.134 Y195.968 E.02189
G1 X226.134 Y205.134 E.57367
G1 X207.866 Y205.134 E1.14331
G1 X207.866 Y196 E.57165
G1 X207.861 Y195.974 E.00165
G1 X207.31 Y196 F21000
;TYPE:Outer wall
G1 F3000
G1 X207.307 Y195.927 E.0046
G1 X207.215 Y195.759 E.01199
G1 X207.032 Y195.69 E.01221
G1 X197.31 Y195.69 E.60844
G1 X197.31 Y176.31 E1.21285
G1 X236.69 Y176.31 E2.4645
G1 X236.69 Y186 E.60643
G1 X236.69 Y195.69 E.60643
G1 X227 Y195.69 E.60643
G1 X226.922 Y195.694 E.0049
G1 X226.757 Y195.786 E.01181
G1 X226.69 Y195.968 E.01211
G1 X226.69 Y205.69 E.60844
G1 X207.31 Y205.69 E1.21285
G1 X207.31 Y196.06 E.60267
G1 E-.56 F1800
;WIPE_START
G1 F3000
G1 X207.307 Y195.927 E-.03202
G1 X207.215 Y195.759 E-.046
G1 X207.032 Y195.69 E-.04682
G1 X206.552 Y195.69 E-.11516
;WIPE_END
G1 Z.7 F21000
G1 X206.552 Y195.166 Z.7
G1 X236.167 Y176.833
G1 X236.166 Y178.718
G1 X235.412 Y178.718
G1 Z.3
G1 E.8 F1800
;TYPE:Bottom surface
;WIDTH:0.623404
G1 F4425.984
G1 X234.532 Y177.838 E.07839
G1 X233.741 Y177.838 E.04978
G1 X235.162 Y179.259 E.12653
G1 X235.162 Y180.049 E.04978
G1 X232.951 Y177.838 E.19693
G1 X232.16 Y177.838 E.04978
G1 X235.162 Y180.84 E.26733
G1 X235.162 Y181.631 E.04978
G1 X231.369 Y177.838 E.33772
G1 X230.579 Y177.838 E.04978
G1 X235.162 Y182.421 E.40812
G1 X235.162 Y183.212 E.04978
G1 X229.788 Y177.838 E.47852
G1 X228.998 Y177.838 E.04978
G1 X235.162 Y184.002 E.54892
M73 P0 R29
G1 X235.162 Y184.793 E.04978
G1 X228.207 Y177.838 E.61932
G1 X227.417 Y177.838 E.04978
G1 X235.162 Y185.583 E.68972
G1 X235.162 Y186.374 E.04978
G1 X226.626 Y177.838 E.76012
G1 X225.835 Y177.838 E.04978
G1 X235.162 Y187.165 E.83052
G1 X235.162 Y187.955 E.04978
G1 X225.045 Y177.838 E.90092
G1 X224.254 Y177.838 E.04978
G1 X235.162 Y188.746 E.97131
G1 X235.162 Y189.536 E.04978
G1 X223.464 Y177.838 E1.04171
G1 X222.673 Y177.838 E.04978
G1 X235.162 Y190.327 E1.11211
G1 X235.162 Y191.118 E.04978
G1 X221.882 Y177.838 E1.18251
G1 X221.092 Y177.838 E.04978
G1 X235.162 Y191.908 E1.25291
G1 X235.162 Y192.699 E.04978
G1 X220.301 Y177.838 E1.32331
M73 P1 R29
G1 X219.511 Y177.838 E.04978
G1 X235.162 Y193.489 E1.39371
G1 X235.162 Y194.162 E.04237
G1 X235.044 Y194.162 E.00741
G1 X218.72 Y177.838 E1.45363
G1 X217.93 Y177.838 E.04978
G1 X234.254 Y194.163 E1.45368
G1 X233.464 Y194.163 E.04975
G1 X217.139 Y177.838 E1.45373
G1 X216.348 Y177.838 E.04978
G1 X232.674 Y194.164 E1.45378
G1 X231.884 Y194.164 E.04975
G1 X215.558 Y177.838 E1.45383
G1 X214.767 Y177.838 E.04978
G1 X231.094 Y194.165 E1.45387
G1 X230.304 Y194.165 E.04975
G1 X213.977 Y177.838 E1.45392
G1 X213.186 Y177.838 E.04978
G1 X229.514 Y194.166 E1.45397
G1 X228.724 Y194.167 E.04975
G1 X212.396 Y177.838 E1.45402
G1 X211.605 Y177.838 E.04978
G1 X227.934 Y194.167 E1.45407
G1 X227.144 Y194.168 E.04975
G1 X210.814 Y177.838 E1.45411
G1 X210.024 Y177.838 E.04978
G1 X226.434 Y194.248 E1.46126
G1 X226.247 Y194.312 E.01244
G1 X225.995 Y194.446 E.01797
G1 X225.91 Y194.514 E.00688
G1 X209.233 Y177.838 E1.485
G1 X208.443 Y177.838 E.04978
G1 X225.512 Y194.907 E1.51996
G1 X225.32 Y195.228 E.02351
G1 X225.25 Y195.436 E.01386
G1 X207.652 Y177.838 E1.56709
G1 X206.862 Y177.838 E.04978
G1 X225.167 Y196.143 E1.63002
G1 X225.166 Y196.933 E.04975
G1 X206.071 Y177.838 E1.70038
G1 X205.28 Y177.838 E.04978
G1 X225.166 Y197.723 E1.77074
G1 X225.165 Y198.513 E.04975
G1 X204.49 Y177.838 E1.8411
G1 X203.699 Y177.838 E.04978
G1 X225.165 Y199.304 E1.91146
G1 X225.164 Y200.094 E.04975
G1 X202.909 Y177.838 E1.98182
G1 X202.118 Y177.838 E.04978
G1 X225.164 Y200.884 E2.05218
G1 X225.163 Y201.674 E.04975
G1 X201.327 Y177.838 E2.12254
G1 X200.537 Y177.838 E.04978
G1 X225.163 Y202.464 E2.1929
G1 X225.163 Y203.254 E.04975
G1 X199.746 Y177.838 E2.26326
G1 X198.956 Y177.838 E.04978
G1 X225.162 Y204.044 E2.33362
G1 X225.162 Y204.162 E.00741
G1 X224.489 Y204.162 E.04237
G1 X198.838 Y178.511 E2.28418
G1 X198.838 Y179.301 E.04978
G1 X223.699 Y204.162 E2.21378
G1 X222.908 Y204.162 E.04978
G1 X198.838 Y180.092 E2.14338
G1 X198.838 Y180.882 E.04978
G1 X222.118 Y204.162 E2.07299
G1 X221.327 Y204.162 E.04978
G1 X198.838 Y181.673 E2.00259
G1 X198.838 Y182.464 E.04978
G1 X220.536 Y204.162 E1.93219
G1 X219.746 Y204.162 E.04978
G1 X198.838 Y183.254 E1.86179
M73 P2 R29
G1 X198.838 Y184.045 E.04978
G1 X218.955 Y204.162 E1.79139
G1 X218.165 Y204.162 E.04978
G1 X198.838 Y184.835 E1.72099
G1 X198.838 Y185.626 E.04978
G1 X207.42 Y194.208 E.76417
G1 X207.753 Y194.312 E.02202
G1 X208.005 Y194.446 E.01797
G1 X208.314 Y194.695 E.02498
G1 X208.529 Y194.957 E.02133
G1 X208.68 Y195.228 E.01952
G1 X208.796 Y195.584 E.02362
G1 X217.374 Y204.162 E.76384
G1 X216.583 Y204.162 E.04978
G1 X208.834 Y196.412 E.69011
G1 X208.834 Y197.203 E.04981
G1 X215.793 Y204.162 E.61967
G1 X215.002 Y204.162 E.04978
G1 X208.834 Y197.994 E.54923
G1 X208.835 Y198.785 E.04981
G1 X214.212 Y204.162 E.47879
G1 X213.421 Y204.162 E.04978
G1 X208.835 Y199.576 E.40835
G1 X208.836 Y200.367 E.04981
G1 X212.631 Y204.162 E.33792
G1 X211.84 Y204.162 E.04978
G1 X208.836 Y201.158 E.26748
G1 X208.837 Y201.949 E.04981
G1 X211.049 Y204.162 E.19704
G1 X210.259 Y204.162 E.04978
G1 X208.837 Y202.74 E.1266
G1 X208.838 Y203.531 E.04981
G1 X209.718 Y204.412 E.07843
G1 E-.56 F1800
;WIPE_START
G1 F4425.984
G1 X209.011 Y203.705 E-.24
;WIPE_END
G1 Z.7 F21000
G1 X207.833 Y195.167 Z.7
G1 X206.839 Y195.166
G1 X206.839 Y194.418
G1 Z.3
G1 E.8 F1800
G1 F4425.984
G1 X198.838 Y186.417 E.71248
G1 X198.838 Y187.207 E.04978
G1 X205.798 Y194.167 E.61975
G1 X205.007 Y194.166 E.04981
G1 X198.838 Y187.998 E.5493
G1 X198.838 Y188.788 E.04978
G1 X204.215 Y194.166 E.47886
G1 X203.424 Y194.165 E.04981
G1 X198.838 Y189.579 E.40841
G1 X198.838 Y190.369 E.04978
G1 X202.633 Y194.165 E.33796
G1 X201.842 Y194.164 E.04981
G1 X198.838 Y191.16 E.26752
G1 X198.838 Y191.951 E.04978
G1 X201.051 Y194.164 E.19707
G1 X200.26 Y194.163 E.04981
G1 X198.838 Y192.741 E.12662
G1 X198.838 Y193.532 E.04978
G1 X199.719 Y194.413 E.07845
; stop printing object flowrate_m3 id:3 copy 0
; printing object flowrate_m6 id:6 copy 0
G1 E-.56 F1800
;WIPE_START
G1 F4425.984
G1 X199.012 Y193.706 E-.24
;WIPE_END
EXCLUDE_OBJECT_END NAME=flowrate_m3_id_3_copy_0
EXCLUDE_OBJECT_START NAME=flowrate_m6_id_6_copy_0
G1 Z.7 F21000
G1 X225.604 Y163.796 Z.7
G1 Z.3
G1 E.8 F1800
;TYPE:Inner wall
;WIDTH:0.62
G1 F3000
G1 X225.579 Y163.968 E.01053
G1 X225.579 Y172.579 E.52223
G1 X208.421 Y172.579 E1.04055
G1 X208.421 Y164 E.52028
G1 X208.363 Y163.569 E.0264
G1 X208.184 Y163.191 E.02537
G1 X207.866 Y162.857 E.02797
G1 X207.483 Y162.654 E.02628
G1 X207.032 Y162.579 E.0277
G1 X198.421 Y162.579 E.52223
G1 X198.421 Y145.421 E1.04055
G1 X235.579 Y145.421 E2.2535
G1 X235.579 Y154 E.52028
G1 X235.579 Y162.579 E.52028
G1 X226.968 Y162.579 E.52223
G1 X226.517 Y162.654 E.0277
G1 X226.134 Y162.857 E.02628
G1 X225.817 Y163.191 E.02797
G1 X225.637 Y163.569 E.02537
G1 X225.613 Y163.737 E.01029
G1 X226.158 Y163.86 F21000
G1 F3000
G1 X226.134 Y163.968 E.00669
G1 X226.134 Y173.134 E.55593
G1 X207.866 Y173.134 E1.10795
G1 X207.866 Y164 E.55397
G1 X207.813 Y163.675 E.01996
G1 X207.624 Y163.381 E.02119
G1 X207.365 Y163.204 E.01903
G1 X207.032 Y163.134 E.02062
G1 X197.866 Y163.134 E.55593
G1 X197.866 Y144.866 E1.10795
G1 X236.134 Y144.866 E2.32089
G1 X236.134 Y154 E.55397
G1 X236.134 Y163.134 E.55397
G1 X226.968 Y163.134 E.55593
G1 X226.635 Y163.204 E.02062
G1 X226.376 Y163.381 E.01903
G1 X226.208 Y163.626 E.01802
G1 X226.17 Y163.801 E.01089
G1 X226.69 Y163.968 F21000
;TYPE:Outer wall
G1 F3000
G1 X226.69 Y173.69 E.58962
G1 X207.31 Y173.69 E1.17534
G1 X207.31 Y164 E.58767
G1 X207.307 Y163.927 E.00446
G1 X207.215 Y163.759 E.01162
G1 X207.032 Y163.69 E.01183
G1 X197.31 Y163.69 E.58962
G1 X197.31 Y144.31 E1.17534
G1 X236.69 Y144.31 E2.38828
G1 X236.69 Y154 E.58767
G1 X236.69 Y163.69 E.58767
G1 X227 Y163.69 E.58767
G1 X226.922 Y163.694 E.00475
G1 X226.757 Y163.786 E.01145
G1 X226.711 Y163.912 E.00809
G1 E-.56 F1800
;WIPE_START
G1 F3000
G1 X226.709 Y164.912 E-.24
;WIPE_END
G1 Z.7 F21000
G1 X226.166 Y164.912 Z.7
M73 P3 R29
G1 X226.167 Y163.167
G1 X236.167 Y163.167
G1 X236.166 Y146.718
G1 X235.412 Y146.718
G1 Z.3
G1 E.8 F1800
;TYPE:Bottom surface
;WIDTH:0.623404
G1 F4567.239
G1 X234.532 Y145.838 E.07597
G1 X233.741 Y145.838 E.04824
G1 X235.162 Y147.259 E.12261
G1 X235.162 Y148.049 E.04824
G1 X232.951 Y145.838 E.19084
G1 X232.16 Y145.838 E.04824
G1 X235.162 Y148.84 E.25906
G1 X235.162 Y149.631 E.04824
G1 X231.369 Y145.838 E.32728
G1 X230.579 Y145.838 E.04824
G1 X235.162 Y150.421 E.3955
G1 X235.162 Y151.212 E.04824
G1 X229.788 Y145.838 E.46372
G1 X228.998 Y145.838 E.04824
G1 X235.162 Y152.002 E.53194
G1 X235.162 Y152.793 E.04824
G1 X228.207 Y145.838 E.60017
G1 X227.417 Y145.838 E.04824
G1 X235.162 Y153.583 E.66839
G1 X235.162 Y154.374 E.04824
G1 X226.626 Y145.838 E.73661
G1 X225.835 Y145.838 E.04824
G1 X235.162 Y155.165 E.80483
G1 X235.162 Y155.955 E.04824
G1 X225.045 Y145.838 E.87305
G1 X224.254 Y145.838 E.04824
G1 X235.162 Y156.746 E.94127
G1 X235.162 Y157.536 E.04824
G1 X223.464 Y145.838 E1.0095
G1 X222.673 Y145.838 E.04824
G1 X235.162 Y158.327 E1.07772
G1 X235.162 Y159.118 E.04824
G1 X221.882 Y145.838 E1.14594
G1 X221.092 Y145.838 E.04824
G1 X235.162 Y159.908 E1.21416
G1 X235.162 Y160.699 E.04824
G1 X220.301 Y145.838 E1.28238
G1 X219.511 Y145.838 E.04824
G1 X235.162 Y161.489 E1.3506
G1 X235.162 Y162.162 E.04106
G1 X235.044 Y162.162 E.00718
G1 X218.72 Y145.838 E1.40868
G1 X217.93 Y145.838 E.04824
G1 X234.254 Y162.163 E1.40872
G1 X233.464 Y162.163 E.04821
G1 X217.139 Y145.838 E1.40877
G1 X216.348 Y145.838 E.04824
G1 X232.674 Y162.164 E1.40882
G1 X231.884 Y162.164 E.04821
G1 X215.558 Y145.838 E1.40886
G1 X214.767 Y145.838 E.04824
G1 X231.094 Y162.165 E1.40891
G1 X230.304 Y162.165 E.04821
G1 X213.977 Y145.838 E1.40896
G1 X213.186 Y145.838 E.04824
G1 X229.514 Y162.166 E1.409
G1 X228.724 Y162.167 E.04821
G1 X212.396 Y145.838 E1.40905
G1 X211.605 Y145.838 E.04824
G1 X227.934 Y162.167 E1.4091
G1 X227.144 Y162.168 E.04821
G1 X210.814 Y145.838 E1.40914
G1 X210.024 Y145.838 E.04824
G1 X226.434 Y162.248 E1.41606
G1 X226.247 Y162.312 E.01206
G1 X225.995 Y162.446 E.01741
G1 X225.91 Y162.514 E.00667
G1 X209.233 Y145.838 E1.43907
G1 X208.443 Y145.838 E.04824
G1 X225.512 Y162.907 E1.47295
G1 X225.32 Y163.228 E.02278
G1 X225.25 Y163.436 E.01343
G1 X207.652 Y145.838 E1.51862
