; HEADER_BLOCK_START
; generated by OrcaSlicer 1.8.1 on 2023-12-18 at 21:43:40
; total layer number: 7
; HEADER_BLOCK_END

; THUMBNAIL_BLOCK_START

;
; THUMBNAIL_BLOCK_END

; external perimeters extrusion width = 0.62mm
; perimeters extrusion width = 0.62mm
; infill extrusion width = 0.62mm
; solid infill extrusion width = 0.72mm
; top infill extrusion width = 0.72mm
; first layer extrusion width = 0.62mm

; external perimeters extrusion width = 0.62mm
; perimeters extrusion width = 0.62mm
; infill extrusion width = 0.62mm
; solid infill extrusion width = 0.72mm
; top infill extrusion width = 0.72mm
; first layer extrusion width = 0.62mm

; external perimeters extrusion width = 0.62mm
; perimeters extrusion width = 0.62mm
; infill extrusion width = 0.62mm
; solid infill extrusion width = 0.72mm
; top infill extrusion width = 0.72mm
; first layer extrusion width = 0.62mm

; external perimeters extrusion width = 0.62mm
; perimeters extrusion width = 0.62mm
; infill extrusion width = 0.62mm
; solid infill extrusion width = 0.72mm
; top infill extrusion width = 0.72mm
; first layer extrusion width = 0.62mm

; external perimeters extrusion width = 0.62mm
; perimeters extrusion width = 0.62mm
; infill extrusion width = 0.62mm
; solid infill extrusion width = 0.72mm
; top infill extrusion width = 0.72mm
; first layer extrusion width = 0.62mm

; external perimeters extrusion width = 0.62mm
; perimeters extrusion width = 0.62mm
; infill extrusion width = 0.62mm
; solid infill extrusion width = 0.72mm
; top infill extrusion width = 0.72mm
; first layer extrusion width = 0.62mm

; external perimeters extrusion width = 0.62mm
; perimeters extrusion width = 0.62mm
; infill extrusion width = 0.62mm
; solid infill extrusion width = 0.72mm
; top infill extrusion width = 0.72mm
; first layer extrusion width = 0.62mm

; external perimeters extrusion width = 0.62mm
; perimeters extrusion width = 0.62mm
; infill extrusion width = 0.62mm
; solid infill extrusion width = 0.72mm
; top infill extrusion width = 0.72mm
; first layer extrusion width = 0.62mm

; external perimeters extrusion width = 0.62mm
; perimeters extrusion width = 0.62mm
; infill extrusion width = 0.62mm
; solid infill extrusion width = 0.72mm
; top infill extrusion width = 0.72mm
; first layer extrusion width = 0.62mm

; EXECUTABLE_BLOCK_START
EXCLUDE_OBJECT_DEFINE NAME=flowrate_0_id_0_copy_0 CENTER=175,175 POLYGON=[[155,160],[195,160],[195,180],[185,190],[165,190],[155,180],[155,160]]
EXCLUDE_OBJECT_DEFINE NAME=flowrate_10_id_1_copy_0 CENTER=217,207 POLYGON=[[197,192],[237,192],[237,212],[227,222],[207,222],[197,212],[197,192]]
EXCLUDE_OBJECT_DEFINE NAME=flowrate_15_id_2_copy_0 CENTER=175,207 POLYGON=[[155,192],[195,192],[195,212],[185,222],[165,222],[155,212],[155,192]]
EXCLUDE_OBJECT_DEFINE NAME=flowrate_20_id_3_copy_0 CENTER=133,207 POLYGON=[[113,192],[153,192],[153,212],[143,222],[123,222],[113,212],[113,192]]
EXCLUDE_OBJECT_DEFINE NAME=flowrate_5_id_4_copy_0 CENTER=133,175 POLYGON=[[113,160],[153,160],[153,180],[143,190],[123,190],[113,180],[113,160]]
EXCLUDE_OBJECT_DEFINE NAME=flowrate_m10_id_5_copy_0 CENTER=217,143 POLYGON=[[197,128],[237,128],[237,148],[227,158],[207,158],[197,148],[197,128]]
EXCLUDE_OBJECT_DEFINE NAME=flowrate_m15_id_6_copy_0 CENTER=175,143 POLYGON=[[155,128],[195,128],[195,148],[185,158],[165,158],[155,148],[155,128]]
EXCLUDE_OBJECT_DEFINE NAME=flowrate_m20_id_7_copy_0 CENTER=133,143 POLYGON=[[113,128],[153,128],[153,148],[143,158],[123,158],[113,148],[113,128]]
EXCLUDE_OBJECT_DEFINE NAME=flowrate_m5_id_8_copy_0 CENTER=217,175 POLYGON=[[197,160],[237,160],[237,180],[227,190],[207,190],[197,180],[197,160]]
M73 P0 R29
;TYPE:Custom
status_heating
M190 S50
M109 S205
PRINT_START
G90
G21
M83 ; use relative distances for extrusion
; filament start gcode
SET_PRESSURE_ADVANCE ADVANCE=0.015; Override pressure advance value
M106 S0
;LAYER_CHANGE
;Z:0.3
;HEIGHT:0.3
;BEFORE_LAYER_CHANGE
;0.3
G92 E0

G1 E-.8 F1800
;AFTER_LAYER_CHANGE
;0.3
;_SET_FAN_SPEED_CHANGING_LAYER
SET_VELOCITY_LIMIT ACCEL=500 ACCEL_TO_DECEL=250
SET_VELOCITY_LIMIT SQUARE_CORNER_VELOCITY=9
; printing object flowrate_m20 id:7 copy 0
EXCLUDE_OBJECT_START NAME=flowrate_m20_id_7_copy_0
G1 Z.4 F21000
G1 X141.604 Y147.796
G1 Z.4
G1 Z.3
G1 E.8 F1800
;TYPE:Inner wall
;WIDTH:0.62
G1 F3000
G1 X141.579 Y147.968 E.00932
G1 X141.579 Y156.579 E.46199
G1 X124.421 Y156.579 E.92053
G1 X124.421 Y148 E.46026
G1 X124.363 Y147.569 E.02335
G1 X124.184 Y147.191 E.02244
G1 X123.866 Y146.857 E.02474
G1 X123.483 Y146.654 E.02325
G1 X123.032 Y146.579 E.0245
G1 X114.421 Y146.579 E.46199
G1 X114.421 Y129.421 E.92053
G1 X151.579 Y129.421 E1.99356
G1 X151.579 Y138 E.46026
G1 X151.579 Y146.579 E.46026
G1 X142.968 Y146.579 E.46199
G1 X142.517 Y146.654 E.0245
G1 X142.134 Y146.857 E.02325
G1 X141.817 Y147.191 E.02474
G1 X141.637 Y147.569 E.02244
G1 X141.613 Y147.737 E.00911
G1 X142.158 Y147.86 F21000
G1 F3000
G1 X142.134 Y147.968 E.00591
G1 X142.134 Y157.134 E.4918
G1 X123.866 Y157.134 E.98015
G1 X123.866 Y148 E.49007
G1 X123.813 Y147.675 E.01766
G1 X123.624 Y147.381 E.01875
G1 X123.365 Y147.204 E.01684
G1 X123.032 Y147.134 E.01824
G1 X113.866 Y147.134 E.4918
G1 X113.866 Y128.866 E.98015
G1 X152.134 Y128.866 E2.05318
G1 X152.134 Y138 E.49007
G1 X152.134 Y147.134 E.49007
G1 X142.968 Y147.134 E.4918
G1 X142.635 Y147.204 E.01824
G1 X142.376 Y147.381 E.01684
G1 X142.208 Y147.626 E.01594
G1 X142.17 Y147.801 E.00963
G1 X142.69 Y147.968 F21000
;TYPE:Outer wall
G1 F3000
G1 X142.69 Y157.69 E.52161
G1 X123.31 Y157.69 E1.03977
G1 X123.31 Y148 E.51988
G1 X123.307 Y147.927 E.00394
G1 X123.215 Y147.759 E.01028
G1 X123.032 Y147.69 E.01047
G1 X113.31 Y147.69 E.52161
G1 X113.31 Y128.31 E1.03977
G1 X152.69 Y128.31 E2.1128
G1 X152.69 Y138 E.51988
G1 X152.69 Y147.69 E.51988
G1 X143 Y147.69 E.51988
G1 X142.922 Y147.694 E.0042
G1 X142.757 Y147.786 E.01013
G1 X142.711 Y147.912 E.00716
G1 E-.56 F1800
;WIPE_START
G1 F3000
G1 X142.709 Y148.912 E-.24
;WIPE_END
G1 Z.7 F21000
G1 X142.166 Y148.912 Z.7
G1 X142.167 Y147.167
G1 X152.167 Y147.167
G1 X152.166 Y130.718
G1 X151.412 Y130.718
G1 Z.3
G1 E.8 F1800
;TYPE:Bottom surface
;WIDTH:0.623404
G1 F5366.505
G1 X150.532 Y129.838 E.06721
G1 X149.741 Y129.838 E.04268
G1 X151.162 Y131.259 E.10847
G1 X151.162 Y132.049 E.04268
G1 X148.951 Y129.838 E.16882
G1 X148.16 Y129.838 E.04268
G1 X151.162 Y132.84 E.22918
G1 X151.162 Y133.631 E.04268
G1 X147.369 Y129.838 E.28953
G1 X146.579 Y129.838 E.04268
G1 X151.162 Y134.421 E.34988
G1 X151.162 Y135.212 E.04268
G1 X145.788 Y129.838 E.41023
G1 X144.998 Y129.838 E.04268
G1 X151.162 Y136.002 E.47058
G1 X151.162 Y136.793 E.04268
G1 X144.207 Y129.838 E.53094
G1 X143.417 Y129.838 E.04268
G1 X151.162 Y137.583 E.59129
G1 X151.162 Y138.374 E.04268
G1 X142.626 Y129.838 E.65164
G1 X141.835 Y129.838 E.04268
G1 X151.162 Y139.165 E.71199
G1 X151.162 Y139.955 E.04268
G1 X141.045 Y129.838 E.77235
G1 X140.254 Y129.838 E.04268
G1 X151.162 Y140.746 E.8327
G1 X151.162 Y141.536 E.04268
G1 X139.464 Y129.838 E.89305
G1 X138.673 Y129.838 E.04268
G1 X151.162 Y142.327 E.9534
G1 X151.162 Y143.118 E.04268
G1 X137.882 Y129.838 E1.01376
G1 X137.092 Y129.838 E.04268
G1 X151.162 Y143.908 E1.07411
G1 X151.162 Y144.699 E.04268
G1 X136.301 Y129.838 E1.13446
M73 P1 R29
G1 X135.511 Y129.838 E.04268
G1 X151.162 Y145.489 E1.19481
G1 X151.162 Y146.162 E.03632
G1 X151.044 Y146.162 E.00635
G1 X134.72 Y129.838 E1.24619
G1 X133.93 Y129.838 E.04268
G1 X150.254 Y146.163 E1.24623
G1 X149.464 Y146.163 E.04265
G1 X133.139 Y129.838 E1.24627
G1 X132.348 Y129.838 E.04268
G1 X148.674 Y146.164 E1.24631
G1 X147.884 Y146.164 E.04265
G1 X131.558 Y129.838 E1.24635
G1 X130.767 Y129.838 E.04268
G1 X147.094 Y146.165 E1.24639
G1 X146.304 Y146.165 E.04265
G1 X129.977 Y129.838 E1.24643
G1 X129.186 Y129.838 E.04268
G1 X145.514 Y146.166 E1.24648
G1 X144.724 Y146.167 E.04265
G1 X128.396 Y129.838 E1.24652
G1 X127.605 Y129.838 E.04268
G1 X143.934 Y146.167 E1.24656
G1 X143.144 Y146.168 E.04265
G1 X126.814 Y129.838 E1.2466
G1 X126.024 Y129.838 E.04268
G1 X142.434 Y146.248 E1.25272
G1 X142.247 Y146.312 E.01067
G1 X141.995 Y146.446 E.0154
G1 X141.91 Y146.514 E.0059
G1 X125.233 Y129.838 E1.27308
G1 X124.443 Y129.838 E.04268
G1 X141.512 Y146.907 E1.30305
G1 X141.32 Y147.228 E.02016
G1 X141.25 Y147.436 E.01188
G1 X123.652 Y129.838 E1.34345
G1 X122.862 Y129.838 E.04268
G1 X141.167 Y148.143 E1.3974
G1 X141.166 Y148.933 E.04265
G1 X122.071 Y129.838 E1.45772
G1 X121.28 Y129.838 E.04268
G1 X141.166 Y149.723 E1.51804
G1 X141.165 Y150.513 E.04265
G1 X120.49 Y129.838 E1.57836
G1 X119.699 Y129.838 E.04268
G1 X141.165 Y151.304 E1.63868
G1 X141.164 Y152.094 E.04265
G1 X118.909 Y129.838 E1.69899
G1 X118.118 Y129.838 E.04268
G1 X141.164 Y152.884 E1.75931
G1 X141.163 Y153.674 E.04265
G1 X117.327 Y129.838 E1.81963
G1 X116.537 Y129.838 E.04268
G1 X141.163 Y154.464 E1.87995
G1 X141.163 Y155.254 E.04265
G1 X115.746 Y129.838 E1.94027
G1 X114.956 Y129.838 E.04268
G1 X141.162 Y156.044 E2.00059
G1 X141.162 Y156.162 E.00635
G1 X140.489 Y156.162 E.03632
G1 X114.838 Y130.511 E1.95821
G1 X114.838 Y131.301 E.04268
G1 X139.699 Y156.162 E1.89786
G1 X138.908 Y156.162 E.04268
G1 X114.838 Y132.092 E1.8375
G1 X114.838 Y132.882 E.04268
G1 X138.118 Y156.162 E1.77715
G1 X137.327 Y156.162 E.04268
G1 X114.838 Y133.673 E1.7168
G1 X114.838 Y134.464 E.04268
G1 X136.536 Y156.162 E1.65645
G1 X135.746 Y156.162 E.04268
G1 X114.838 Y135.254 E1.59609
G1 X114.838 Y136.045 E.04268
G1 X134.955 Y156.162 E1.53574
M73 P2 R29
G1 X134.165 Y156.162 E.04268
G1 X114.838 Y136.835 E1.47539
G1 X114.838 Y137.626 E.04268
G1 X123.42 Y146.208 E.65512
G1 X123.753 Y146.312 E.01887
G1 X124.005 Y146.446 E.0154
G1 X124.314 Y146.695 E.02142
G1 X124.529 Y146.957 E.01829
G1 X124.68 Y147.228 E.01673
G1 X124.796 Y147.584 E.02025
G1 X133.374 Y156.162 E.65483
G1 X132.583 Y156.162 E.04268
G1 X124.834 Y148.412 E.59162
G1 X124.834 Y149.203 E.0427
G1 X131.793 Y156.162 E.53124
G1 X131.002 Y156.162 E.04268
G1 X124.834 Y149.994 E.47085
G1 X124.835 Y150.785 E.0427
G1 X130.212 Y156.162 E.41046
M73 P2 R28
G1 X129.421 Y156.162 E.04268
G1 X124.835 Y151.576 E.35008
G1 X124.836 Y152.367 E.0427
G1 X128.631 Y156.162 E.28969
G1 X127.84 Y156.162 E.04268
G1 X124.836 Y153.158 E.22931
G1 X124.837 Y153.949 E.0427
G1 X127.049 Y156.162 E.16892
G1 X126.259 Y156.162 E.04268
G1 X124.837 Y154.74 E.10854
G1 X124.838 Y155.531 E.0427
G1 X125.718 Y156.412 E.06724
G1 E-.56 F1800
;WIPE_START
G1 F5366.505
G1 X125.011 Y155.705 E-.24
;WIPE_END
G1 Z.7 F21000
G1 X123.833 Y147.167 Z.7
G1 X122.839 Y147.166
G1 X122.839 Y146.418
G1 Z.3
G1 E.8 F1800
G1 F5366.505
G1 X114.838 Y138.417 E.6108
G1 X114.838 Y139.207 E.04268
G1 X121.798 Y146.167 E.53131
G1 X121.007 Y146.166 E.0427
G1 X114.838 Y139.998 E.47091
G1 X114.838 Y140.788 E.04268
G1 X120.215 Y146.166 E.41052
G1 X119.424 Y146.165 E.0427
G1 X114.838 Y141.579 E.35013
G1 X114.838 Y142.369 E.04268
G1 X118.633 Y146.165 E.28973
G1 X117.842 Y146.164 E.0427
G1 X114.838 Y143.16 E.22934
G1 X114.838 Y143.951 E.04268
G1 X117.051 Y146.164 E.16895
G1 X116.26 Y146.163 E.0427
G1 X114.838 Y144.741 E.10855
G1 X114.838 Y145.532 E.04268
G1 X115.719 Y146.413 E.06726
; stop printing object flowrate_m20 id:7 copy 0
; printing object flowrate_5 id:4 copy 0
G1 E-.56 F1800
;WIPE_START
G1 F5366.505
G1 X115.012 Y145.706 E-.24
;WIPE_END
EXCLUDE_OBJECT_END NAME=flowrate_m20_id_7_copy_0
EXCLUDE_OBJECT_START NAME=flowrate_5_id_4_copy_0
G1 Z.7 F21000
G1 X124.402 Y179.857 Z.7
G1 Z.3
G1 E.8 F1800
;TYPE:Inner wall
;WIDTH:0.62
G1 F3000
G1 X124.363 Y179.569 E.02048
G1 X124.184 Y179.191 E.02946
G1 X123.866 Y178.857 E.03247
G1 X123.483 Y178.654 E.03051
G1 X123.032 Y178.579 E.03216
G1 X114.421 Y178.579 E.60636
G1 X114.421 Y161.421 E1.20819
G1 X151.579 Y161.421 E2.61654
G1 X151.579 Y170 E.6041
G1 X151.579 Y178.579 E.6041
G1 X142.968 Y178.579 E.60636
G1 X142.517 Y178.654 E.03216
G1 X142.134 Y178.857 E.03051
G1 X141.817 Y179.191 E.03247
G1 X141.637 Y179.569 E.02946
G1 X141.579 Y179.968 E.02841
G1 X141.579 Y188.579 E.60636
G1 X124.421 Y188.579 E1.20819
G1 X124.421 Y180 E.6041
G1 X124.41 Y179.916 E.00594
G1 X123.852 Y179.915 F21000
G1 F3000
G1 X123.813 Y179.675 E.01709
G1 X123.624 Y179.381 E.02461
G1 X123.365 Y179.204 E.0221
G1 X123.032 Y179.134 E.02394
G1 X113.866 Y179.134 E.64549
G1 X113.866 Y160.866 E1.28644
G1 X152.134 Y160.866 E2.69479
G1 X152.134 Y170 E.64322
G1 X152.134 Y179.134 E.64322
G1 X142.968 Y179.134 E.64549
G1 X142.635 Y179.204 E.02394
G1 X142.376 Y179.381 E.0221
G1 X142.208 Y179.626 E.02092
G1 X142.134 Y179.968 E.02463
G1 X142.134 Y189.134 E.64549
G1 X123.866 Y189.134 E1.28644
G1 X123.866 Y180 E.64322
G1 X123.861 Y179.974 E.00186
G1 X123.31 Y180 F21000
;TYPE:Outer wall
G1 F3000
G1 X123.307 Y179.927 E.00517
G1 X123.215 Y179.759 E.0135
G1 X123.032 Y179.69 E.01374
G1 X113.31 Y179.69 E.68461
G1 X113.31 Y160.31 E1.36469
G1 X152.69 Y160.31 E2.77305
G1 X152.69 Y170 E.68235
G1 X152.69 Y179.69 E.68235
G1 X143 Y179.69 E.68235
G1 X142.922 Y179.694 E.00551
G1 X142.757 Y179.786 E.01329
G1 X142.69 Y179.968 E.01362
G1 X142.69 Y189.69 E.68461
G1 X123.31 Y189.69 E1.36469
G1 X123.31 Y180.06 E.67812
G1 E-.56 F1800
;WIPE_START
G1 F3000
G1 X123.307 Y179.927 E-.03202
G1 X123.215 Y179.759 E-.046
G1 X123.032 Y179.69 E-.04682
G1 X122.552 Y179.69 E-.11516
;WIPE_END
G1 Z.7 F21000
G1 X122.552 Y179.166 Z.7
G1 X152.167 Y160.833
M73 P3 R28
G1 X152.166 Y162.718
G1 X151.412 Y162.718
G1 Z.3
G1 E.8 F1800
;TYPE:Bottom surface
;WIDTH:0.623404
G1 F4088.766
G1 X150.532 Y161.838 E.08821
G1 X149.741 Y161.838 E.05601
G1 X151.162 Y163.259 E.14237
G1 X151.162 Y164.049 E.05601
G1 X148.951 Y161.838 E.22158
G1 X148.16 Y161.838 E.05601
G1 X151.162 Y164.84 E.30079
G1 X151.162 Y165.631 E.05601
G1 X147.369 Y161.838 E.38001
G1 X146.579 Y161.838 E.05601
G1 X151.162 Y166.421 E.45922
G1 X151.162 Y167.212 E.05601
G1 X145.788 Y161.838 E.53843
G1 X144.998 Y161.838 E.05601
G1 X151.162 Y168.002 E.61764
G1 X151.162 Y168.793 E.05601
G1 X144.207 Y161.838 E.69686
G1 X143.417 Y161.838 E.05601
G1 X151.162 Y169.583 E.77607
G1 X151.162 Y170.374 E.05601
G1 X142.626 Y161.838 E.85528
G1 X141.835 Y161.838 E.05601
G1 X151.162 Y171.165 E.93449
G1 X151.162 Y171.955 E.05601
G1 X141.045 Y161.838 E1.0137
G1 X140.254 Y161.838 E.05601
G1 X151.162 Y172.746 E1.09292
G1 X151.162 Y173.536 E.05601
G1 X139.464 Y161.838 E1.17213
G1 X138.673 Y161.838 E.05601
G1 X151.162 Y174.327 E1.25134
G1 X151.162 Y175.118 E.05601
G1 X137.882 Y161.838 E1.33055
G1 X137.092 Y161.838 E.05601
G1 X151.162 Y175.908 E1.40977
G1 X151.162 Y176.699 E.05601
G1 X136.301 Y161.838 E1.48898
G1 X135.511 Y161.838 E.05601
G1 X151.162 Y177.489 E1.56819
G1 X151.162 Y178.162 E.04767
G1 X151.044 Y178.162 E.00833
G1 X134.72 Y161.838 E1.63562
G1 X133.93 Y161.838 E.05601
G1 X150.254 Y178.163 E1.63568
G1 X149.464 Y178.163 E.05597
G1 X133.139 Y161.838 E1.63573
G1 X132.348 Y161.838 E.05601
G1 X148.674 Y178.164 E1.63578
G1 X147.884 Y178.164 E.05597
G1 X131.558 Y161.838 E1.63584
G1 X130.767 Y161.838 E.05601
G1 X147.094 Y178.165 E1.63589
G1 X146.304 Y178.165 E.05597
G1 X129.977 Y161.838 E1.63595
G1 X129.186 Y161.838 E.05601
G1 X145.514 Y178.166 E1.636
G1 X144.724 Y178.167 E.05597
G1 X128.396 Y161.838 E1.63605
G1 X127.605 Y161.838 E.05601
G1 X143.934 Y178.167 E1.63611
G1 X143.144 Y178.168 E.05597
G1 X126.814 Y161.838 E1.63616
G1 X126.024 Y161.838 E.05601
G1 X142.434 Y178.248 E1.6442
G1 X142.247 Y178.312 E.014
G1 X141.995 Y178.446 E.02022
G1 X141.91 Y178.514 E.00774
G1 X125.233 Y161.838 E1.67091
G1 X124.443 Y161.838 E.05601
G1 X141.512 Y178.907 E1.71025
G1 X141.32 Y179.228 E.02646
G1 X141.25 Y179.436 E.01559
G1 X123.652 Y161.838 E1.76328
G1 X122.862 Y161.838 E.05601
G1 X141.167 Y180.143 E1.83409
G1 X141.166 Y180.933 E.05598
G1 X122.071 Y161.838 E1.91325
G1 X121.28 Y161.838 E.05601
G1 X141.166 Y181.723 E1.99242
G1 X141.165 Y182.513 E.05598
G1 X120.49 Y161.838 E2.07159
G1 X119.699 Y161.838 E.05601
G1 X141.165 Y183.304 E2.15076
G1 X141.164 Y184.094 E.05598
G1 X118.909 Y161.838 E2.22993
G1 X118.118 Y161.838 E.05601
G1 X141.164 Y184.884 E2.3091
M73 P4 R28
G1 X141.163 Y185.674 E.05598
G1 X117.327 Y161.838 E2.38827
G1 X116.537 Y161.838 E.05601
