; HEADER_BLOCK_START
; generated by OrcaSlicer 1.8.1 on 2023-12-18 at 23:14:20
; total layer number: 7
; HEADER_BLOCK_END

; THUMBNAIL_BLOCK_START

;
; THUMBNAIL_BLOCK_END

; external perimeters extrusion width = 0.62mm
; perimeters extrusion width = 0.62mm
; infill extrusion width = 0.62mm
; solid infill extrusion width = 0.72mm
; top infill extrusion width = 0.72mm
; first layer extrusion width = 0.62mm

; external perimeters extrusion width = 0.62mm
; perimeters extrusion width = 0.62mm
; infill extrusion width = 0.62mm
; solid infill extrusion width = 0.72mm
; top infill extrusion width = 0.72mm
; first layer extrusion width = 0.62mm

; external perimeters extrusion width = 0.62mm
; perimeters extrusion width = 0.62mm
; infill extrusion width = 0.62mm
; solid infill extrusion width = 0.72mm
; top infill extrusion width = 0.72mm
; first layer extrusion width = 0.62mm

; external perimeters extrusion width = 0.62mm
; perimeters extrusion width = 0.62mm
; infill extrusion width = 0.62mm
; solid infill extrusion width = 0.72mm
; top infill extrusion width = 0.72mm
; first layer extrusion width = 0.62mm

; external perimeters extrusion width = 0.62mm
; perimeters extrusion width = 0.62mm
; infill extrusion width = 0.62mm
; solid infill extrusion width = 0.72mm
; top infill extrusion width = 0.72mm
; first layer extrusion width = 0.62mm

; external perimeters extrusion width = 0.62mm
; perimeters extrusion width = 0.62mm
; infill extrusion width = 0.62mm
; solid infill extrusion width = 0.72mm
; top infill extrusion width = 0.72mm
; first layer extrusion width = 0.62mm

; external perimeters extrusion width = 0.62mm
; perimeters extrusion width = 0.62mm
; infill extrusion width = 0.62mm
; solid infill extrusion width = 0.72mm
; top infill extrusion width = 0.72mm
; first layer extrusion width = 0.62mm

; external perimeters extrusion width = 0.62mm
; perimeters extrusion width = 0.62mm
; infill extrusion width = 0.62mm
; solid infill extrusion width = 0.72mm
; top infill extrusion width = 0.72mm
; first layer extrusion width = 0.62mm

; external perimeters extrusion width = 0.62mm
; perimeters extrusion width = 0.62mm
; infill extrusion width = 0.62mm
; solid infill extrusion width = 0.72mm
; top infill extrusion width = 0.72mm
; first layer extrusion width = 0.62mm

; external perimeters extrusion width = 0.62mm
; perimeters extrusion width = 0.62mm
; infill extrusion width = 0.62mm
; solid infill extrusion width = 0.72mm
; top infill extrusion width = 0.72mm
; first layer extrusion width = 0.62mm

; EXECUTABLE_BLOCK_START
EXCLUDE_OBJECT_DEFINE NAME=flowrate_0_id_0_copy_0 CENTER=175,223 POLYGON=[[155,208],[195,208],[195,228],[185,238],[165,238],[155,228],[155,208]]
EXCLUDE_OBJECT_DEFINE NAME=flowrate_m1_id_1_copy_0 CENTER=133,191 POLYGON=[[113,176],[153,176],[153,196],[143,206],[123,206],[113,196],[113,176]]
EXCLUDE_OBJECT_DEFINE NAME=flowrate_m2_id_2_copy_0 CENTER=175,191 POLYGON=[[155,176],[195,176],[195,196],[185,206],[165,206],[155,196],[155,176]]
EXCLUDE_OBJECT_DEFINE NAME=flowrate_m3_id_3_copy_0 CENTER=217,191 POLYGON=[[197,176],[237,176],[237,196],[227,206],[207,206],[197,196],[197,176]]
EXCLUDE_OBJECT_DEFINE NAME=flowrate_m4_id_4_copy_0 CENTER=133,159 POLYGON=[[113,144],[153,144],[153,164],[143,174],[123,174],[113,164],[113,144]]
EXCLUDE_OBJECT_DEFINE NAME=flowrate_m5_id_5_copy_0 CENTER=175,159 POLYGON=[[155,144],[195,144],[195,164],[185,174],[165,174],[155,164],[155,144]]
EXCLUDE_OBJECT_DEFINE NAME=flowrate_m6_id_6_copy_0 CENTER=217,159 POLYGON=[[197,144],[237,144],[237,164],[227,174],[207,174],[197,164],[197,144]]
EXCLUDE_OBJECT_DEFINE NAME=flowrate_m7_id_7_copy_0 CENTER=217,127 POLYGON=[[197,112],[237,112],[237,132],[227,142],[207,142],[197,132],[197,112]]
EXCLUDE_OBJECT_DEFINE NAME=flowrate_m8_id_8_copy_0 CENTER=175,127 POLYGON=[[155,112],[195,112],[195,132],[185,142],[165,142],[155,132],[155,112]]
EXCLUDE_OBJECT_DEFINE NAME=flowrate_m9_id_9_copy_0 CENTER=133,127 POLYGON=[[113,112],[153,112],[153,132],[143,142],[123,142],[113,132],[113,112]]
M73 P0 R30
;TYPE:Custom
status_heating
M190 S50
M109 S205
PRINT_START
G90
G21
M83 ; use relative distances for extrusion
; filament start gcode
SET_PRESSURE_ADVANCE ADVANCE=0.015; Override pressure advance value
M106 S0
;LAYER_CHANGE
;Z:0.3
;HEIGHT:0.3
;BEFORE_LAYER_CHANGE
;0.3
G92 E0

G1 E-.8 F1800
;AFTER_LAYER_CHANGE
;0.3
;_SET_FAN_SPEED_CHANGING_LAYER
SET_VELOCITY_LIMIT ACCEL=500 ACCEL_TO_DECEL=250
SET_VELOCITY_LIMIT SQUARE_CORNER_VELOCITY=9
; printing object flowrate_m3 id:3 copy 0
EXCLUDE_OBJECT_START NAME=flowrate_m3_id_3_copy_0
G1 Z.4 F21000
G1 X208.402 Y195.857
G1 Z.4
G1 Z.3
G1 E.8 F1800
;TYPE:Inner wall
;WIDTH:0.62
G1 F3000
G1 X208.363 Y195.569 E.01798
G1 X208.184 Y195.191 E.02585
G1 X207.866 Y194.857 E.0285
G1 X207.483 Y194.654 E.02678
G1 X207.032 Y194.579 E.02822
G1 X198.421 Y194.579 E.53213
G1 X198.421 Y177.421 E1.06029
G1 X235.579 Y177.421 E2.29623
G1 X235.579 Y186 E.53014
G1 X235.579 Y194.579 E.53014
G1 X226.968 Y194.579 E.53213
M73 P0 R29
G1 X226.517 Y194.654 E.02822
G1 X226.134 Y194.857 E.02678
G1 X225.817 Y195.191 E.0285
G1 X225.637 Y195.569 E.02585
G1 X225.579 Y195.968 E.02493
G1 X225.579 Y204.579 E.53213
G1 X208.421 Y204.579 E1.06029
G1 X208.421 Y196 E.53014
G1 X208.41 Y195.916 E.00521
G1 X207.852 Y195.915 F21000
G1 F3000
G1 X207.813 Y195.675 E.015
G1 X207.624 Y195.381 E.0216
G1 X207.365 Y195.204 E.01939
G1 X207.032 Y195.134 E.02101
G1 X197.866 Y195.134 E.56647
G1 X197.866 Y176.866 E1.12896
G1 X236.134 Y176.866 E2.3649
G1 X236.134 Y186 E.56448
G1 X236.134 Y195.134 E.56448
G1 X226.968 Y195.134 E.56647
G1 X226.635 Y195.204 E.02101
G1 X226.376 Y195.381 E.01939
G1 X226.208 Y195.626 E.01836
G1 X226.134 Y195.968 E.02162
G1 X226.134 Y205.134 E.56647
G1 X207.866 Y205.134 E1.12896
G1 X207.866 Y196 E.56448
G1 X207.861 Y195.974 E.00163
G1 X207.31 Y196 F21000
;TYPE:Outer wall
G1 F3000
G1 X207.307 Y195.927 E.00454
G1 X207.215 Y195.759 E.01184
G1 X207.032 Y195.69 E.01206
G1 X197.31 Y195.69 E.6008
G1 X197.31 Y176.31 E1.19763
G1 X236.69 Y176.31 E2.43357
G1 X236.69 Y186 E.59881
G1 X236.69 Y195.69 E.59881
G1 X227 Y195.69 E.59881
G1 X226.922 Y195.694 E.00484
G1 X226.757 Y195.786 E.01166
G1 X226.69 Y195.968 E.01196
G1 X226.69 Y205.69 E.6008
G1 X207.31 Y205.69 E1.19763
G1 X207.31 Y196.06 E.59511
G1 E-.56 F1800
;WIPE_START
G1 F3000
G1 X207.307 Y195.927 E-.03202
G1 X207.215 Y195.759 E-.046
G1 X207.032 Y195.69 E-.04682
G1 X206.552 Y195.69 E-.11516
;WIPE_END
G1 Z.7 F21000
G1 X206.552 Y195.166 Z.7
G1 X236.167 Y176.833
G1 X236.166 Y178.718
G1 X235.412 Y178.718
G1 Z.3
G1 E.8 F1800
;TYPE:Bottom surface
;WIDTH:0.623404
G1 F4425.984
G1 X234.532 Y177.838 E.07741
G1 X233.741 Y177.838 E.04915
G1 X235.162 Y179.259 E.12494
G1 X235.162 Y180.049 E.04915
G1 X232.951 Y177.838 E.19445
G1 X232.16 Y177.838 E.04915
G1 X235.162 Y180.84 E.26397
G1 X235.162 Y181.631 E.04915
G1 X231.369 Y177.838 E.33349
G1 X230.579 Y177.838 E.04915
G1 X235.162 Y182.421 E.403
G1 X235.162 Y183.212 E.04915
G1 X229.788 Y177.838 E.47252
G1 X228.998 Y177.838 E.04915
G1 X235.162 Y184.002 E.54203
G1 X235.162 Y184.793 E.04915
G1 X228.207 Y177.838 E.61155
G1 X227.417 Y177.838 E.04915
G1 X235.162 Y185.583 E.68106
G1 X235.162 Y186.374 E.04915
G1 X226.626 Y177.838 E.75058
G1 X225.835 Y177.838 E.04915
G1 X235.162 Y187.165 E.82009
G1 X235.162 Y187.955 E.04915
G1 X225.045 Y177.838 E.88961
G1 X224.254 Y177.838 E.04915
G1 X235.162 Y188.746 E.95912
G1 X235.162 Y189.536 E.04915
G1 X223.464 Y177.838 E1.02864
G1 X222.673 Y177.838 E.04915
G1 X235.162 Y190.327 E1.09815
G1 X235.162 Y191.118 E.04915
G1 X221.882 Y177.838 E1.16767
G1 X221.092 Y177.838 E.04915
G1 X235.162 Y191.908 E1.23718
G1 X235.162 Y192.699 E.04915
G1 X220.301 Y177.838 E1.3067
M73 P1 R29
G1 X219.511 Y177.838 E.04915
G1 X235.162 Y193.489 E1.37622
G1 X235.162 Y194.162 E.04184
G1 X235.044 Y194.162 E.00731
G1 X218.72 Y177.838 E1.43539
G1 X217.93 Y177.838 E.04915
G1 X234.254 Y194.163 E1.43544
G1 X233.464 Y194.163 E.04912
G1 X217.139 Y177.838 E1.43548
G1 X216.348 Y177.838 E.04915
G1 X232.674 Y194.164 E1.43553
G1 X231.884 Y194.164 E.04912
G1 X215.558 Y177.838 E1.43558
G1 X214.767 Y177.838 E.04915
G1 X231.094 Y194.165 E1.43563
G1 X230.304 Y194.165 E.04912
G1 X213.977 Y177.838 E1.43567
G1 X213.186 Y177.838 E.04915
G1 X229.514 Y194.166 E1.43572
G1 X228.724 Y194.167 E.04912
G1 X212.396 Y177.838 E1.43577
G1 X211.605 Y177.838 E.04915
G1 X227.934 Y194.167 E1.43582
G1 X227.144 Y194.168 E.04912
G1 X210.814 Y177.838 E1.43586
G1 X210.024 Y177.838 E.04915
G1 X226.434 Y194.248 E1.44292
G1 X226.247 Y194.312 E.01229
G1 X225.995 Y194.446 E.01774
G1 X225.91 Y194.514 E.00679
G1 X209.233 Y177.838 E1.46636
G1 X208.443 Y177.838 E.04915
G1 X225.512 Y194.907 E1.50088
G1 X225.32 Y195.228 E.02322
G1 X225.25 Y195.436 E.01368
G1 X207.652 Y177.838 E1.54742
G1 X206.862 Y177.838 E.04915
G1 X225.167 Y196.143 E1.60956
G1 X225.166 Y196.933 E.04913
G1 X206.071 Y177.838 E1.67904
G1 X205.28 Y177.838 E.04915
G1 X225.166 Y197.723 E1.74851
G1 X225.165 Y198.513 E.04913
G1 X204.49 Y177.838 E1.81799
G1 X203.699 Y177.838 E.04915
G1 X225.165 Y199.304 E1.88747
G1 X225.164 Y200.094 E.04913
G1 X202.909 Y177.838 E1.95694
G1 X202.118 Y177.838 E.04915
G1 X225.164 Y200.884 E2.02642
G1 X225.163 Y201.674 E.04913
G1 X201.327 Y177.838 E2.0959
G1 X200.537 Y177.838 E.04915
G1 X225.163 Y202.464 E2.16538
G1 X225.163 Y203.254 E.04913
G1 X199.746 Y177.838 E2.23485
G1 X198.956 Y177.838 E.04915
G1 X225.162 Y204.044 E2.30433
G1 X225.162 Y204.162 E.00731
G1 X224.489 Y204.162 E.04184
G1 X198.838 Y178.511 E2.25551
G1 X198.838 Y179.301 E.04915
G1 X223.699 Y204.162 E2.186
G1 X222.908 Y204.162 E.04915
G1 X198.838 Y180.092 E2.11648
G1 X198.838 Y180.882 E.04915
G1 X222.118 Y204.162 E2.04697
G1 X221.327 Y204.162 E.04915
G1 X198.838 Y181.673 E1.97745
G1 X198.838 Y182.464 E.04915
G1 X220.536 Y204.162 E1.90794
M73 P2 R29
G1 X219.746 Y204.162 E.04915
G1 X198.838 Y183.254 E1.83842
G1 X198.838 Y184.045 E.04915
G1 X218.955 Y204.162 E1.76891
G1 X218.165 Y204.162 E.04915
G1 X198.838 Y184.835 E1.69939
G1 X198.838 Y185.626 E.04915
G1 X207.42 Y194.208 E.75458
G1 X207.753 Y194.312 E.02174
G1 X208.005 Y194.446 E.01774
G1 X208.314 Y194.695 E.02467
G1 X208.529 Y194.957 E.02106
G1 X208.68 Y195.228 E.01927
G1 X208.796 Y195.584 E.02333
G1 X217.374 Y204.162 E.75425
G1 X216.583 Y204.162 E.04915
G1 X208.834 Y196.412 E.68144
G1 X208.834 Y197.203 E.04918
G1 X215.793 Y204.162 E.61189
G1 X215.002 Y204.162 E.04915
G1 X208.834 Y197.994 E.54234
G1 X208.835 Y198.785 E.04918
G1 X214.212 Y204.162 E.47278
G1 X213.421 Y204.162 E.04915
G1 X208.835 Y199.576 E.40323
G1 X208.836 Y200.367 E.04918
G1 X212.631 Y204.162 E.33368
G1 X211.84 Y204.162 E.04915
G1 X208.836 Y201.158 E.26412
G1 X208.837 Y201.949 E.04918
G1 X211.049 Y204.162 E.19457
G1 X210.259 Y204.162 E.04915
G1 X208.837 Y202.74 E.12501
G1 X208.838 Y203.531 E.04918
G1 X209.718 Y204.412 E.07745
G1 E-.56 F1800
;WIPE_START
G1 F4425.984
G1 X209.011 Y203.705 E-.24
;WIPE_END
G1 Z.7 F21000
G1 X207.833 Y195.167 Z.7
G1 X206.839 Y195.166
G1 X206.839 Y194.418
G1 Z.3
G1 E.8 F1800
G1 F4425.984
G1 X198.838 Y186.417 E.70353
G1 X198.838 Y187.207 E.04915
G1 X205.798 Y194.167 E.61197
G1 X205.007 Y194.166 E.04919
G1 X198.838 Y187.998 E.54241
G1 X198.838 Y188.788 E.04915
G1 X204.215 Y194.166 E.47285
G1 X203.424 Y194.165 E.04919
G1 X198.838 Y189.579 E.40328
G1 X198.838 Y190.369 E.04915
G1 X202.633 Y194.165 E.33372
G1 X201.842 Y194.164 E.04919
G1 X198.838 Y191.16 E.26416
G1 X198.838 Y191.951 E.04915
G1 X201.051 Y194.164 E.1946
G1 X200.26 Y194.163 E.04919
G1 X198.838 Y192.741 E.12503
G1 X198.838 Y193.532 E.04915
G1 X199.719 Y194.413 E.07747
; stop printing object flowrate_m3 id:3 copy 0
; printing object flowrate_m6 id:6 copy 0
G1 E-.56 F1800
;WIPE_START
G1 F4425.984
G1 X199.012 Y193.706 E-.24
;WIPE_END
EXCLUDE_OBJECT_END NAME=flowrate_m3_id_3_copy_0
EXCLUDE_OBJECT_START NAME=flowrate_m6_id_6_copy_0
G1 Z.7 F21000
G1 X225.604 Y163.796 Z.7
G1 Z.3
G1 E.8 F1800
;TYPE:Inner wall
;WIDTH:0.62
G1 F3000
G1 X225.579 Y163.968 E.0104
G1 X225.579 Y172.579 E.51567
G1 X208.421 Y172.579 E1.02749
G1 X208.421 Y164 E.51375
G1 X208.363 Y163.569 E.02607
G1 X208.184 Y163.191 E.02505
G1 X207.866 Y162.857 E.02762
G1 X207.483 Y162.654 E.02595
G1 X207.032 Y162.579 E.02735
G1 X198.421 Y162.579 E.51567
G1 X198.421 Y145.421 E1.02749
G1 X235.579 Y145.421 E2.22521
G1 X235.579 Y154 E.51375
G1 X235.579 Y162.579 E.51375
G1 X226.968 Y162.579 E.51567
G1 X226.517 Y162.654 E.02735
G1 X226.134 Y162.857 E.02595
G1 X225.817 Y163.191 E.02762
G1 X225.637 Y163.569 E.02505
G1 X225.613 Y163.737 E.01017
G1 X226.158 Y163.86 F21000
G1 F3000
G1 X226.134 Y163.968 E.0066
G1 X226.134 Y173.134 E.54895
G1 X207.866 Y173.134 E1.09404
G1 X207.866 Y164 E.54702
G1 X207.813 Y163.675 E.01971
G1 X207.624 Y163.381 E.02093
G1 X207.365 Y163.204 E.01879
G1 X207.032 Y163.134 E.02036
G1 X197.866 Y163.134 E.54895
G1 X197.866 Y144.866 E1.09404
G1 X236.134 Y144.866 E2.29176
G1 X236.134 Y154 E.54702
G1 X236.134 Y163.134 E.54702
G1 X226.968 Y163.134 E.54895
G1 X226.635 Y163.204 E.02036
G1 X226.376 Y163.381 E.01879
G1 X226.208 Y163.626 E.01779
G1 X226.17 Y163.801 E.01075
G1 X226.69 Y163.968 F21000
;TYPE:Outer wall
G1 F3000
G1 X226.69 Y173.69 E.58222
G1 X207.31 Y173.69 E1.16059
G1 X207.31 Y164 E.58029
G1 X207.307 Y163.927 E.0044
G1 X207.215 Y163.759 E.01148
G1 X207.032 Y163.69 E.01168
G1 X197.31 Y163.69 E.58222
G1 X197.31 Y144.31 E1.16059
G1 X236.69 Y144.31 E2.35831
G1 X236.69 Y154 E.58029
G1 X236.69 Y163.69 E.58029
G1 X227 Y163.69 E.58029
M73 P3 R29
G1 X226.922 Y163.694 E.00469
G1 X226.757 Y163.786 E.0113
G1 X226.711 Y163.912 E.00799
G1 E-.56 F1800
;WIPE_START
G1 F3000
G1 X226.709 Y164.912 E-.24
;WIPE_END
G1 Z.7 F21000
G1 X226.166 Y164.912 Z.7
G1 X226.167 Y163.167
G1 X236.167 Y163.167
G1 X236.166 Y146.718
G1 X235.412 Y146.718
G1 Z.3
G1 E.8 F1800
;TYPE:Bottom surface
;WIDTH:0.623404
G1 F4567.239
G1 X234.532 Y145.838 E.07501
G1 X233.741 Y145.838 E.04763
G1 X235.162 Y147.259 E.12108
G1 X235.162 Y148.049 E.04763
G1 X232.951 Y145.838 E.18844
G1 X232.16 Y145.838 E.04763
G1 X235.162 Y148.84 E.25581
G1 X235.162 Y149.631 E.04763
G1 X231.369 Y145.838 E.32317
G1 X230.579 Y145.838 E.04763
G1 X235.162 Y150.421 E.39054
G1 X235.162 Y151.212 E.04763
G1 X229.788 Y145.838 E.4579
G1 X228.998 Y145.838 E.04763
G1 X235.162 Y152.002 E.52527
G1 X235.162 Y152.793 E.04763
G1 X228.207 Y145.838 E.59263
G1 X227.417 Y145.838 E.04763
G1 X235.162 Y153.583 E.66
G1 X235.162 Y154.374 E.04763
G1 X226.626 Y145.838 E.72736
G1 X225.835 Y145.838 E.04763
G1 X235.162 Y155.165 E.79473
G1 X235.162 Y155.955 E.04763
G1 X225.045 Y145.838 E.86209
G1 X224.254 Y145.838 E.04763
G1 X235.162 Y156.746 E.92946
G1 X235.162 Y157.536 E.04763
G1 X223.464 Y145.838 E.99683
G1 X222.673 Y145.838 E.04763
G1 X235.162 Y158.327 E1.06419
G1 X235.162 Y159.118 E.04763
G1 X221.882 Y145.838 E1.13156
G1 X221.092 Y145.838 E.04763
G1 X235.162 Y159.908 E1.19892
G1 X235.162 Y160.699 E.04763
G1 X220.301 Y145.838 E1.26629
G1 X219.511 Y145.838 E.04763
G1 X235.162 Y161.489 E1.33365
G1 X235.162 Y162.162 E.04054
G1 X235.044 Y162.162 E.00709
G1 X218.72 Y145.838 E1.391
G1 X217.93 Y145.838 E.04763
G1 X234.254 Y162.163 E1.39104
G1 X233.464 Y162.163 E.0476
G1 X217.139 Y145.838 E1.39109
G1 X216.348 Y145.838 E.04763
G1 X232.674 Y162.164 E1.39113
G1 X231.884 Y162.164 E.0476
G1 X215.558 Y145.838 E1.39118
M73 P3 R28
G1 X214.767 Y145.838 E.04763
G1 X231.094 Y162.165 E1.39123
G1 X230.304 Y162.165 E.0476
G1 X213.977 Y145.838 E1.39127
G1 X213.186 Y145.838 E.04763
G1 X229.514 Y162.166 E1.39132
G1 X228.724 Y162.167 E.0476
G1 X212.396 Y145.838 E1.39136
G1 X211.605 Y145.838 E.04763
G1 X227.934 Y162.167 E1.39141
G1 X227.144 Y162.168 E.0476
G1 X210.814 Y145.838 E1.39146
G1 X210.024 Y145.838 E.04763
G1 X226.434 Y162.248 E1.39829
G1 X226.247 Y162.312 E.01191
G1 X225.995 Y162.446 E.01719
G1 X225.91 Y162.514 E.00658
G1 X209.233 Y145.838 E1.42101
G1 X208.443 Y145.838 E.04763
G1 X225.512 Y162.907 E1.45446
G1 X225.32 Y163.228 E.0225
G1 X225.25 Y163.436 E.01326
G1 X207.652 Y145.838 E1.49956
G1 X206.862 Y145.838 E.04763
G1 X225.167 Y164.143 E1.55978
G1 X225.166 Y164.933 E.04761
G1 X206.071 Y145.838 E1.62711
