; HEADER_BLOCK_START
; generated by OrcaSlicer 1.8.0 on 2023-12-18 at 21:05:07
; total layer number: 18
; HEADER_BLOCK_END

; THUMBNAIL_BLOCK_START

;
; THUMBNAIL_BLOCK_END

; external perimeters extrusion width = 0.62mm
; perimeters extrusion width = 0.62mm
; infill extrusion width = 0.62mm
; solid infill extrusion width = 0.62mm
; top infill extrusion width = 0.62mm
; first layer extrusion width = 0.62mm

; EXECUTABLE_BLOCK_START
EXCLUDE_OBJECT_DEFINE NAME=OrcaToleranceTest.stl_id_0_copy_0 CENTER=175,175 POLYGON=[[146.032,171.2],[149.032,168.2],[150.336,167.8],[199.083,167.8],[200.968,168.2],[203.968,171.2],[203.968,179.2],[200.968,182.2],[149.032,182.2],[146.032,179.2],[146.032,171.2]]
M73 P0 R8
;TYPE:Custom
status_heating
M190 S50
M109 S205
PRINT_START
G90
G21
M83 ; use relative distances for extrusion
; filament start gcode
SET_PRESSURE_ADVANCE ADVANCE=0.015; Override pressure advance value
M106 S0
;LAYER_CHANGE
;Z:0.3
;HEIGHT:0.3
;BEFORE_LAYER_CHANGE
;0.3
G92 E0

G1 E-.8 F1800
;AFTER_LAYER_CHANGE
;0.3
;_SET_FAN_SPEED_CHANGING_LAYER
SET_VELOCITY_LIMIT ACCEL=500 ACCEL_TO_DECEL=250
SET_VELOCITY_LIMIT SQUARE_CORNER_VELOCITY=9
; printing object OrcaToleranceTest.stl id:0 copy 0
EXCLUDE_OBJECT_START NAME=OrcaToleranceTest.stl_id_0_copy_0
G1 Z.4 F21000
G1 X200.363 Y172.264
G1 Z.4
G1 Z.3
G1 E.8 F1800
;TYPE:Inner wall
;WIDTH:0.62
G1 F3000
G1 X200.168 Y172.229 E.01329
G1 X195.916 Y172.229 E.28515
G1 X195.676 Y172.25 E.01616
G1 X195.21 Y172.422 E.03331
G1 X194.942 Y172.628 E.02271
G1 X194.713 Y172.923 E.02505
G1 X193.116 Y175.69 E.21422
G1 X191.577 Y173.023 E.20648
G1 X191.237 Y172.63 E.03485
G1 X190.844 Y172.411 E.03021
G1 X190.374 Y172.329 E.03199
G1 X186.238 Y172.329 E.2774
G1 X185.766 Y172.411 E.03212
G1 X185.371 Y172.632 E.03032
G1 X185.035 Y173.023 E.03461
G1 X183.495 Y175.69 E.20648
G1 X181.987 Y173.079 E.20216
G1 X181.646 Y172.708 E.03378
G1 X181.263 Y172.504 E.02915
G1 X180.811 Y172.429 E.03074
G1 X176.79 Y172.429 E.26966
G1 X176.335 Y172.505 E.03092
G1 X175.95 Y172.712 E.02931
G1 X175.587 Y173.123 E.03681
G1 X174.105 Y175.69 E.19873
G1 X172.654 Y173.178 E.19449
G1 X172.287 Y172.788 E.03595
G1 X171.913 Y172.599 E.02811
G1 X171.478 Y172.529 E.02953
G1 X167.573 Y172.529 E.26191
G1 X167.136 Y172.599 E.02969
G1 X166.761 Y172.791 E.02826
G1 X166.483 Y173.057 E.02576
G1 X166.37 Y173.223 E.01351
G1 X164.946 Y175.69 E.19099
G1 X163.479 Y173.162 E.19599
G1 X163.144 Y172.83 E.03165
G1 X162.775 Y172.646 E.02765
G1 X162.348 Y172.579 E.02899
G1 X158.5 Y172.579 E.25804
G1 X158.076 Y172.645 E.02881
G1 X157.708 Y172.827 E.0275
G1 X157.431 Y173.081 E.02519
G1 X157.297 Y173.273 E.01574
G1 X155.931 Y175.64 E.18324
G1 X154.511 Y173.196 E.18953
G1 X154.166 Y172.865 E.03204
G1 X153.805 Y172.692 E.02688
G1 X153.391 Y172.629 E.0281
G1 X149.601 Y172.629 E.25417
G1 X149.254 Y172.673 E.02347
G1 X148.906 Y172.815 E.02519
G1 X148.398 Y173.323 E.04819
G1 X147.703 Y174.527 E.09321
G1 X147.703 Y171.789 E.18364
G1 X149.621 Y169.871 E.18186
G1 X200.379 Y169.871 E3.40412
M73 P1 R8
G1 X202.297 Y171.789 E.18186
G1 X202.297 Y172.081 E.0196
G1 X202.297 Y174.527 E.16404
G1 X201.371 Y172.923 E.12419
G1 X201.112 Y172.599 E.02786
G1 X200.656 Y172.317 E.03596
G1 X200.422 Y172.275 E.01591
G1 E-.56 F1800
;WIPE_START
G1 F3000
G1 X200.168 Y172.229 E-.06196
G1 X199.426 Y172.229 E-.17804
;WIPE_END
G1 Z.7 F21000
G1 X202.853 Y176.601 Z.7
G1 Z.3
G1 E.8 F1800
G1 F3000
G1 X200.89 Y173.201 E.26325
G1 X200.734 Y173.006 E.01671
G1 X200.461 Y172.837 E.02157
G1 X200.168 Y172.784 E.01994
G1 X195.916 Y172.784 E.28515
G1 X195.772 Y172.797 E.00969
G1 X195.493 Y172.9 E.01998
G1 X195.332 Y173.024 E.01362
G1 X195.195 Y173.201 E.01503
G1 X193.116 Y176.801 E.27876
G1 X191.096 Y173.301 E.27102
G1 X190.892 Y173.065 E.02091
G1 X190.656 Y172.934 E.01813
G1 X190.374 Y172.884 E.0192
G1 X186.238 Y172.884 E.2774
G1 X186.094 Y172.897 E.00969
G1 X185.718 Y173.066 E.02765
G1 X185.516 Y173.301 E.02077
G1 X183.495 Y176.801 E.27102
G1 X181.532 Y173.401 E.26327
G1 X181.312 Y173.152 E.02229
G1 X181.082 Y173.03 E.01749
G1 X180.811 Y172.984 E.01844
G1 X176.79 Y172.984 E.26966
G1 X176.646 Y172.997 E.00969
G1 X176.286 Y173.154 E.02634
G1 X176.068 Y173.401 E.02209
G1 X174.105 Y176.801 E.26327
G1 X172.2 Y173.501 E.25553
G1 X171.963 Y173.24 E.02363
G1 X171.739 Y173.126 E.01687
G1 X171.478 Y173.084 E.01772
G1 X167.573 Y173.084 E.26191
G1 X167.429 Y173.097 E.00969
G1 X167.085 Y173.242 E.02499
G1 X166.851 Y173.501 E.02344
G1 X164.946 Y176.801 E.25553
G1 X163.07 Y173.551 E.25166
G1 X162.826 Y173.285 E.02422
G1 X162.604 Y173.175 E.01659
G1 X162.348 Y173.134 E.01739
G1 X158.5 Y173.134 E.25804
G1 X158.356 Y173.147 E.00969
G1 X158.025 Y173.283 E.02402
G1 X157.779 Y173.551 E.02442
G1 X155.931 Y176.751 E.24778
G1 X154.113 Y173.601 E.24391
G1 X153.856 Y173.326 E.02521
G1 X153.639 Y173.222 E.01613
G1 X153.391 Y173.184 E.01686
G1 X150.192 Y173.184 E.21456
G1 X149.393 Y173.211 E.05361
G1 X149.184 Y173.296 E.01512
G1 X148.879 Y173.601 E.02891
G1 X147.147 Y176.601 E.23228
G1 X147.147 Y171.559 E.33814
G1 X149.39 Y169.316 E.21273
G1 X200.61 Y169.316 E3.43499
M73 P2 R8
G1 X202.853 Y171.559 E.21273
G1 X202.853 Y172.081 E.03504
G1 X202.853 Y176.541 E.29908
G1 E-.56 F1800
;WIPE_START
G1 F3000
G1 X202.346 Y175.678 E-.24
;WIPE_END
G1 Z.7 F21000
G1 X201.528 Y180.219 Z.7
G1 Z.3
G1 E.8 F1800
;WIDTH:0.545266
G1 F3000
G1 X202.89 Y177.86 E.15809
G1 X202.89 Y178.857 E.05787
G1 X201.571 Y180.176 E.10831
G1 E-.56 F1800
;WIPE_START
G1 F3000
G1 X202.065 Y179.307 E-.24
;WIPE_END
G1 Z.7 F21000
G1 X193.116 Y179.172 Z.7
G1 Z.3
G1 E.8 F1800
;WIDTH:0.881636
G1 F2936.66
G1 X193.824 Y180.398 E.13963
G1 X192.408 Y180.398 E.13963
G1 X193.086 Y179.224 E.13372
G1 E-.56 F1800
;WIPE_START
G1 F2936.66
G1 X193.618 Y180.071 E-.24
;WIPE_END
G1 Z.7 F21000
G1 X193.116 Y177.799 Z.7
G1 Z.3
G1 E.8 F1800
;WIDTH:0.62
G1 F3000
G1 X195.013 Y181.084 E.2544
G1 X191.22 Y181.084 E.2544
G1 X193.086 Y177.851 E.25038
G1 E-.56 F1800
;WIPE_START
G1 F3000
G1 X193.598 Y178.71 E-.24
;WIPE_END
G1 Z.7 F21000
G1 X183.495 Y179.172 Z.7
G1 Z.3
G1 E.8 F1800
;WIDTH:0.881636
G1 F2936.66
G1 X184.203 Y180.398 E.13963
G1 X182.787 Y180.398 E.13963
G1 X183.465 Y179.224 E.13372
G1 E-.56 F1800
;WIPE_START
G1 F2936.66
G1 X183.997 Y180.071 E-.24
;WIPE_END
G1 Z.7 F21000
G1 X183.495 Y177.799 Z.7
G1 Z.3
G1 E.8 F1800
;WIDTH:0.62
G1 F3000
G1 X185.392 Y181.084 E.2544
G1 X181.598 Y181.084 E.2544
G1 X183.465 Y177.851 E.25038
G1 E-.56 F1800
;WIPE_START
G1 F3000
G1 X183.977 Y178.71 E-.24
;WIPE_END
G1 Z.7 F21000
G1 X174.105 Y179.172 Z.7
G1 Z.3
G1 E.8 F1800
;WIDTH:0.881636
G1 F2936.66
G1 X174.813 Y180.398 E.13963
G1 X173.397 Y180.398 E.13963
G1 X174.075 Y179.224 E.13372
G1 E-.56 F1800
;WIPE_START
G1 F2936.66
G1 X174.607 Y180.071 E-.24
;WIPE_END
M73 P3 R8
G1 Z.7 F21000
G1 X174.105 Y177.799 Z.7
G1 Z.3
G1 E.8 F1800
;WIDTH:0.62
G1 F3000
G1 X176.002 Y181.084 E.2544
G1 X172.208 Y181.084 E.2544
G1 X174.075 Y177.851 E.25038
G1 E-.56 F1800
;WIPE_START
G1 F3000
G1 X174.587 Y178.71 E-.24
;WIPE_END
G1 Z.7 F21000
G1 X164.946 Y179.172 Z.7
G1 Z.3
G1 E.8 F1800
;WIDTH:0.881637
G1 F2936.656
G1 X165.654 Y180.398 E.13963
G1 X164.238 Y180.398 E.13963
G1 X164.916 Y179.224 E.13372
G1 E-.56 F1800
;WIPE_START
G1 F2936.656
G1 X165.448 Y180.071 E-.24
;WIPE_END
G1 Z.7 F21000
G1 X164.946 Y177.799 Z.7
G1 Z.3
G1 E.8 F1800
;WIDTH:0.62
G1 F3000
G1 X166.843 Y181.084 E.2544
G1 X163.019 Y181.084 E.25643
G1 X163.07 Y181.049 E.00415
G1 X164.916 Y177.851 E.24763
G1 E-.56 F1800
;WIPE_START
G1 F3000
G1 X165.428 Y178.71 E-.24
;WIPE_END
G1 Z.7 F21000
G1 X155.931 Y179.205 Z.7
G1 Z.3
G1 E.8 F1800
;WIDTH:0.86497
G1 F2997.793
G1 X156.624 Y180.406 E.134
G1 X155.238 Y180.406 E.134
G1 X155.901 Y179.257 E.1282
G1 E-.56 F1800
;WIPE_START
G1 F2997.793
G1 X156.434 Y180.104 E-.24
;WIPE_END
G1 Z.7 F21000
G1 X155.931 Y177.849 Z.7
G1 Z.3
G1 E.8 F1800
;WIDTH:0.62
G1 F3000
G1 X157.779 Y181.049 E.24778
G1 X157.84 Y181.084 E.00476
G1 X153.99 Y181.084 E.25816
G1 X154.113 Y180.999 E.01
G1 X155.901 Y177.901 E.23989
G1 E-.56 F1800
;WIPE_START
G1 F3000
G1 X156.413 Y178.76 E-.24
;WIPE_END
G1 Z.7 F21000
G1 X148.472 Y180.219 Z.7
G1 Z.3
G1 E.8 F1800
;WIDTH:0.545266
G1 F3000
G1 X147.11 Y178.857 E.11179
G1 X147.11 Y177.86 E.05787
G1 X148.442 Y180.167 E.15461
G1 E-.56 F1800
;WIPE_START
G1 F3000
G1 X147.729 Y179.466 E-.24
;WIPE_END
G1 Z.7 F21000
G1 X153.391 Y173.74 Z.7
G1 Z.3
G1 E.8 F1800
;TYPE:Outer wall
;WIDTH:0.62
G1 F3000
G1 X153.546 Y173.787 E.01087
M73 P4 R8
G1 X153.631 Y173.879 E.0084
;WIDTH:0.663593
G1 X155.545 Y177.15 E.27412
;WIDTH:0.712131
G1 X155.609 Y177.328 E.01477
G1 X155.545 Y177.45 E.01071
;WIDTH:0.663593
G1 X154.516 Y179.189 E.14617
;WIDTH:0.62
G1 X153.631 Y180.721 E.11865
;WIDTH:0.659083
G1 X153.571 Y180.785 E.00635
;WIDTH:0.698167
G1 X153.51 Y180.849 E.00676
;WIDTH:0.737251
G1 X153.449 Y180.914 E.00718
G1 X153.391 Y180.916 E.00473
;WIDTH:0.732191
G1 X149.601 Y180.916 E.30549
;WIDTH:0.759086
G1 X149.467 Y180.903 E.01129
G1 X149.306 Y180.752 E.01845
;WIDTH:0.744686
G1 X148.873 Y179.961 E.07408
;WIDTH:0.703124
G1 X148.44 Y179.169 E.06955
;WIDTH:0.661562
G1 X148.008 Y178.378 E.06502
;WIDTH:0.661779
G1 X147.718 Y177.919 E.03912
;WIDTH:0.703559
G1 X147.429 Y177.46 E.04186
;WIDTH:0.731961
G1 X147.394 Y177.38 E.00705
;WIDTH:0.760363
G1 X147.358 Y177.3 E.00735
G1 X147.4 Y177.224 E.00731
;WIDTH:0.716346
G1 X147.443 Y177.148 E.00685
;WIDTH:0.67233
G1 X148.402 Y175.513 E.13906
;WIDTH:0.646165
G1 X149.36 Y173.879 E.13307
;WIDTH:0.62
G1 X149.532 Y173.749 E.01442
G1 X153.331 Y173.74 E.2548
G1 E-.56 F1800
;WIPE_START
G1 F3000
G1 X153.546 Y173.787 E-.05285
G1 X153.631 Y173.879 E-.03007
G1 X153.962 Y174.444 E-.15708
;WIPE_END
G1 Z.7 F21000
G1 X162.589 Y173.829 Z.7
G1 Z.3
G1 E.8 F1800
;WIDTH:0.647224
G1 F3000
G1 X163.562 Y175.488 E.13535
;WIDTH:0.674449
G1 X164.536 Y177.147 E.14167
;WIDTH:0.707779
G1 X164.572 Y177.238 E.00761
;WIDTH:0.741109
G1 X164.609 Y177.329 E.00801
G1 X164.572 Y177.391 E.00584
;WIDTH:0.707779
G1 X164.536 Y177.453 E.00555
;WIDTH:0.674449
G1 X164.026 Y178.308 E.07335
;WIDTH:0.647224
G1 X163.516 Y179.164 E.07007
;WIDTH:0.62
G1 X162.589 Y180.771 E.12445
;WIDTH:0.66603
G1 X162.496 Y180.861 E.00936
;WIDTH:0.712061
G1 X162.404 Y180.951 E.01008
G1 X162.348 Y180.954 E.00438
;WIDTH:0.707191
G1 X158.5 Y180.954 E.29854
G1 X158.38 Y180.862 E.01171
;WIDTH:0.663595
G1 X158.26 Y180.771 E.01092
;WIDTH:0.62
G1 X157.346 Y179.189 E.12252
;WIDTH:0.663593
G1 X156.317 Y177.45 E.14617
;WIDTH:0.712131
G1 X156.254 Y177.272 E.01477
G1 X156.317 Y177.15 E.01071
;WIDTH:0.663593
G1 X158.231 Y173.879 E.27412
;WIDTH:0.62
G1 X158.342 Y173.74 E.01195
G1 X158.5 Y173.69 E.01113
G1 X162.348 Y173.69 E.25804
G1 X162.507 Y173.74 E.0112
G1 X162.548 Y173.785 E.00405
G1 E-.56 F1800
;WIPE_START
G1 F3000
G1 X163.06 Y174.644 E-.24
;WIPE_END
G1 Z.7 F21000
G1 X171.478 Y173.64 Z.7
G1 Z.3
G1 E.8 F1800
G1 F3000
G1 X171.64 Y173.692 E.01139
G1 X171.719 Y173.779 E.00788
;WIDTH:0.647225
G1 X172.707 Y175.463 E.13738
;WIDTH:0.67445
G1 X173.695 Y177.147 E.14379
;WIDTH:0.70778
G1 X173.732 Y177.238 E.00761
;WIDTH:0.74111
G1 X173.768 Y177.329 E.00801
G1 X173.732 Y177.391 E.00584
;WIDTH:0.70778
G1 X173.695 Y177.453 E.00555
;WIDTH:0.67445
G1 X173.185 Y178.308 E.07335
;WIDTH:0.647225
G1 X172.676 Y179.164 E.07007
;WIDTH:0.62
G1 X171.719 Y180.821 E.12833
;WIDTH:0.653436
G1 X171.625 Y180.905 E.00892
;WIDTH:0.686872
G1 X171.532 Y180.989 E.00943
G1 X171.478 Y180.991 E.00404
;WIDTH:0.682191
G1 X167.573 Y180.991 E.29123
G1 X167.453 Y180.906 E.01098
;WIDTH:0.651095
G1 X167.332 Y180.821 E.01043
;WIDTH:0.62
G1 X166.375 Y179.164 E.12833
;WIDTH:0.647224
G1 X165.866 Y178.308 E.07007
;WIDTH:0.674449
G1 X165.356 Y177.453 E.07335
;WIDTH:0.707779
G1 X165.319 Y177.362 E.00761
;WIDTH:0.741109
G1 X165.283 Y177.271 E.00801
G1 X165.319 Y177.209 E.00584
;WIDTH:0.707779
G1 X165.356 Y177.147 E.00555
;WIDTH:0.674449
G1 X166.33 Y175.488 E.14167
;WIDTH:0.647224
G1 X167.303 Y173.829 E.13535
;WIDTH:0.62
G1 X167.41 Y173.692 E.01163
G1 X167.573 Y173.64 E.01145
G1 X171.418 Y173.64 E.25789
G1 E-.56 F1800
;WIPE_START
G1 F3000
G1 X171.64 Y173.692 E-.05465
G1 X171.719 Y173.779 E-.02819
G1 X172.05 Y174.344 E-.15717
;WIPE_END
G1 Z.7 F21000
G1 X176.79 Y173.54 Z.7
G1 Z.3
G1 E.8 F1800
G1 F3000
G1 X180.811 Y173.54 E.26966
G1 X180.978 Y173.596 E.01182
G1 X181.051 Y173.679 E.00743
;WIDTH:0.647225
G1 X182.068 Y175.413 E.14144
;WIDTH:0.67445
G1 X183.085 Y177.147 E.14805
;WIDTH:0.70778
G1 X183.122 Y177.238 E.00761
;WIDTH:0.74111
G1 X183.158 Y177.329 E.00801
G1 X183.122 Y177.391 E.00584
;WIDTH:0.70778
G1 X183.085 Y177.453 E.00555
;WIDTH:0.67445
G1 X182.575 Y178.308 E.07335
;WIDTH:0.647225
G1 X182.066 Y179.164 E.07007
;WIDTH:0.620365
G1 X181.051 Y180.921 E.13616
;WIDTH:0.632191
G1 X180.811 Y181.066 E.01926
G1 X176.79 Y181.066 E.27557
G1 X176.549 Y180.921 E.01925
;WIDTH:0.62
G1 X175.535 Y179.164 E.13607
;WIDTH:0.647225
G1 X175.025 Y178.308 E.07007
;WIDTH:0.67445
G1 X174.515 Y177.453 E.07335
;WIDTH:0.70778
G1 X174.479 Y177.362 E.00761
;WIDTH:0.74111
G1 X174.442 Y177.271 E.00801
G1 X174.479 Y177.209 E.00584
;WIDTH:0.70778
G1 X174.515 Y177.147 E.00555
;WIDTH:0.67445
G1 X175.503 Y175.463 E.14379
;WIDTH:0.647225
G1 X176.491 Y173.779 E.13738
;WIDTH:0.62
G1 X176.558 Y173.665 E.00883
G1 X176.699 Y173.555 E.012
G1 X176.731 Y173.55 E.00216
G1 E-.56 F1800
;WIPE_START
G1 F3000
G1 X177.731 Y173.548 E-.24
;WIPE_END
G1 Z.7 F21000
G1 X190.614 Y173.579 Z.7
G1 Z.3
M73 P5 R8
G1 E.8 F1800
;WIDTH:0.647225
G1 F3000
G1 X191.66 Y175.363 E.1455
;WIDTH:0.67445
G1 X192.706 Y177.147 E.1523
;WIDTH:0.70778
G1 X192.743 Y177.238 E.00761
;WIDTH:0.74111
G1 X192.779 Y177.329 E.00801
G1 X192.743 Y177.391 E.00584
;WIDTH:0.70778
G1 X192.706 Y177.453 E.00555
;WIDTH:0.67445
G1 X192.196 Y178.308 E.07335
;WIDTH:0.647225
G1 X191.687 Y179.164 E.07007
;WIDTH:0.62
G1 X190.613 Y181.02 E.14381
;WIDTH:0.616332
G1 X190.374 Y181.141 E.01784
;WIDTH:0.582191
G1 X186.238 Y181.141 E.25853
;WIDTH:0.62
G1 X185.997 Y181.021 E.01803
G1 X184.925 Y179.164 E.14381
;WIDTH:0.647225
G1 X184.415 Y178.308 E.07007
;WIDTH:0.67445
G1 X183.905 Y177.453 E.07335
;WIDTH:0.70778
G1 X183.869 Y177.362 E.00761
;WIDTH:0.74111
G1 X183.832 Y177.271 E.00801
G1 X183.869 Y177.209 E.00584
;WIDTH:0.70778
G1 X183.905 Y177.147 E.00555
;WIDTH:0.67445
G1 X184.922 Y175.413 E.14805
;WIDTH:0.647225
G1 X185.939 Y173.679 E.14144
;WIDTH:0.62
G1 X186.064 Y173.501 E.0146
G1 X186.238 Y173.44 E.01231
G1 X190.374 Y173.44 E.2774
G1 X190.547 Y173.5 E.01227
G1 X190.575 Y173.533 E.00295
G1 E-.56 F1800
;WIPE_START
G1 F3000
G1 X191.085 Y174.394 E-.24
;WIPE_END
G1 Z.7 F21000
G1 X200.168 Y173.34 Z.7
G1 Z.3
G1 E.8 F1800
G1 F3000
G1 X200.357 Y173.414 E.0136
G1 X200.409 Y173.479 E.00557
;WIDTH:0.646164
G1 X201.483 Y175.313 E.14929
;WIDTH:0.672329
G1 X202.557 Y177.148 E.156
;WIDTH:0.718982
G1 X202.598 Y177.254 E.009
;WIDTH:0.765635
G1 X202.639 Y177.361 E.00964
G1 X202.605 Y177.41 E.0051
;WIDTH:0.734596
G1 X202.571 Y177.46 E.00488
;WIDTH:0.703558
G1 X202.282 Y177.919 E.04186
;WIDTH:0.661779
G1 X201.992 Y178.378 E.03912
;WIDTH:0.62
G1 X200.402 Y181.117 E.21243
;WIDTH:0.603456
G1 X200.285 Y181.167 E.00825
;WIDTH:0.567823
G1 X200.168 Y181.216 E.00771
;WIDTH:0.532191
G1 X195.916 Y181.216 E.24008
;WIDTH:0.573332
G1 X195.797 Y181.168 E.00789
;WIDTH:0.614473
G1 X195.678 Y181.12 E.00853
;WIDTH:0.62
G1 X194.546 Y179.164 E.15156
;WIDTH:0.647225
G1 X194.036 Y178.308 E.07007
;WIDTH:0.67445
G1 X193.526 Y177.453 E.07335
;WIDTH:0.70778
G1 X193.49 Y177.362 E.00761
;WIDTH:0.74111
G1 X193.453 Y177.271 E.00801
G1 X193.49 Y177.209 E.00584
;WIDTH:0.70778
G1 X193.526 Y177.147 E.00555
;WIDTH:0.67445
G1 X194.572 Y175.363 E.1523
;WIDTH:0.647225
G1 X195.618 Y173.579 E.1455
;WIDTH:0.62
G1 X195.775 Y173.379 E.01708
G1 X195.916 Y173.34 E.00982
G1 X200.108 Y173.34 E.28112
G1 E-.56 F1800
;WIPE_START
G1 F3000
G1 X200.357 Y173.414 E-.06229
G1 X200.409 Y173.479 E-.01994
G1 X200.741 Y174.046 E-.15778
;WIPE_END
G1 Z.7 F21000
G1 X200.433 Y181.666 Z.7
G1 Z.3
G1 E.8 F1800
;WIDTH:0.56715
G1 F3000
G1 X200.168 Y181.684 E.01614
;WIDTH:0.532191
G1 X195.916 Y181.684 E.24008
;WIDTH:0.573332
G1 X195.646 Y181.663 E.01664
;WIDTH:0.614473
G1 X195.376 Y181.643 E.01799
;WIDTH:0.62
