; HEADER_BLOCK_START
; generated by OrcaSlicer 1.8.0 on 2023-12-18 at 21:24:30
; total layer number: 18
; HEADER_BLOCK_END

; THUMBNAIL_BLOCK_START

;
; THUMBNAIL_BLOCK_END

; external perimeters extrusion width = 0.62mm
; perimeters extrusion width = 0.62mm
; infill extrusion width = 0.62mm
; solid infill extrusion width = 0.62mm
; top infill extrusion width = 0.62mm
; first layer extrusion width = 0.62mm

; EXECUTABLE_BLOCK_START
EXCLUDE_OBJECT_DEFINE NAME=OrcaToleranceTest.stl_id_0_copy_0 CENTER=175,175 POLYGON=[[146.032,171.2],[149.032,168.2],[150.336,167.8],[199.083,167.8],[200.968,168.2],[203.968,171.2],[203.968,179.2],[200.968,182.2],[149.032,182.2],[146.032,179.2],[146.032,171.2]]
M73 P0 R8
;TYPE:Custom
status_heating
M190 S50
M109 S205
PRINT_START
G90
G21
M83 ; use relative distances for extrusion
; filament start gcode
SET_PRESSURE_ADVANCE ADVANCE=0.015; Override pressure advance value
M106 S0
;LAYER_CHANGE
;Z:0.3
;HEIGHT:0.3
;BEFORE_LAYER_CHANGE
;0.3
G92 E0

G1 E-.8 F1800
;AFTER_LAYER_CHANGE
;0.3
;_SET_FAN_SPEED_CHANGING_LAYER
SET_VELOCITY_LIMIT ACCEL=500 ACCEL_TO_DECEL=250
SET_VELOCITY_LIMIT SQUARE_CORNER_VELOCITY=9
; printing object OrcaToleranceTest.stl id:0 copy 0
EXCLUDE_OBJECT_START NAME=OrcaToleranceTest.stl_id_0_copy_0
G1 Z.4 F21000
G1 X200.494 Y172.07
G1 Z.4
G1 Z.3
G1 E.8 F1800
;TYPE:Inner wall
;WIDTH:0.62
G1 F3000
G1 X200.284 Y172.029 E.01438
G1 X195.801 Y172.029 E.30063
G1 X195.312 Y172.117 E.03329
G1 X194.909 Y172.353 E.03129
G1 X194.598 Y172.723 E.03247
G1 X193.116 Y175.29 E.19873
G1 X191.692 Y172.823 E.19099
G1 X191.35 Y172.428 E.03509
G1 X190.957 Y172.21 E.0301
G1 X190.489 Y172.129 E.03186
G1 X186.122 Y172.129 E.29289
G1 X185.652 Y172.211 E.032
G1 X185.258 Y172.43 E.03022
G1 X184.919 Y172.823 E.03483
G1 X183.495 Y175.29 E.19099
G1 X182.101 Y172.878 E.18683
G1 X181.758 Y172.505 E.03396
G1 X181.376 Y172.304 E.029
G1 X180.926 Y172.229 E.03056
G1 X176.674 Y172.229 E.28515
G1 X176.222 Y172.304 E.03076
G1 X175.838 Y172.509 E.02917
G1 X175.471 Y172.923 E.03711
G1 X174.105 Y175.29 E.18324
G1 X172.768 Y172.976 E.17917
G1 X172.397 Y172.585 E.0362
G1 X172.025 Y172.397 E.02792
G1 X171.594 Y172.329 E.0293
G1 X167.457 Y172.329 E.2774
G1 X167.023 Y172.398 E.02948
G1 X166.65 Y172.588 E.02808
G1 X166.372 Y172.85 E.02563
G1 X166.254 Y173.023 E.01404
G1 X164.946 Y175.29 E.1755
G1 X163.592 Y172.957 E.18088
G1 X163.254 Y172.626 E.03173
G1 X162.887 Y172.445 E.02744
G1 X162.463 Y172.379 E.02875
G1 X158.385 Y172.379 E.27353
G1 X157.964 Y172.444 E.02857
G1 X157.598 Y172.623 E.02729
G1 X157.322 Y172.874 E.02503
G1 X157.182 Y173.073 E.01635
G1 X155.931 Y175.24 E.16776
G1 X154.623 Y172.991 E.17448
G1 X154.275 Y172.661 E.03212
G1 X153.917 Y172.491 E.02664
G1 X153.506 Y172.429 E.02783
G1 X149.485 Y172.429 E.26966
G1 X149.113 Y172.48 E.0252
G1 X148.744 Y172.643 E.0271
G1 X148.283 Y173.123 E.04464
G1 X147.703 Y174.127 E.07772
G1 X147.703 Y171.789 E.15681
G1 X149.621 Y169.871 E.18186
G1 X200.379 Y169.871 E3.40412
M73 P1 R8
G1 X202.297 Y171.789 E.18186
G1 X202.297 Y172.034 E.01648
G1 X202.297 Y174.127 E.14033
G1 X201.487 Y172.723 E.1087
G1 X201.266 Y172.436 E.02432
G1 X200.803 Y172.13 E.03721
G1 X200.553 Y172.081 E.01708
G1 X200.389 Y172.605 F21000
G1 F3000
G1 X200.284 Y172.584 E.00719
G1 X195.801 Y172.584 E.30063
G1 X195.508 Y172.638 E.01998
G1 X195.266 Y172.779 E.01878
G1 X195.079 Y173.001 E.01948
G1 X193.116 Y176.401 E.26327
G1 X191.211 Y173.101 E.25553
G1 X191.006 Y172.864 E.02105
G1 X190.77 Y172.733 E.01806
G1 X190.489 Y172.684 E.01912
G1 X186.122 Y172.684 E.29289
G1 X185.978 Y172.697 E.00969
G1 X185.604 Y172.865 E.02752
G1 X185.4 Y173.101 E.0209
G1 X183.495 Y176.401 E.25553
G1 X181.648 Y173.201 E.24778
G1 X181.425 Y172.95 E.02249
G1 X181.196 Y172.829 E.0174
G1 X180.926 Y172.784 E.01834
G1 X176.674 Y172.784 E.28515
G1 X176.53 Y172.797 E.00969
G1 X176.172 Y172.952 E.02616
G1 X175.952 Y173.201 E.02227
G1 X174.105 Y176.401 E.24778
G1 X172.315 Y173.301 E.24004
G1 X172.076 Y173.038 E.02388
G1 X171.853 Y172.926 E.01675
G1 X171.594 Y172.884 E.01758
G1 X167.457 Y172.884 E.2774
G1 X167.313 Y172.897 E.00969
G1 X166.973 Y173.04 E.02476
G1 X166.736 Y173.301 E.02368
G1 X164.946 Y176.401 E.24004
G1 X163.185 Y173.351 E.23617
G1 X162.938 Y173.083 E.02449
G1 X162.718 Y172.974 E.01647
G1 X162.463 Y172.934 E.01725
G1 X158.385 Y172.934 E.27353
G1 X158.241 Y172.947 E.00969
G1 X157.913 Y173.081 E.02375
G1 X157.663 Y173.351 E.02469
G1 X155.931 Y176.351 E.2323
G1 X154.228 Y173.401 E.22842
G1 X153.968 Y173.124 E.02551
G1 X153.753 Y173.022 E.01598
G1 X153.506 Y172.984 E.0167
G1 X150.15 Y172.984 E.22508
G1 X149.262 Y173.015 E.05959
G1 X149.04 Y173.113 E.01626
G1 X148.764 Y173.401 E.02678
G1 X147.147 Y176.201 E.21679
G1 X147.147 Y171.559 E.31131
G1 X149.39 Y169.316 E.21273
G1 X200.61 Y169.316 E3.43499
G1 X202.853 Y171.559 E.21273
M73 P2 R8
G1 X202.853 Y172.034 E.03192
G1 X202.853 Y176.201 E.2794
G1 X201.005 Y173.001 E.24776
G1 X200.881 Y172.836 E.01387
G1 X200.595 Y172.645 E.02304
G1 X200.448 Y172.616 E.01008
G1 E-.56 F1800
;WIPE_START
G1 F3000
G1 X200.284 Y172.584 E-.04013
G1 X199.451 Y172.584 E-.19987
;WIPE_END
G1 Z.7 F21000
G1 X200.348 Y181.547 Z.7
G1 Z.3
G1 E.8 F1800
;TYPE:Outer wall
;WIDTH:0.805575
G1 F3000
G1 X200.284 Y181.55 E.00573
;WIDTH:0.800001
G1 X195.801 Y181.55 E.39803
G1 E-.56 F1800
;WIPE_START
G1 F3000
G1 X196.801 Y181.55 E-.24
;WIPE_END
G1 Z.7 F21000
G1 X193.116 Y179.439 Z.7
G1 Z.3
G1 E.8 F1800
;TYPE:Inner wall
;WIDTH:0.748302
G1 F3000
G1 X193.709 Y180.465 E.09779
G1 X192.524 Y180.465 E.09779
G1 X193.086 Y179.491 E.09284
G1 E-.56 F1800
;WIPE_START
G1 F3000
G1 X193.625 Y180.333 E-.24
;WIPE_END
G1 Z.7 F21000
G1 X193.116 Y178.199 Z.7
G1 Z.3
G1 E.8 F1800
;WIDTH:0.62
G1 F3000
G1 X194.782 Y181.084 E.22343
G1 X191.45 Y181.084 E.22343
G1 X193.086 Y178.251 E.2194
G1 E-.56 F1800
;WIPE_START
G1 F3000
G1 X193.6 Y179.109 E-.24
;WIPE_END
G1 Z.7 F21000
G1 X190.562 Y181.497 Z.7
G1 Z.3
G1 E.8 F1800
;TYPE:Outer wall
;WIDTH:0.906333
G1 F2850.519
G1 X190.489 Y181.5 E.0074
;WIDTH:0.900001
G1 F2872.119
G1 X186.122 Y181.5 E.44049
G1 E-.56 F1800
;WIPE_START
G1 F2872.119
G1 X187.122 Y181.5 E-.24
;WIPE_END
G1 Z.7 F21000
G1 X183.495 Y179.439 Z.7
G1 Z.3
G1 E.8 F1800
;TYPE:Inner wall
;WIDTH:0.748303
G1 F3000
G1 X184.087 Y180.465 E.09779
G1 X182.903 Y180.465 E.09779
G1 X183.465 Y179.491 E.09284
G1 E-.56 F1800
;WIPE_START
G1 F3000
G1 X184.004 Y180.333 E-.24
;WIPE_END
G1 Z.7 F21000
G1 X183.495 Y178.199 Z.7
G1 Z.3
G1 E.8 F1800
;WIDTH:0.62
G1 F3000
G1 X185.161 Y181.084 E.22343
G1 X181.829 Y181.084 E.22343
G1 X183.465 Y178.251 E.2194
G1 E-.56 F1800
;WIPE_START
G1 F3000
G1 X183.979 Y179.109 E-.24
;WIPE_END
G1 Z.7 F21000
G1 X174.697 Y180.465 Z.7
G1 Z.3
G1 E.8 F1800
;WIDTH:0.748303
G1 F3000
G1 X173.513 Y180.465 E.09779
M73 P3 R8
G1 X174.105 Y179.439 E.09779
G1 X174.667 Y180.413 E.09284
G1 X175.358 Y180.37 F21000
;WIDTH:0.62
G1 F3000
G1 X175.771 Y181.084 E.05532
G1 X172.439 Y181.084 E.22343
G1 X174.105 Y178.199 E.22343
G1 X175.328 Y180.318 E.16408
G1 E-.56 F1800
;WIPE_START
G1 F3000
G1 X175.771 Y181.084 E-.21237
G1 X175.656 Y181.084 E-.02763
;WIPE_END
G1 Z.7 F21000
G1 X165.538 Y180.465 Z.7
G1 Z.3
G1 E.8 F1800
;WIDTH:0.748304
G1 F3000
G1 X164.354 Y180.465 E.09779
G1 X164.946 Y179.439 E.09779
G1 X165.508 Y180.413 E.09284
G1 E-.56 F1800
;WIPE_START
G1 F3000
G1 X164.509 Y180.458 E-.24
;WIPE_END
G1 Z.7 F21000
G1 X166.612 Y181.084 Z.7
G1 Z.3
G1 E.8 F1800
;WIDTH:0.62
G1 F3000
G1 X163.28 Y181.084 E.22343
G1 X164.946 Y178.199 E.22343
G1 X166.582 Y181.032 E.2194
G1 E-.56 F1800
;WIPE_START
G1 F3000
G1 X165.582 Y181.048 E-.24
;WIPE_END
G1 Z.7 F21000
G1 X156.509 Y180.473 Z.7
G1 Z.3
G1 E.8 F1800
;WIDTH:0.731637
G1 F3000
G1 X155.353 Y180.473 E.09308
G1 X155.931 Y179.472 E.09308
G1 X156.479 Y180.421 E.08825
G1 E-.56 F1800
;WIPE_START
G1 F3000
G1 X155.48 Y180.467 E-.24
;WIPE_END
G1 Z.7 F21000
G1 X157.568 Y181.084 Z.7
G1 Z.3
G1 E.8 F1800
;WIDTH:0.62
G1 F3000
G1 X154.294 Y181.084 E.21956
G1 X155.931 Y178.249 E.21956
G1 X157.538 Y181.032 E.21553
G1 E-.56 F1800
;WIPE_START
G1 F3000
G1 X156.538 Y181.048 E-.24
;WIPE_END
G1 Z.7 F21000
G1 X193.226 Y177.492 Z.7
G1 Z.3
G1 E.8 F1800
;TYPE:Outer wall
;WIDTH:0.833263
G1 F3000
G1 X193.467 Y177.867 E.04131
;WIDTH:0.79061
G1 X193.708 Y178.241 E.03902
;WIDTH:0.747957
G1 X193.949 Y178.615 E.03672
;WIDTH:0.705305
G1 X194.19 Y178.99 E.03443
;WIDTH:0.662652
G1 X194.43 Y179.364 E.03214
;WIDTH:0.667384
G1 X195.54 Y181.333 E.16449
;WIDTH:0.711589
G1 X195.627 Y181.405 E.00884
;WIDTH:0.755795
G1 X195.714 Y181.478 E.00945
;WIDTH:0.800001
G1 X195.801 Y181.55 E.01005
G1 X195.659 Y181.572 E.01272
;WIDTH:0.755795
G1 X195.518 Y181.594 E.01196
;WIDTH:0.711589
G1 X195.376 Y181.616 E.01119
;WIDTH:0.667384
G1 X193.116 Y181.64 E.16449
;WIDTH:0.660152
G1 X192.044 Y181.62 E.07712
;WIDTH:0.700305
G1 X190.972 Y181.6 E.08231
;WIDTH:0.74151
G1 X190.89 Y181.579 E.00691
;WIDTH:0.782716
G1 X190.808 Y181.559 E.00733
;WIDTH:0.823921
G1 X190.726 Y181.538 E.00775
;WIDTH:0.865127
G1 F2997.204
G1 X190.644 Y181.517 E.00817
;WIDTH:0.906333
G1 F2850.519
G1 X190.562 Y181.497 E.00859
G1 X190.603 Y181.446 E.00663
;WIDTH:0.865127
G1 F2997.204
G1 X190.643 Y181.395 E.00631
;WIDTH:0.823921
G1 F3000
G1 X190.684 Y181.343 E.00598
;WIDTH:0.782716
G1 X190.724 Y181.292 E.00566
;WIDTH:0.74151
G1 X190.765 Y181.241 E.00533
;WIDTH:0.700305
G1 X191.283 Y180.303 E.08231
;WIDTH:0.660152
G1 X191.802 Y179.364 E.07712
;WIDTH:0.662652
G1 X192.043 Y178.99 E.03214
;WIDTH:0.705305
G1 X192.284 Y178.615 E.03443
;WIDTH:0.747957
M73 P4 R8
G1 X192.524 Y178.241 E.03672
;WIDTH:0.79061
G1 X192.765 Y177.867 E.03902
;WIDTH:0.833263
G1 X193.006 Y177.492 E.04131
;WIDTH:0.873573
G1 F2965.922
G1 X193.043 Y177.441 E.00615
;WIDTH:0.913883
G1 F2825.185
G1 X193.079 Y177.39 E.00646
;WIDTH:0.954193
G1 F2697.199
G1 X193.116 Y177.339 E.00676
G1 X193.153 Y177.39 E.00676
;WIDTH:0.913883
G1 F2825.185
G1 X193.19 Y177.441 E.00646
;WIDTH:0.873573
G1 F2965.922
G1 X193.191 Y177.443 E.00029
G1 E-.56 F1800
;WIPE_START
G1 F2965.922
G1 X193.467 Y177.867 E-.1212
G1 X193.708 Y178.241 E-.10682
G1 X193.735 Y178.283 E-.01197
;WIPE_END
G1 Z.7 F21000
G1 X200.284 Y173.14 Z.7
G1 Z.3
G1 E.8 F1800
;WIDTH:0.62
G1 F3000
G1 X195.801 Y173.14 E.30063
G1 X195.623 Y173.205 E.01272
G1 X195.502 Y173.379 E.01418
;WIDTH:0.662652
G1 X195.047 Y174.125 E.06309
;WIDTH:0.705305
G1 X194.592 Y174.87 E.06759
;WIDTH:0.747957
G1 X194.137 Y175.616 E.07209
;WIDTH:0.79061
G1 X193.682 Y176.362 E.07659
;WIDTH:0.833263
G1 X193.226 Y177.108 E.08109
;WIDTH:0.873573
G1 F2965.922
G1 X193.19 Y177.159 E.00615
;WIDTH:0.913883
G1 F2825.185
G1 X193.153 Y177.21 E.00646
;WIDTH:0.954193
G1 F2697.199
G1 X193.116 Y177.261 E.00677
G1 X193.079 Y177.21 E.00677
;WIDTH:0.913883
G1 F2825.185
G1 X193.043 Y177.159 E.00646
;WIDTH:0.873573
G1 F2965.922
G1 X193.006 Y177.108 E.00615
;WIDTH:0.833263
G1 F3000
G1 X192.551 Y176.362 E.08109
;WIDTH:0.79061
G1 X192.096 Y175.616 E.07659
;WIDTH:0.747957
G1 X191.64 Y174.87 E.07209
;WIDTH:0.705305
G1 X191.185 Y174.125 E.06759
;WIDTH:0.662652
G1 X190.73 Y173.379 E.06309
;WIDTH:0.62
G1 X190.661 Y173.3 E.00702
G1 X190.489 Y173.24 E.01222
G1 X186.122 Y173.24 E.29289
G1 X185.949 Y173.3 E.01227
G1 X185.824 Y173.479 E.01465
;WIDTH:0.662652
G1 X185.38 Y174.205 E.06143
;WIDTH:0.705305
G1 X184.936 Y174.93 E.06581
;WIDTH:0.747957
G1 X184.493 Y175.656 E.07019
;WIDTH:0.79061
G1 X184.049 Y176.382 E.07456
;WIDTH:0.833263
G1 X183.605 Y177.108 E.07894
;WIDTH:0.873573
G1 F2965.922
G1 X183.569 Y177.159 E.00615
;WIDTH:0.913883
G1 F2825.185
G1 X183.532 Y177.21 E.00646
;WIDTH:0.954193
G1 F2697.199
G1 X183.495 Y177.261 E.00677
G1 X183.458 Y177.21 E.00677
;WIDTH:0.913883
G1 F2825.185
G1 X183.422 Y177.159 E.00646
;WIDTH:0.873573
G1 F2965.922
G1 X183.385 Y177.108 E.00615
;WIDTH:0.833263
G1 F3000
G1 X182.941 Y176.382 E.07894
;WIDTH:0.79061
G1 X182.498 Y175.656 E.07456
;WIDTH:0.747957
G1 X182.054 Y174.93 E.07019
;WIDTH:0.705305
G1 X181.61 Y174.205 E.06581
;WIDTH:0.662652
G1 X181.167 Y173.479 E.06143
;WIDTH:0.62
G1 X181.092 Y173.395 E.0075
G1 X180.926 Y173.34 E.01176
G1 X176.674 Y173.34 E.28515
G1 X176.507 Y173.396 E.01183
G1 X176.376 Y173.579 E.01509
;WIDTH:0.662652
G1 X175.944 Y174.285 E.05976
;WIDTH:0.705305
G1 X175.512 Y174.99 E.06402
;WIDTH:0.747957
G1 X175.08 Y175.696 E.06828
;WIDTH:0.79061
G1 X174.647 Y176.402 E.07254
;WIDTH:0.833263
G1 X174.215 Y177.108 E.0768
;WIDTH:0.873573
M73 P4 R7
G1 F2965.922
G1 X174.179 Y177.159 E.00615
;WIDTH:0.913883
G1 F2825.185
G1 X174.142 Y177.21 E.00646
;WIDTH:0.954193
G1 F2697.199
G1 X174.105 Y177.261 E.00677
G1 X174.068 Y177.21 E.00677
;WIDTH:0.913883
G1 F2825.185
G1 X174.032 Y177.159 E.00646
;WIDTH:0.873573
G1 F2965.922
G1 X173.995 Y177.108 E.00615
;WIDTH:0.833263
G1 F3000
G1 X173.563 Y176.402 E.0768
;WIDTH:0.79061
G1 X173.131 Y175.696 E.07254
;WIDTH:0.747957
G1 X172.699 Y174.99 E.06828
;WIDTH:0.705305
G1 X172.266 Y174.285 E.06402
;WIDTH:0.662652
G1 X171.834 Y173.579 E.05976
;WIDTH:0.62
G1 X171.754 Y173.491 E.00796
G1 X171.594 Y173.44 E.01131
G1 X167.457 Y173.44 E.2774
G1 X167.296 Y173.492 E.01137
G1 X167.188 Y173.629 E.0117
;WIDTH:0.662652
G1 X166.762 Y174.325 E.05893
;WIDTH:0.705304
G1 X166.335 Y175.02 E.06313
;WIDTH:0.747956
G1 X165.909 Y175.716 E.06733
;WIDTH:0.790608
G1 X165.483 Y176.412 E.07153
;WIDTH:0.833261
G1 X165.056 Y177.108 E.07573
;WIDTH:0.873571
G1 F2965.929
G1 X165.019 Y177.159 E.00615
;WIDTH:0.913881
G1 F2825.191
G1 X164.983 Y177.21 E.00646
;WIDTH:0.954191
G1 F2697.205
G1 X164.946 Y177.261 E.00677
G1 X164.909 Y177.21 E.00676
;WIDTH:0.913881
G1 F2825.191
G1 X164.872 Y177.159 E.00646
;WIDTH:0.873571
G1 F2965.929
G1 X164.836 Y177.108 E.00615
;WIDTH:0.833261
G1 F3000
G1 X164.409 Y176.412 E.07573
;WIDTH:0.790608
G1 X163.983 Y175.716 E.07153
;WIDTH:0.747956
G1 X163.557 Y175.02 E.06733
;WIDTH:0.705304
G1 X163.13 Y174.325 E.06313
;WIDTH:0.662652
G1 X162.704 Y173.629 E.05893
;WIDTH:0.62
G1 X162.622 Y173.539 E.00816
G1 X162.463 Y173.49 E.01111
G1 X158.385 Y173.49 E.27353
G1 X158.228 Y173.539 E.01105
G1 X158.115 Y173.679 E.01204
;WIDTH:0.665697
G1 X157.593 Y174.538 E.07298
;WIDTH:0.711394
G1 X157.071 Y175.397 E.07852
;WIDTH:0.757091
G1 X156.548 Y176.256 E.08407
;WIDTH:0.802788
G1 X156.026 Y177.115 E.08962
;WIDTH:0.849513
G1 X155.978 Y177.19 E.00834
;WIDTH:0.896237
G1 F2885.115
G1 X155.931 Y177.264 E.00883
G1 X155.884 Y177.19 E.00883
;WIDTH:0.849513
G1 F3000
G1 X155.837 Y177.115 E.00834
;WIDTH:0.802788
G1 X155.314 Y176.256 E.08962
;WIDTH:0.757091
G1 X154.792 Y175.397 E.08407
;WIDTH:0.711394
G1 X154.269 Y174.538 E.07852
;WIDTH:0.665697
G1 X153.747 Y173.679 E.07298
;WIDTH:0.62
G1 X153.66 Y173.586 E.0085
G1 X153.506 Y173.54 E.01078
G1 X149.411 Y173.55 E.27465
G1 X149.245 Y173.679 E.0141
;WIDTH:0.63187
G1 X147.229 Y177.158 E.27542
;WIDTH:0.644893
G1 X147.185 Y177.3 E.01042
G1 X147.226 Y177.444 E.01048
;WIDTH:0.638876
G1 X147.828 Y178.466 E.08226
;WIDTH:0.631218
G1 X149.24 Y180.924 E.19395
G1 X149.324 Y181.012 E.00834
;WIDTH:0.632191
G1 X149.485 Y181.066 E.01165
G1 X153.506 Y181.066 E.27557
G1 X153.747 Y180.921 E.01926
;WIDTH:0.620365
G1 X154.632 Y179.389 E.11872
;WIDTH:0.665697
G1 X154.933 Y178.913 E.04089
;WIDTH:0.711394
G1 X155.234 Y178.437 E.044
;WIDTH:0.757091
G1 X155.535 Y177.961 E.04711
;WIDTH:0.802788
G1 X155.837 Y177.485 E.05021
;WIDTH:0.849513
G1 X155.884 Y177.41 E.00834
;WIDTH:0.896237
G1 F2885.115
G1 X155.931 Y177.336 E.00883
G1 X155.978 Y177.41 E.00883
;WIDTH:0.849513
G1 F3000
G1 X156.026 Y177.485 E.00834
;WIDTH:0.802788
G1 X156.327 Y177.961 E.05021
;WIDTH:0.757091
G1 X156.628 Y178.437 E.04711
;WIDTH:0.711394
G1 X156.93 Y178.913 E.044
;WIDTH:0.665697
G1 X157.231 Y179.389 E.04089
;WIDTH:0.62
G1 X158.144 Y180.971 E.12252
G1 X158.385 Y181.104 E.01842
;WIDTH:0.607191
G1 X162.463 Y181.104 E.26722
;WIDTH:0.619433
G1 X162.704 Y180.971 E.01839
;WIDTH:0.62
G1 X163.632 Y179.364 E.12445
;WIDTH:0.662652
G1 X163.873 Y178.99 E.03214
;WIDTH:0.705304
G1 X164.113 Y178.615 E.03443
;WIDTH:0.747956
G1 X164.354 Y178.241 E.03672
;WIDTH:0.790608
G1 X164.595 Y177.867 E.03902
;WIDTH:0.833261
G1 X164.836 Y177.492 E.04131
;WIDTH:0.873571
G1 F2965.929
G1 X164.872 Y177.441 E.00615
;WIDTH:0.913881
G1 F2825.191
G1 X164.909 Y177.39 E.00646
