; HEADER_BLOCK_START
; generated by OrcaSlicer 1.8.0 on 2023-12-18 at 14:30:04
; total layer number: 84
; HEADER_BLOCK_END

; THUMBNAIL_BLOCK_START

;
; THUMBNAIL_BLOCK_END

; external perimeters extrusion width = 0.62mm
; perimeters extrusion width = 0.62mm
; infill extrusion width = 0.62mm
; solid infill extrusion width = 0.62mm
; top infill extrusion width = 0.62mm
; first layer extrusion width = 0.62mm

; external perimeters extrusion width = 0.62mm
; perimeters extrusion width = 0.62mm
; infill extrusion width = 0.62mm
; solid infill extrusion width = 0.62mm
; top infill extrusion width = 0.62mm
; first layer extrusion width = 0.62mm

; EXECUTABLE_BLOCK_START
EXCLUDE_OBJECT_DEFINE NAME=OrcaCube_id_0_copy_0 CENTER=175,189.261 POLYGON=[[160,174.261],[185.981,174.261],[190,174.261],[190,200.242],[190,204.261],[164.019,204.261],[160,204.261],[160,178.281],[160,174.261]]
EXCLUDE_OBJECT_DEFINE NAME=OrcaPlug_id_1_copy_0 CENTER=175.344,156.737 POLYGON=[[164.344,156.737],[164.352,156.32],[164.376,155.905],[164.415,155.49],[164.47,155.078],[164.54,154.667],[164.626,154.26],[164.728,153.856],[164.844,153.456],[164.976,153.062],[165.123,152.672],[165.284,152.288],[165.459,151.91],[165.649,151.54],[165.853,151.177],[166.07,150.821],[166.3,150.475],[166.544,150.137],[166.8,149.809],[167.068,149.49],[167.348,149.182],[167.64,148.885],[167.942,148.599],[168.256,148.325],[168.579,148.063],[168.912,147.813],[169.254,147.576],[169.605,147.352],[169.965,147.142],[170.332,146.945],[170.706,146.762],[171.086,146.594],[171.473,146.44],[171.866,146.301],[172.263,146.177],[172.665,146.068],[173.071,145.974],[173.479,145.896],[173.891,145.833],[174.305,145.786],[174.72,145.754],[175.136,145.739],[175.552,145.739],[175.968,145.754],[176.383,145.786],[176.797,145.833],[177.209,145.896],[177.617,145.974],[178.023,146.068],[178.425,146.177],[178.822,146.301],[179.215,146.44],[179.602,146.594],[179.982,146.762],[180.356,146.945],[180.723,147.142],[181.083,147.352],[181.434,147.576],[181.776,147.813],[182.109,148.063],[182.432,148.325],[182.746,148.599],[183.048,148.885],[183.34,149.182],[183.62,149.49],[183.888,149.809],[184.144,150.137],[184.388,150.475],[184.618,150.822],[184.835,151.177],[185.039,151.54],[185.229,151.91],[185.404,152.288],[185.565,152.672],[185.712,153.062],[185.844,153.456],[185.96,153.856],[186.062,154.26],[186.148,154.667],[186.218,155.078],[186.273,155.49],[186.312,155.905],[186.336,156.32],[186.344,156.737],[186.336,157.153],[186.312,157.569],[186.273,157.983],[186.218,158.396],[186.148,158.806],[186.062,159.213],[185.96,159.617],[185.844,160.017],[185.712,160.412],[185.565,160.802],[185.404,161.185],[185.229,161.563],[185.039,161.934],[184.835,162.297],[184.618,162.652],[184.388,162.999],[184.144,163.336],[183.888,163.665],[183.62,163.983],[183.34,164.291],[183.048,164.588],[182.746,164.874],[182.432,165.148],[182.109,165.41],[181.776,165.66],[181.434,165.897],[181.083,166.121],[180.723,166.332],[180.356,166.528],[179.982,166.711],[179.602,166.879],[179.215,167.033],[178.822,167.172],[178.425,167.296],[178.023,167.405],[177.617,167.499],[177.209,167.577],[176.797,167.64],[176.383,167.687],[175.968,167.719],[175.552,167.735],[175.136,167.735],[174.72,167.719],[174.305,167.687],[173.891,167.64],[173.479,167.577],[173.071,167.499],[172.665,167.405],[172.263,167.296],[171.866,167.172],[171.473,167.033],[171.086,166.879],[170.706,166.711],[170.332,166.528],[169.965,166.332],[169.605,166.121],[169.254,165.897],[168.912,165.66],[168.579,165.41],[168.256,165.148],[167.942,164.874],[167.64,164.588],[167.348,164.291],[167.068,163.983],[166.8,163.665],[166.544,163.336],[166.3,162.999],[166.07,162.652],[165.853,162.297],[165.649,161.933],[165.459,161.563],[165.284,161.185],[165.123,160.802],[164.976,160.412],[164.844,160.017],[164.728,159.617],[164.626,159.213],[164.54,158.806],[164.47,158.396],[164.415,157.983],[164.375,157.569],[164.352,157.153],[164.344,156.737]]
M73 P0 R27
;TYPE:Custom
status_heating
M190 S60
M109 S210
;PRINT_START EXTRUDER=210 BED=60
; You can use following code instead if your PRINT_START macro support Chamber and print area bedmesh
BED_MESH_CALIBRATE PRINT_MIN=160.25,145.873 PRINT_MAX=189.75,204.011
G90
G21
M83 ; use relative distances for extrusion
; filament start gcode
SET_PRESSURE_ADVANCE ADVANCE=0.02; Override pressure advance value
M106 S0
;LAYER_CHANGE
;Z:0.3
;HEIGHT:0.3
;BEFORE_LAYER_CHANGE
;0.3
G92 E0

G1 E-.8 F1800
;AFTER_LAYER_CHANGE
;0.3
;_SET_FAN_SPEED_CHANGING_LAYER
SET_VELOCITY_LIMIT ACCEL=500 ACCEL_TO_DECEL=250
SET_VELOCITY_LIMIT SQUARE_CORNER_VELOCITY=9
; printing object OrcaCube id:0 copy 0
EXCLUDE_OBJECT_START NAME=OrcaCube_id_0_copy_0
G1 Z.4 F21000
G1 X161.762 Y190.112
G1 Z.4
G1 Z.3
G1 E.8 F1800
;TYPE:Inner wall
;WIDTH:0.835816
G1 F3000
G1 X161.761 Y190.09 E.0021
;WIDTH:0.800525
G1 X161.759 Y189.882 E.01871
;WIDTH:0.794702
G1 X161.759 Y188.639 E.111
;WIDTH:0.79879
G1 X161.761 Y188.465 E.01557
;WIDTH:0.824754
G1 X161.774 Y187.959 E.04709
;WIDTH:0.850718
G1 X161.787 Y187.452 E.0487
G1 X161.764 Y187.204 E.02401
;WIDTH:0.804575
G1 X161.74 Y186.955 E.0226
;WIDTH:0.758431
G1 X161.717 Y186.706 E.02119
;WIDTH:0.712287
G1 X161.694 Y186.457 E.01978
;WIDTH:0.666143
G1 X161.671 Y186.209 E.01837
;WIDTH:0.62
G1 X161.671 Y178.775 E.50484
G1 X164.514 Y175.933 E.27301
G1 X172.072 Y175.933 E.51332
;WIDTH:0.663611
G1 X172.32 Y175.954 E.01824
;WIDTH:0.707222
G1 X172.568 Y175.976 E.01957
;WIDTH:0.750834
G1 X172.817 Y175.998 E.0209
;WIDTH:0.794445
G1 X173.065 Y176.02 E.02223
;WIDTH:0.838057
G1 X173.49 Y176.038 E.04022
;WIDTH:0.830777
G1 X174.464 Y176.019 E.09132
;WIDTH:0.792058
G1 X175.472 Y176.018 E.08966
;WIDTH:0.817825
G1 X176.093 Y176.032 E.05715
;WIDTH:0.844142
G1 X176.713 Y176.045 E.05914
;WIDTH:0.859314
G1 X176.927 Y176.052 E.02083
G1 X177.178 Y176.028 E.02446
;WIDTH:0.811451
G1 X177.429 Y176.004 E.02299
;WIDTH:0.763588
G1 X177.679 Y175.98 E.02152
;WIDTH:0.715725
G1 X177.93 Y175.957 E.02004
;WIDTH:0.667862
G1 X178.18 Y175.933 E.01857
;WIDTH:0.62
G1 X185.486 Y175.933 E.49617
G1 X188.329 Y178.775 E.27301
G1 X188.329 Y179.696 E.06255
G1 X188.329 Y186.433 E.45754
;WIDTH:0.664134
G1 X188.307 Y186.533 E.00747
;WIDTH:0.708269
G1 X188.285 Y186.632 E.00802
;WIDTH:0.752404
G1 X188.263 Y186.732 E.00857
;WIDTH:0.796539
G1 X188.24 Y186.831 E.00912
;WIDTH:0.840674
G1 X188.218 Y186.931 E.00967
;WIDTH:0.884809
G1 F2925.302
G1 X188.196 Y187.03 E.01022
G1 X188.212 Y187.45 E.04216
;WIDTH:0.854481
G1 F3000
G1 X188.227 Y187.871 E.0406
;WIDTH:0.824153
G1 X188.244 Y188.853 E.09128
;WIDTH:0.792521
G1 X188.243 Y189.812 E.08532
;WIDTH:0.835288
G1 X188.221 Y190.833 E.0962
;WIDTH:0.883784
G1 F2928.962
G1 X188.197 Y191.403 E.05714
G1 X188.219 Y191.502 E.01022
;WIDTH:0.83982
G1 F3000
G1 X188.241 Y191.602 E.00967
;WIDTH:0.795856
G1 X188.263 Y191.702 E.00912
;WIDTH:0.751892
G1 X188.285 Y191.801 E.00857
;WIDTH:0.707928
G1 X188.307 Y191.901 E.00803
;WIDTH:0.663963
G1 X188.329 Y192.001 E.00748
;WIDTH:0.62
G1 X188.329 Y199.748 E.52613
G1 X185.486 Y202.59 E.27301
G1 X178.217 Y202.59 E.49365
;WIDTH:0.663907
G1 X178.054 Y202.568 E.01211
;WIDTH:0.707814
G1 X177.89 Y202.546 E.01299
;WIDTH:0.751721
G1 X177.726 Y202.524 E.01388
;WIDTH:0.795628
G1 X177.562 Y202.502 E.01477
;WIDTH:0.839535
G1 X177.399 Y202.48 E.01566
;WIDTH:0.883443
G1 F2930.181
G1 X177.235 Y202.458 E.01654
G1 X176.75 Y202.475 E.04857
;WIDTH:0.850526
G1 F3000
G1 X176.265 Y202.491 E.04662
;WIDTH:0.81761
G1 X175.29 Y202.506 E.08976
;WIDTH:0.795331
G1 X174.33 Y202.502 E.0858
;WIDTH:0.84287
G1 X173.308 Y202.479 E.09724
G1 X173.059 Y202.501 E.02377
;WIDTH:0.798295
G1 X172.811 Y202.523 E.02241
;WIDTH:0.753722
G1 X172.562 Y202.546 E.02105
;WIDTH:0.709148
G1 X172.313 Y202.568 E.01969
;WIDTH:0.664574
G1 X172.064 Y202.59 E.01833
;WIDTH:0.62
G1 X164.514 Y202.59 E.51278
G1 X161.671 Y199.748 E.27301
G1 X161.671 Y192.36 E.50175
;WIDTH:0.661851
G1 X161.692 Y192.19 E.0125
;WIDTH:0.703702
G1 X161.713 Y192.02 E.01337
;WIDTH:0.745553
G1 X161.734 Y191.85 E.01425
;WIDTH:0.787404
G1 X161.755 Y191.68 E.01512
;WIDTH:0.829255
G1 X161.776 Y191.51 E.016
;WIDTH:0.871107
G1 F2974.988
G1 X161.797 Y191.34 E.01688
G1 X161.779 Y190.715 E.06167
;WIDTH:0.835816
G1 F3000
G1 X161.764 Y190.172 E.05122
G1 E-.56 F1800
;WIPE_START
G1 F3000
G1 X161.761 Y190.09 E-.01975
G1 X161.759 Y189.882 E-.0499
G1 X161.759 Y189.172 E-.17035
;WIPE_END
G1 Z.7 F21000
G1 X161.084 Y189.172 Z.7
G1 X164.27 Y175.345
G1 X188.866 Y178.481
G1 X188.907 Y178.522
G1 X188.884 Y178.545
G1 Z.3
G1 E.8 F1800
;WIDTH:0.62
G1 F3000
G1 X188.884 Y179.696 E.07818
G1 X188.884 Y199.978 E1.37739
G1 X185.716 Y203.146 E.30427
G1 X164.284 Y203.146 E1.45558
M73 P0 R26
G1 X161.116 Y199.978 E.30427
G1 X161.116 Y178.545 E1.45558
G1 X164.284 Y175.377 E.30427
G1 X185.716 Y175.377 E1.45558
G1 X188.842 Y178.503 E.3002
G1 X189.44 Y178.473 F21000
;TYPE:Outer wall
G1 F3000
G1 X189.44 Y179.696 E.08309
G1 X189.44 Y200.208 E1.39302
G1 X185.946 Y203.701 E.33553
G1 X164.054 Y203.701 E1.48684
G1 X160.56 Y200.208 E.33553
G1 X160.56 Y178.315 E1.48684
G1 X164.054 Y174.821 E.33553
G1 X185.946 Y174.821 E1.48684
G1 X189.44 Y178.315 E.33553
G1 X189.44 Y178.413 E.00665
G1 E-.56 F1800
;WIPE_START
G1 F3000
G1 X189.44 Y179.413 E-.24
;WIPE_END
G1 Z.7 F21000
G1 X188.916 Y179.623 Z.7
G1 X177.108 Y177.597
G1 X176.665 Y177.525
G1 X176.22 Y177.471
G1 X175.787 Y177.434
G1 X175.339 Y177.413
G1 X174.878 Y177.408
G1 X174.443 Y177.421
G1 X174.009 Y177.449
G1 X173.551 Y177.497
G1 X173.107 Y177.56
G1 X172.679 Y177.637
G1 X172.241 Y177.733
G1 X171.807 Y177.846
G1 X171.378 Y177.975
G1 X170.954 Y178.12
G1 X170.536 Y178.28
G1 X170.136 Y178.452
G1 X169.728 Y178.645
G1 X169.329 Y178.852
G1 X168.948 Y179.069
G1 X168.567 Y179.305
G1 X168.195 Y179.555
G1 X167.833 Y179.82
G1 X167.482 Y180.097
G1 X167.148 Y180.381
G1 X166.818 Y180.684
G1 X166.5 Y181
G1 X166.194 Y181.327
G1 X165.907 Y181.658
G1 X165.626 Y182.006
G1 X165.358 Y182.366
G1 X165.104 Y182.735
G1 X164.865 Y183.114
G1 X164.645 Y183.493
G1 X164.434 Y183.888
G1 X164.239 Y184.291
G1 X164.058 Y184.702
G1 X163.894 Y185.118
G1 X163.748 Y185.532
G1 X163.615 Y185.959
G1 X163.499 Y186.392
G1 X163.399 Y186.829
G1 X163.315 Y187.269
G1 X163.249 Y187.702
G1 X163.199 Y188.147
G1 X163.165 Y188.594
G1 X163.148 Y189.042
G1 X163.148 Y189.48
G1 X163.165 Y189.927
G1 X163.184 Y190.176
G1 X162.51 Y190.226
G1 Z.3
G1 E.8 F1800
;TYPE:Inner wall
;WIDTH:0.835816
G1 F3000
G1 X162.495 Y190.049 E.01682
;WIDTH:0.800525
G1 X162.489 Y189.882 E.015
;WIDTH:0.794702
G1 X162.489 Y188.639 E.11099
;WIDTH:0.838136
G1 X162.552 Y187.667 E.09214
;WIDTH:0.850718
G1 X162.566 Y187.526 E.01358
G1 X162.635 Y187.286 E.02401
;WIDTH:0.804575
G1 X162.704 Y187.046 E.0226
;WIDTH:0.758431
G1 X162.774 Y186.806 E.02119
;WIDTH:0.712287
G1 X162.843 Y186.566 E.01978
;WIDTH:0.666143
G1 X162.912 Y186.326 E.01837
;WIDTH:0.62
G1 X163.175 Y185.397 E.06558
G1 X163.497 Y184.524 E.06316
G1 X163.888 Y183.669 E.06387
G1 X164.336 Y182.854 E.06316
G1 X165.115 Y181.71 E.09396
G1 X165.599 Y181.121 E.05183
G1 X165.812 Y180.876 E.02198
G1 X166.702 Y179.994 E.0851
G1 X167.437 Y179.384 E.06494
G1 X168.205 Y178.841 E.06383
G1 X169.002 Y178.362 E.06316
G1 X169.847 Y177.938 E.06423
G1 X170.705 Y177.586 E.06297
G1 X172.181 Y177.146 E.1046
;WIDTH:0.663611
G1 X172.421 Y177.08 E.01824
;WIDTH:0.707222
G1 X172.662 Y177.015 E.01957
;WIDTH:0.750834
G1 X172.902 Y176.949 E.0209
;WIDTH:0.794445
G1 X173.142 Y176.883 E.02223
;WIDTH:0.838057
G1 X173.382 Y176.818 E.02355
G1 X174.356 Y176.75 E.09229
;WIDTH:0.79533
G1 X175.303 Y176.741 E.08463
;WIDTH:0.791508
G1 X175.441 Y176.744 E.0123
;WIDTH:0.817825
G1 X176.061 Y176.784 E.05715
;WIDTH:0.844142
G1 X176.68 Y176.823 E.05914
;WIDTH:0.859314
G1 X176.849 Y176.839 E.01652
G1 X177.09 Y176.912 E.02446
;WIDTH:0.811451
G1 X177.331 Y176.985 E.02299
;WIDTH:0.763588
G1 X177.572 Y177.058 E.02152
;WIDTH:0.715725
G1 X177.813 Y177.13 E.02004
;WIDTH:0.667862
G1 X178.054 Y177.203 E.01857
;WIDTH:0.62
G1 X179.092 Y177.514 E.07357
G1 X180.253 Y177.986 E.08512
G1 X181.106 Y178.422 E.06505
G1 X181.907 Y178.915 E.06387
G1 X182.662 Y179.461 E.06327
G1 X183.123 Y179.848 E.04093
G1 X184.04 Y180.715 E.08564
G1 X184.746 Y181.531 E.0733
G1 X185.468 Y182.541 E.08432
G1 X185.959 Y183.373 E.06561
G1 X186.369 Y184.21 E.0633
G1 X186.718 Y185.084 E.06393
G1 X186.996 Y185.966 E.06274
G1 X187.138 Y186.568 E.04206
;WIDTH:0.664134
G1 X187.179 Y186.656 E.00705
;WIDTH:0.708269
G1 X187.219 Y186.743 E.00757
;WIDTH:0.752404
G1 X187.259 Y186.83 E.00808
;WIDTH:0.796539
G1 X187.3 Y186.917 E.0086
;WIDTH:0.840674
G1 X187.34 Y187.004 E.00912
;WIDTH:0.884809
G1 F2925.302
G1 X187.381 Y187.092 E.00964
G1 X187.42 Y187.439 E.03507
;WIDTH:0.858472
G1 F3000
G1 X187.459 Y187.787 E.03394
;WIDTH:0.832135
G1 X187.515 Y188.743 E.08987
;WIDTH:0.792451
G1 X187.518 Y189.673 E.08282
;WIDTH:0.824431
G1 X187.468 Y190.627 E.08876
;WIDTH:0.854107
G1 X187.425 Y190.98 E.03432
;WIDTH:0.883784
G1 F2928.962
G1 X187.383 Y191.333 E.03561
G1 X187.345 Y191.428 E.01022
;WIDTH:0.83982
G1 F3000
G1 X187.306 Y191.522 E.00967
;WIDTH:0.795856
G1 X187.268 Y191.617 E.00912
;WIDTH:0.751892
G1 X187.229 Y191.711 E.00857
;WIDTH:0.707928
G1 X187.191 Y191.806 E.00803
;WIDTH:0.663963
G1 X187.152 Y191.9 E.00748
;WIDTH:0.62
G1 X186.893 Y192.909 E.0707
G1 X186.59 Y193.782 E.06277
G1 X186.215 Y194.645 E.06392
G1 X185.784 Y195.463 E.0628
G1 X185.025 Y196.626 E.09432
G1 X184.433 Y197.371 E.06461
G1 X183.788 Y198.066 E.06442
G1 X183.109 Y198.695 E.06285
G1 X182.366 Y199.286 E.06447
G1 X181.601 Y199.806 E.06284
G1 X180.785 Y200.275 E.06389
G1 X179.95 Y200.674 E.06285
G1 X179.066 Y201.019 E.06446
G1 X178.18 Y201.289 E.06289
;WIDTH:0.666225
G1 X178.001 Y201.352 E.01395
;WIDTH:0.712451
G1 X177.823 Y201.416 E.01502
;WIDTH:0.758677
G1 X177.644 Y201.48 E.0161
;WIDTH:0.804903
G1 X177.465 Y201.543 E.01717
;WIDTH:0.851129
G1 X177.287 Y201.607 E.01824
G1 X176.352 Y201.731 E.09062
;WIDTH:0.824897
G1 X175.404 Y201.78 E.08828
;WIDTH:0.792064
G1 X174.472 Y201.776 E.08291
;WIDTH:0.831123
G1 X173.518 Y201.719 E.08953
;WIDTH:0.84287
G1 X173.378 Y201.706 E.01345
G1 X173.137 Y201.64 E.02377
;WIDTH:0.798295
G1 X172.896 Y201.574 E.02241
;WIDTH:0.753722
G1 X172.655 Y201.508 E.02105
;WIDTH:0.709148
G1 X172.414 Y201.441 E.01969
;WIDTH:0.664574
G1 X172.173 Y201.375 E.01833
;WIDTH:0.62
G1 X171.124 Y201.081 E.07403
G1 X169.956 Y200.632 E.08498
G1 X168.716 Y199.997 E.0946
G1 X167.794 Y199.401 E.07453
G1 X166.7 Y198.526 E.09515
G1 X165.807 Y197.641 E.0854
G1 X165.196 Y196.918 E.06428
G1 X164.57 Y196.039 E.07329
G1 X163.944 Y194.963 E.08454
G1 X163.54 Y194.101 E.06467
G1 X163.206 Y193.22 E.06396
G1 X162.944 Y192.331 E.06298
;WIDTH:0.666244
G1 X162.882 Y192.151 E.01396
;WIDTH:0.712488
G1 X162.82 Y191.972 E.01503
;WIDTH:0.758732
G1 X162.758 Y191.793 E.0161
;WIDTH:0.804976
G1 X162.696 Y191.614 E.01717
;WIDTH:0.851221
G1 X162.634 Y191.434 E.01824
;WIDTH:0.871107
G1 F2974.988
G1 X162.601 Y191.295 E.01411
G1 X162.548 Y190.672 E.06167
;WIDTH:0.835816
G1 F3000
G1 X162.515 Y190.286 E.03649
G1 X163.165 Y190.22 F21000
;WIDTH:0.62
G1 F3000
G1 X163.137 Y189.976 E.01671
G1 X163.132 Y188.639 E.09081
G1 X163.225 Y187.651 E.06735
G1 X163.458 Y186.43 E.08446
G1 X163.709 Y185.551 E.06203
G1 X164.017 Y184.719 E.06033
G1 X164.392 Y183.902 E.06103
G1 X164.863 Y183.058 E.06564
G1 X165.573 Y182.025 E.0851
G1 X166.203 Y181.271 E.06671
G1 X167.093 Y180.389 E.0851
G1 X167.79 Y179.813 E.06139
G1 X168.524 Y179.296 E.06099
G1 X169.286 Y178.84 E.06033
G1 X170.095 Y178.436 E.06139
G1 X170.988 Y178.075 E.06544
G1 X172.188 Y177.714 E.08512
G1 X173.505 Y177.471 E.09091
G1 X174.41 Y177.391 E.06175
G1 X175.387 Y177.383 E.06634
G1 X176.717 Y177.502 E.09065
G1 X177.945 Y177.748 E.0851
G1 X178.883 Y178.029 E.06649
G1 X180.044 Y178.501 E.08512
G1 X180.849 Y178.915 E.0615
G1 X181.614 Y179.387 E.06103
G1 X182.335 Y179.909 E.06044
G1 X182.763 Y180.271 E.03809
G1 X183.649 Y181.11 E.08282
G1 X184.294 Y181.854 E.06691
G1 X185.016 Y182.864 E.08432
G1 X185.478 Y183.653 E.06207
G1 X185.869 Y184.453 E.06047
G1 X186.201 Y185.288 E.06109
G1 X186.465 Y186.13 E.05991
G1 X186.597 Y186.693 E.03922
G1 X186.7 Y187.195 E.03483
G1 X186.805 Y187.886 E.04746
