; HEADER_BLOCK_START
; generated by OrcaSlicer 1.8.0 on 2023-12-18 at 00:13:04
; total layer number: 7
; HEADER_BLOCK_END

; THUMBNAIL_BLOCK_START

;
; THUMBNAIL_BLOCK_END

; external perimeters extrusion width = 0.62mm
; perimeters extrusion width = 0.62mm
; infill extrusion width = 0.62mm
; solid infill extrusion width = 0.72mm
; top infill extrusion width = 0.72mm
; first layer extrusion width = 0.62mm

; external perimeters extrusion width = 0.62mm
; perimeters extrusion width = 0.62mm
; infill extrusion width = 0.62mm
; solid infill extrusion width = 0.72mm
; top infill extrusion width = 0.72mm
; first layer extrusion width = 0.62mm

; external perimeters extrusion width = 0.62mm
; perimeters extrusion width = 0.62mm
; infill extrusion width = 0.62mm
; solid infill extrusion width = 0.72mm
; top infill extrusion width = 0.72mm
; first layer extrusion width = 0.62mm

; external perimeters extrusion width = 0.62mm
; perimeters extrusion width = 0.62mm
; infill extrusion width = 0.62mm
; solid infill extrusion width = 0.72mm
; top infill extrusion width = 0.72mm
; first layer extrusion width = 0.62mm

; external perimeters extrusion width = 0.62mm
; perimeters extrusion width = 0.62mm
; infill extrusion width = 0.62mm
; solid infill extrusion width = 0.72mm
; top infill extrusion width = 0.72mm
; first layer extrusion width = 0.62mm

; external perimeters extrusion width = 0.62mm
; perimeters extrusion width = 0.62mm
; infill extrusion width = 0.62mm
; solid infill extrusion width = 0.72mm
; top infill extrusion width = 0.72mm
; first layer extrusion width = 0.62mm

; external perimeters extrusion width = 0.62mm
; perimeters extrusion width = 0.62mm
; infill extrusion width = 0.62mm
; solid infill extrusion width = 0.72mm
; top infill extrusion width = 0.72mm
; first layer extrusion width = 0.62mm

; external perimeters extrusion width = 0.62mm
; perimeters extrusion width = 0.62mm
; infill extrusion width = 0.62mm
; solid infill extrusion width = 0.72mm
; top infill extrusion width = 0.72mm
; first layer extrusion width = 0.62mm

; external perimeters extrusion width = 0.62mm
; perimeters extrusion width = 0.62mm
; infill extrusion width = 0.62mm
; solid infill extrusion width = 0.72mm
; top infill extrusion width = 0.72mm
; first layer extrusion width = 0.62mm

; external perimeters extrusion width = 0.62mm
; perimeters extrusion width = 0.62mm
; infill extrusion width = 0.62mm
; solid infill extrusion width = 0.72mm
; top infill extrusion width = 0.72mm
; first layer extrusion width = 0.62mm

; EXECUTABLE_BLOCK_START
EXCLUDE_OBJECT_DEFINE NAME=flowrate_0_id_0_copy_0 CENTER=175,223 POLYGON=[[155,208],[195,208],[195,228],[185,238],[165,238],[155,228],[155,208]]
EXCLUDE_OBJECT_DEFINE NAME=flowrate_m1_id_1_copy_0 CENTER=133,191 POLYGON=[[113,176],[153,176],[153,196],[143,206],[123,206],[113,196],[113,176]]
EXCLUDE_OBJECT_DEFINE NAME=flowrate_m2_id_2_copy_0 CENTER=175,191 POLYGON=[[155,176],[195,176],[195,196],[185,206],[165,206],[155,196],[155,176]]
EXCLUDE_OBJECT_DEFINE NAME=flowrate_m3_id_3_copy_0 CENTER=217,191 POLYGON=[[197,176],[237,176],[237,196],[227,206],[207,206],[197,196],[197,176]]
EXCLUDE_OBJECT_DEFINE NAME=flowrate_m4_id_4_copy_0 CENTER=133,159 POLYGON=[[113,144],[153,144],[153,164],[143,174],[123,174],[113,164],[113,144]]
EXCLUDE_OBJECT_DEFINE NAME=flowrate_m5_id_5_copy_0 CENTER=175,159 POLYGON=[[155,144],[195,144],[195,164],[185,174],[165,174],[155,164],[155,144]]
EXCLUDE_OBJECT_DEFINE NAME=flowrate_m6_id_6_copy_0 CENTER=217,159 POLYGON=[[197,144],[237,144],[237,164],[227,174],[207,174],[197,164],[197,144]]
EXCLUDE_OBJECT_DEFINE NAME=flowrate_m7_id_7_copy_0 CENTER=217,127 POLYGON=[[197,112],[237,112],[237,132],[227,142],[207,142],[197,132],[197,112]]
EXCLUDE_OBJECT_DEFINE NAME=flowrate_m8_id_8_copy_0 CENTER=175,127 POLYGON=[[155,112],[195,112],[195,132],[185,142],[165,142],[155,132],[155,112]]
EXCLUDE_OBJECT_DEFINE NAME=flowrate_m9_id_9_copy_0 CENTER=133,127 POLYGON=[[113,112],[153,112],[153,132],[143,142],[123,142],[113,132],[113,112]]
M73 P0 R30
;TYPE:Custom
M190 S60
M109 S210
PRINT_START EXTRUDER=210 BED=60
; You can use following code instead if your PRINT_START macro support Chamber and print area bedmesh
; PRINT_START EXTRUDER=210 BED=60 Chamber=0 PRINT_MIN=113,112 PRINT_MAX=237,238
G90
G21
M83 ; use relative distances for extrusion
; filament start gcode
M106 S0
;LAYER_CHANGE
;Z:0.3
;HEIGHT:0.3
;BEFORE_LAYER_CHANGE
;0.3
G92 E0

G1 E-.8 F1800
;AFTER_LAYER_CHANGE
;0.3
;_SET_FAN_SPEED_CHANGING_LAYER
SET_VELOCITY_LIMIT ACCEL=500 ACCEL_TO_DECEL=250
SET_VELOCITY_LIMIT SQUARE_CORNER_VELOCITY=9
; printing object flowrate_m3 id:3 copy 0
EXCLUDE_OBJECT_START NAME=flowrate_m3_id_3_copy_0
G1 Z.4 F21000
G1 X208.402 Y195.857
G1 Z.4
G1 Z.3
G1 E.8 F1800
;TYPE:Inner wall
;WIDTH:0.62
G1 F3000
G1 X208.363 Y195.569 E.01725
G1 X208.184 Y195.191 E.0248
G1 X207.866 Y194.857 E.02734
G1 X207.483 Y194.654 E.02569
G1 X207.032 Y194.579 E.02708
G1 X198.421 Y194.579 E.51053
G1 X198.421 Y177.421 E1.01725
G1 X235.579 Y177.421 E2.20303
G1 X235.579 Y186 E.50862
G1 X235.579 Y194.579 E.50862
G1 X226.968 Y194.579 E.51053
G1 X226.517 Y194.654 E.02708
G1 X226.134 Y194.857 E.02569
G1 X225.817 Y195.191 E.02734
G1 X225.637 Y195.569 E.0248
G1 X225.579 Y195.968 E.02392
G1 X225.579 Y204.579 E.51053
G1 X208.421 Y204.579 E1.01725
G1 X208.421 Y196 E.50862
G1 X208.41 Y195.916 E.005
G1 X207.852 Y195.915 F21000
G1 F3000
G1 X207.813 Y195.675 E.01439
G1 X207.624 Y195.381 E.02072
G1 X207.365 Y195.204 E.01861
G1 X207.032 Y195.134 E.02016
G1 X197.866 Y195.134 E.54348
G1 X197.866 Y176.866 E1.08313
G1 X236.134 Y176.866 E2.26891
G1 X236.134 Y186 E.54157
G1 X236.134 Y195.134 E.54157
G1 X226.968 Y195.134 E.54348
G1 X226.635 Y195.204 E.02016
G1 X226.376 Y195.381 E.01861
G1 X226.208 Y195.626 E.01761
G1 X226.134 Y195.968 E.02074
G1 X226.134 Y205.134 E.54348
G1 X207.866 Y205.134 E1.08313
G1 X207.866 Y196 E.54157
G1 X207.861 Y195.974 E.00157
G1 X207.31 Y196 F21000
;TYPE:Outer wall
G1 F3000
G1 X207.307 Y195.927 E.00436
G1 X207.215 Y195.759 E.01136
G1 X207.032 Y195.69 E.01157
G1 X197.31 Y195.69 E.57642
G1 X197.31 Y176.31 E1.14902
G1 X236.69 Y176.31 E2.33479
G1 X236.69 Y186 E.57451
G1 X236.69 Y195.69 E.57451
G1 X227 Y195.69 E.57451
G1 X226.922 Y195.694 E.00464
G1 X226.757 Y195.786 E.01119
G1 X226.69 Y195.968 E.01147
G1 X226.69 Y205.69 E.57642
G1 X207.31 Y205.69 E1.14902
G1 X207.31 Y196.06 E.57095
G1 E-.56 F1800
;WIPE_START
G1 F3000
G1 X207.307 Y195.927 E-.03202
G1 X207.215 Y195.759 E-.046
G1 X207.032 Y195.69 E-.04682
G1 X206.552 Y195.69 E-.11516
;WIPE_END
G1 Z.7 F21000
G1 X206.552 Y195.166 Z.7
G1 X236.167 Y176.833
G1 X236.166 Y178.718
G1 X235.412 Y178.718
G1 Z.3
G1 E.8 F1800
;TYPE:Bottom surface
;WIDTH:0.623404
G1 F4425.984
G1 X234.532 Y177.838 E.07427
G1 X233.741 Y177.838 E.04716
G1 X235.162 Y179.259 E.11987
G1 X235.162 Y180.049 E.04716
M73 P0 R29
G1 X232.951 Y177.838 E.18656
G1 X232.16 Y177.838 E.04716
G1 X235.162 Y180.84 E.25326
G1 X235.162 Y181.631 E.04716
G1 X231.369 Y177.838 E.31995
G1 X230.579 Y177.838 E.04716
G1 X235.162 Y182.421 E.38664
G1 X235.162 Y183.212 E.04716
G1 X229.788 Y177.838 E.45334
G1 X228.998 Y177.838 E.04716
G1 X235.162 Y184.002 E.52003
G1 X235.162 Y184.793 E.04716
G1 X228.207 Y177.838 E.58672
G1 X227.417 Y177.838 E.04716
G1 X235.162 Y185.583 E.65342
G1 X235.162 Y186.374 E.04716
G1 X226.626 Y177.838 E.72011
G1 X225.835 Y177.838 E.04716
G1 X235.162 Y187.165 E.78681
G1 X235.162 Y187.955 E.04716
G1 X225.045 Y177.838 E.8535
G1 X224.254 Y177.838 E.04716
G1 X235.162 Y188.746 E.92019
G1 X235.162 Y189.536 E.04716
G1 X223.464 Y177.838 E.98689
G1 X222.673 Y177.838 E.04716
G1 X235.162 Y190.327 E1.05358
G1 X235.162 Y191.118 E.04716
G1 X221.882 Y177.838 E1.12027
G1 X221.092 Y177.838 E.04716
G1 X235.162 Y191.908 E1.18697
G1 X235.162 Y192.699 E.04716
G1 X220.301 Y177.838 E1.25366
M73 P1 R29
G1 X219.511 Y177.838 E.04716
G1 X235.162 Y193.489 E1.32036
G1 X235.162 Y194.162 E.04014
G1 X235.044 Y194.162 E.00702
G1 X218.72 Y177.838 E1.37713
G1 X217.93 Y177.838 E.04716
G1 X234.254 Y194.163 E1.37717
G1 X233.464 Y194.163 E.04713
G1 X217.139 Y177.838 E1.37722
G1 X216.348 Y177.838 E.04716
G1 X232.674 Y194.164 E1.37726
G1 X231.884 Y194.164 E.04713
G1 X215.558 Y177.838 E1.37731
G1 X214.767 Y177.838 E.04716
G1 X231.094 Y194.165 E1.37735
G1 X230.304 Y194.165 E.04713
G1 X213.977 Y177.838 E1.3774
G1 X213.186 Y177.838 E.04716
G1 X229.514 Y194.166 E1.37745
G1 X228.724 Y194.167 E.04713
G1 X212.396 Y177.838 E1.37749
G1 X211.605 Y177.838 E.04716
G1 X227.934 Y194.167 E1.37754
G1 X227.144 Y194.168 E.04713
G1 X210.814 Y177.838 E1.37758
G1 X210.024 Y177.838 E.04716
G1 X226.434 Y194.248 E1.38435
G1 X226.247 Y194.312 E.01179
G1 X225.995 Y194.446 E.01702
G1 X225.91 Y194.514 E.00652
G1 X209.233 Y177.838 E1.40684
G1 X208.443 Y177.838 E.04716
G1 X225.512 Y194.907 E1.43996
G1 X225.32 Y195.228 E.02227
G1 X225.25 Y195.436 E.01313
G1 X207.652 Y177.838 E1.48461
G1 X206.862 Y177.838 E.04716
G1 X225.167 Y196.143 E1.54423
G1 X225.166 Y196.933 E.04713
G1 X206.071 Y177.838 E1.61088
G1 X205.28 Y177.838 E.04716
G1 X225.166 Y197.723 E1.67754
G1 X225.165 Y198.513 E.04713
G1 X204.49 Y177.838 E1.7442
G1 X203.699 Y177.838 E.04716
G1 X225.165 Y199.304 E1.81085
G1 X225.164 Y200.094 E.04713
G1 X202.909 Y177.838 E1.87751
G1 X202.118 Y177.838 E.04716
G1 X225.164 Y200.884 E1.94417
G1 X225.163 Y201.674 E.04713
G1 X201.327 Y177.838 E2.01083
G1 X200.537 Y177.838 E.04716
G1 X225.163 Y202.464 E2.07748
G1 X225.163 Y203.254 E.04713
G1 X199.746 Y177.838 E2.14414
G1 X198.956 Y177.838 E.04716
G1 X225.162 Y204.044 E2.2108
G1 X225.162 Y204.162 E.00702
G1 X224.489 Y204.162 E.04014
G1 X198.838 Y178.511 E2.16396
G1 X198.838 Y179.301 E.04716
G1 X223.699 Y204.162 E2.09727
G1 X222.908 Y204.162 E.04716
G1 X198.838 Y180.092 E2.03057
G1 X198.838 Y180.882 E.04716
G1 X222.118 Y204.162 E1.96388
G1 X221.327 Y204.162 E.04716
G1 X198.838 Y181.673 E1.89719
G1 X198.838 Y182.464 E.04716
G1 X220.536 Y204.162 E1.83049
G1 X219.746 Y204.162 E.04716
G1 X198.838 Y183.254 E1.7638
M73 P2 R29
G1 X198.838 Y184.045 E.04716
G1 X218.955 Y204.162 E1.69711
G1 X218.165 Y204.162 E.04716
G1 X198.838 Y184.835 E1.63041
G1 X198.838 Y185.626 E.04716
G1 X207.42 Y194.208 E.72395
G1 X207.753 Y194.312 E.02086
G1 X208.005 Y194.446 E.01702
G1 X208.314 Y194.695 E.02367
G1 X208.529 Y194.957 E.02021
G1 X208.68 Y195.228 E.01849
G1 X208.796 Y195.584 E.02238
G1 X217.374 Y204.162 E.72363
G1 X216.583 Y204.162 E.04716
G1 X208.834 Y196.412 E.65378
G1 X208.834 Y197.203 E.04719
G1 X215.793 Y204.162 E.58705
G1 X215.002 Y204.162 E.04716
G1 X208.834 Y197.994 E.52032
G1 X208.835 Y198.785 E.04719
G1 X214.212 Y204.162 E.45359
G1 X213.421 Y204.162 E.04716
G1 X208.835 Y199.576 E.38686
G1 X208.836 Y200.367 E.04719
G1 X212.631 Y204.162 E.32013
G1 X211.84 Y204.162 E.04716
G1 X208.836 Y201.158 E.2534
G1 X208.837 Y201.949 E.04719
G1 X211.049 Y204.162 E.18667
G1 X210.259 Y204.162 E.04716
G1 X208.837 Y202.74 E.11994
G1 X208.838 Y203.531 E.04719
G1 X209.718 Y204.412 E.0743
G1 E-.56 F1800
;WIPE_START
G1 F4425.984
G1 X209.011 Y203.705 E-.24
;WIPE_END
G1 Z.7 F21000
G1 X207.833 Y195.167 Z.7
G1 X206.839 Y195.166
G1 X206.839 Y194.418
G1 Z.3
G1 E.8 F1800
G1 F4425.984
G1 X198.838 Y186.417 E.67498
G1 X198.838 Y187.207 E.04716
G1 X205.798 Y194.167 E.58713
G1 X205.007 Y194.166 E.04719
G1 X198.838 Y187.998 E.52039
G1 X198.838 Y188.788 E.04716
G1 X204.215 Y194.166 E.45365
G1 X203.424 Y194.165 E.04719
G1 X198.838 Y189.579 E.38691
G1 X198.838 Y190.369 E.04716
G1 X202.633 Y194.165 E.32018
G1 X201.842 Y194.164 E.04719
G1 X198.838 Y191.16 E.25344
G1 X198.838 Y191.951 E.04716
G1 X201.051 Y194.164 E.1867
G1 X200.26 Y194.163 E.04719
G1 X198.838 Y192.741 E.11996
G1 X198.838 Y193.532 E.04716
G1 X199.719 Y194.413 E.07433
; stop printing object flowrate_m3 id:3 copy 0
; printing object flowrate_m6 id:6 copy 0
G1 E-.56 F1800
;WIPE_START
G1 F4425.984
G1 X199.012 Y193.706 E-.24
;WIPE_END
EXCLUDE_OBJECT_END NAME=flowrate_m3_id_3_copy_0
EXCLUDE_OBJECT_START NAME=flowrate_m6_id_6_copy_0
G1 Z.7 F21000
G1 X225.604 Y163.796 Z.7
G1 Z.3
G1 E.8 F1800
;TYPE:Inner wall
;WIDTH:0.62
G1 F3000
G1 X225.579 Y163.968 E.00998
G1 X225.579 Y172.579 E.49474
G1 X208.421 Y172.579 E.98579
G1 X208.421 Y164 E.49289
G1 X208.363 Y163.569 E.02501
G1 X208.184 Y163.191 E.02403
G1 X207.866 Y162.857 E.0265
G1 X207.483 Y162.654 E.02489
G1 X207.032 Y162.579 E.02624
G1 X198.421 Y162.579 E.49474
G1 X198.421 Y145.421 E.98579
G1 X235.579 Y145.421 E2.13489
G1 X235.579 Y154 E.49289
G1 X235.579 Y162.579 E.49289
G1 X226.968 Y162.579 E.49474
G1 X226.517 Y162.654 E.02624
G1 X226.134 Y162.857 E.02489
G1 X225.817 Y163.191 E.0265
G1 X225.637 Y163.569 E.02403
G1 X225.613 Y163.737 E.00975
G1 X226.158 Y163.86 F21000
G1 F3000
G1 X226.134 Y163.968 E.00633
G1 X226.134 Y173.134 E.52667
G1 X207.866 Y173.134 E1.04963
G1 X207.866 Y164 E.52482
G1 X207.813 Y163.675 E.01891
G1 X207.624 Y163.381 E.02008
G1 X207.365 Y163.204 E.01803
G1 X207.032 Y163.134 E.01953
G1 X197.866 Y163.134 E.52667
G1 X197.866 Y144.866 E1.04963
G1 X236.134 Y144.866 E2.19874
G1 X236.134 Y154 E.52482
G1 X236.134 Y163.134 E.52482
G1 X226.968 Y163.134 E.52667
G1 X226.635 Y163.204 E.01953
G1 X226.376 Y163.381 E.01803
G1 X226.208 Y163.626 E.01707
G1 X226.17 Y163.801 E.01032
G1 X226.69 Y163.968 F21000
;TYPE:Outer wall
G1 F3000
G1 X226.69 Y173.69 E.55859
G1 X207.31 Y173.69 E1.11348
G1 X207.31 Y164 E.55674
G1 X207.307 Y163.927 E.00422
G1 X207.215 Y163.759 E.01101
G1 X207.032 Y163.69 E.01121
G1 X197.31 Y163.69 E.55859
G1 X197.31 Y144.31 E1.11348
G1 X236.69 Y144.31 E2.26258
G1 X236.69 Y154 E.55674
G1 X236.69 Y163.69 E.55674
G1 X227 Y163.69 E.55674
G1 X226.922 Y163.694 E.0045
G1 X226.757 Y163.786 E.01084
G1 X226.711 Y163.912 E.00767
G1 E-.56 F1800
;WIPE_START
G1 F3000
G1 X226.709 Y164.912 E-.24
;WIPE_END
G1 Z.7 F21000
M73 P3 R29
G1 X226.166 Y164.912 Z.7
G1 X226.167 Y163.167
G1 X236.167 Y163.167
G1 X236.166 Y146.718
G1 X235.412 Y146.718
G1 Z.3
G1 E.8 F1800
;TYPE:Bottom surface
;WIDTH:0.623404
G1 F4567.239
G1 X234.532 Y145.838 E.07197
G1 X233.741 Y145.838 E.0457
G1 X235.162 Y147.259 E.11616
G1 X235.162 Y148.049 E.0457
G1 X232.951 Y145.838 E.18079
G1 X232.16 Y145.838 E.0457
G1 X235.162 Y148.84 E.24542
G1 X235.162 Y149.631 E.0457
G1 X231.369 Y145.838 E.31005
G1 X230.579 Y145.838 E.0457
G1 X235.162 Y150.421 E.37468
G1 X235.162 Y151.212 E.0457
G1 X229.788 Y145.838 E.43932
G1 X228.998 Y145.838 E.0457
G1 X235.162 Y152.002 E.50395
G1 X235.162 Y152.793 E.0457
G1 X228.207 Y145.838 E.56858
G1 X227.417 Y145.838 E.0457
G1 X235.162 Y153.583 E.63321
G1 X235.162 Y154.374 E.0457
G1 X226.626 Y145.838 E.69784
G1 X225.835 Y145.838 E.0457
G1 X235.162 Y155.165 E.76247
G1 X235.162 Y155.955 E.0457
G1 X225.045 Y145.838 E.8271
G1 X224.254 Y145.838 E.0457
G1 X235.162 Y156.746 E.89173
G1 X235.162 Y157.536 E.0457
G1 X223.464 Y145.838 E.95636
G1 X222.673 Y145.838 E.0457
G1 X235.162 Y158.327 E1.021
G1 X235.162 Y159.118 E.0457
G1 X221.882 Y145.838 E1.08563
G1 X221.092 Y145.838 E.0457
G1 X235.162 Y159.908 E1.15026
G1 X235.162 Y160.699 E.0457
G1 X220.301 Y145.838 E1.21489
G1 X219.511 Y145.838 E.0457
G1 X235.162 Y161.489 E1.27952
G1 X235.162 Y162.162 E.0389
G1 X235.044 Y162.162 E.0068
G1 X218.72 Y145.838 E1.33454
G1 X217.93 Y145.838 E.0457
G1 X234.254 Y162.163 E1.33458
G1 X233.464 Y162.163 E.04567
G1 X217.139 Y145.838 E1.33462
G1 X216.348 Y145.838 E.0457
G1 X232.674 Y162.164 E1.33467
G1 X231.884 Y162.164 E.04567
G1 X215.558 Y145.838 E1.33471
G1 X214.767 Y145.838 E.0457
G1 X231.094 Y162.165 E1.33476
G1 X230.304 Y162.165 E.04567
G1 X213.977 Y145.838 E1.3348
G1 X213.186 Y145.838 E.0457
G1 X229.514 Y162.166 E1.33484
G1 X228.724 Y162.167 E.04567
G1 X212.396 Y145.838 E1.33489
G1 X211.605 Y145.838 E.0457
G1 X227.934 Y162.167 E1.33493
G1 X227.144 Y162.168 E.04567
G1 X210.814 Y145.838 E1.33498
G1 X210.024 Y145.838 E.0457
G1 X226.434 Y162.248 E1.34153
G1 X226.247 Y162.312 E.01142
G1 X225.995 Y162.446 E.0165
G1 X225.91 Y162.514 E.00631
G1 X209.233 Y145.838 E1.36333
G1 X208.443 Y145.838 E.0457
G1 X225.512 Y162.907 E1.39543
G1 X225.32 Y163.228 E.02159
G1 X225.25 Y163.436 E.01272
G1 X207.652 Y145.838 E1.43869
G1 X206.862 Y145.838 E.0457
