; HEADER_BLOCK_START
; generated by OrcaSlicer 1.8.0 on 2023-12-18 at 20:45:27
; total layer number: 4
; HEADER_BLOCK_END

; THUMBNAIL_BLOCK_START

;
; THUMBNAIL_BLOCK_END

; external perimeters extrusion width = 0.62mm
; perimeters extrusion width = 0.62mm
; infill extrusion width = 0.62mm
; solid infill extrusion width = 0.62mm
; top infill extrusion width = 0.62mm
; first layer extrusion width = 0.84mm

; EXECUTABLE_BLOCK_START
EXCLUDE_OBJECT_DEFINE NAME=Orca-PA-Calibration-Test CENTER=0,0 POLYGON=[[5,5],[345,5],[345,345],[5,345],[5,5]]
M73 P0 R6
;TYPE:Custom
status_heating
M190 S50
M109 S205
PRINT_START
G90
G21
M83 ; use relative distances for extrusion
; filament start gcode
SET_PRESSURE_ADVANCE ADVANCE=0.02; Override pressure advance value
M106 S0
;LAYER_CHANGE
;Z:0.25
;HEIGHT:0.25
;BEFORE_LAYER_CHANGE
;0.25
G92 E0

G1 E-.8 F1800
;AFTER_LAYER_CHANGE
;0.25
;_SET_FAN_SPEED_CHANGING_LAYER
SET_VELOCITY_LIMIT ACCEL=500 ACCEL_TO_DECEL=250
SET_VELOCITY_LIMIT SQUARE_CORNER_VELOCITY=9
;CUSTOM_GCODE
; start pressure advance pattern for layer
G1 E-.8
G1 X127.411 Y149.367 F21000
G1 E.8 F1800
G1 Z.25 F21000
SET_PRESSURE_ADVANCE ADVANCE=0; Override pressure advance value
G1 E-.8 F1800
G1 X127.411 Y149.367 F21000
G1 E.8 F1800

G1 X127.411 Y191.793 E3.35572

G1 X227.589 Y191.793 E7.92353

M73 P1 R6
G1 X227.589 Y149.367 E3.35572

M73 P2 R6
G1 X127.411 Y149.367 E7.92353
G1 E-.8
G1 X128.198 Y150.153 F21000
G1 E.8 F1800

G1 X128.198 Y191.007 E3.23133

M73 P3 R6
G1 X226.802 Y191.007 E7.79914

M73 P4 R6
G1 X226.802 Y150.153 E3.23133

G1 X128.198 Y150.153 E7.79914
M73 P5 R5
G1 E-.8
G1 X128.984 Y150.939 F21000
G1 E.8 F1800

G1 X128.984 Y190.221 E3.10693

G1 X226.016 Y190.221 E7.67475

M73 P6 R5
G1 X226.016 Y150.939 E3.10693

M73 P7 R5
G1 X128.984 Y150.939 E7.67475
G1 E-.8
G1 X127.411 Y192.58 F21000
M73 P8 R5
G1 E.8 F1800

G1 X127.411 Y206.366 E1.09043

G1 X207.986 Y206.366 E6.37302

G1 X207.986 Y192.58 E1.09043

M73 P9 R5
G1 X127.411 Y192.58 E6.37302
G1 E-.8
G1 X128.198 Y193.366 F21000
G1 E.8 F1800

G1 X128.198 Y205.58 E.96604

G1 X207.199 Y205.58 E6.24863

M73 P10 R5
G1 X207.199 Y193.366 E.96604

G1 X128.198 Y193.366 E6.24863
M73 P11 R5
G1 E-.8
G1 X128.984 Y194.152 F21000
G1 E.8 F1800

G1 X128.984 Y204.793 E.84165

G1 X206.413 Y204.793 E6.12424

M73 P12 R5
G1 X206.413 Y194.152 E.84165

G1 X128.984 Y194.152 E6.12424
M73 P13 R5
G1 E-.8
G1 X129.544 Y194.712 F21000
G1 E.8 F1800
G1 E-.8
G1 X130.656 Y194.712 F21000
G1 E.8 F1800

G1 X129.544 Y195.824 E.12439
G1 E-.8
G1 X129.544 Y196.936 F21000
G1 E.8 F1800

G1 X131.768 Y194.712 E.24879
G1 E-.8
G1 X132.88 Y194.712 F21000
G1 E.8 F1800

G1 X129.544 Y198.048 E.37318
G1 E-.8
G1 X129.544 Y199.161 F21000
G1 E.8 F1800

G1 X133.992 Y194.712 E.49757
G1 E-.8
G1 X135.104 Y194.712 F21000
G1 E.8 F1800

G1 X129.544 Y200.273 E.62196
G1 E-.8
G1 X129.544 Y201.385 F21000
G1 E.8 F1800

G1 X136.216 Y194.712 E.74636
G1 E-.8
G1 X137.328 Y194.712 F21000
G1 E.8 F1800

G1 X129.544 Y202.497 E.87075
G1 E-.8
G1 X129.544 Y203.609 F21000
G1 E.8 F1800

G1 X138.441 Y194.712 E.99514
M73 P14 R5
G1 E-.8
G1 X139.553 Y194.712 F21000
G1 E.8 F1800

G1 X130.032 Y204.233 E1.06499
G1 E-.8
G1 X131.144 Y204.233 F21000
G1 E.8 F1800

G1 X140.665 Y194.712 E1.06499
G1 E-.8
G1 X141.777 Y194.712 F21000
G1 E.8 F1800

G1 X132.256 Y204.233 E1.06499
G1 E-.8
G1 X133.368 Y204.233 F21000
G1 E.8 F1800

G1 X142.889 Y194.712 E1.06499
G1 E-.8
G1 X144.001 Y194.712 F21000
G1 E.8 F1800

G1 X134.48 Y204.233 E1.06499
G1 E-.8
G1 X135.592 Y204.233 F21000
G1 E.8 F1800

G1 X145.113 Y194.712 E1.06499
M73 P15 R5
G1 E-.8
G1 X146.225 Y194.712 F21000
G1 E.8 F1800

G1 X136.704 Y204.233 E1.06499
G1 E-.8
G1 X137.816 Y204.233 F21000
G1 E.8 F1800

G1 X147.337 Y194.712 E1.06499
G1 E-.8
G1 X148.449 Y194.712 F21000
G1 E.8 F1800

G1 X138.928 Y204.233 E1.06499
G1 E-.8
G1 X140.04 Y204.233 F21000
G1 E.8 F1800

G1 X149.561 Y194.712 E1.06499
G1 E-.8
G1 X150.673 Y194.712 F21000
G1 E.8 F1800

G1 X141.152 Y204.233 E1.06499
G1 E-.8
G1 X142.264 Y204.233 F21000
G1 E.8 F1800

G1 X151.785 Y194.712 E1.06499
M73 P16 R5
G1 E-.8
G1 X152.897 Y194.712 F21000
G1 E.8 F1800

G1 X143.376 Y204.233 E1.06499
G1 E-.8
G1 X144.489 Y204.233 F21000
G1 E.8 F1800

G1 X154.009 Y194.712 E1.06499
G1 E-.8
G1 X155.122 Y194.712 F21000
G1 E.8 F1800

G1 X145.601 Y204.233 E1.06499
G1 E-.8
G1 X146.713 Y204.233 F21000
G1 E.8 F1800

G1 X156.234 Y194.712 E1.06499
G1 E-.8
G1 X157.346 Y194.712 F21000
G1 E.8 F1800

G1 X147.825 Y204.233 E1.06499
G1 E-.8
G1 X148.937 Y204.233 F21000
G1 E.8 F1800

G1 X158.458 Y194.712 E1.06499
M73 P17 R5
G1 E-.8
G1 X159.57 Y194.712 F21000
G1 E.8 F1800

G1 X150.049 Y204.233 E1.06499
G1 E-.8
G1 X151.161 Y204.233 F21000
G1 E.8 F1800

G1 X160.682 Y194.712 E1.06499
G1 E-.8
G1 X161.794 Y194.712 F21000
G1 E.8 F1800

G1 X152.273 Y204.233 E1.06499
G1 E-.8
G1 X153.385 Y204.233 F21000
G1 E.8 F1800

G1 X162.906 Y194.712 E1.06499
G1 E-.8
G1 X164.018 Y194.712 F21000
G1 E.8 F1800

G1 X154.497 Y204.233 E1.06499
G1 E-.8
G1 X155.609 Y204.233 F21000
G1 E.8 F1800

G1 X165.13 Y194.712 E1.06499
M73 P18 R5
G1 E-.8
G1 X166.242 Y194.712 F21000
G1 E.8 F1800

G1 X156.721 Y204.233 E1.06499
G1 E-.8
G1 X157.833 Y204.233 F21000
G1 E.8 F1800

G1 X167.354 Y194.712 E1.06499
G1 E-.8
G1 X168.466 Y194.712 F21000
G1 E.8 F1800

G1 X158.945 Y204.233 E1.06499
G1 E-.8
G1 X160.057 Y204.233 F21000
G1 E.8 F1800

G1 X169.578 Y194.712 E1.06499
G1 E-.8
G1 X170.69 Y194.712 F21000
G1 E.8 F1800

G1 X161.169 Y204.233 E1.06499
G1 E-.8
G1 X162.282 Y204.233 F21000
G1 E.8 F1800

G1 X171.803 Y194.712 E1.06499
M73 P19 R5
G1 E-.8
G1 X172.915 Y194.712 F21000
G1 E.8 F1800

G1 X163.394 Y204.233 E1.06499
G1 E-.8
G1 X164.506 Y204.233 F21000
G1 E.8 F1800

G1 X174.027 Y194.712 E1.06499
G1 E-.8
G1 X175.139 Y194.712 F21000
G1 E.8 F1800

G1 X165.618 Y204.233 E1.06499
G1 E-.8
G1 X166.73 Y204.233 F21000
G1 E.8 F1800

G1 X176.251 Y194.712 E1.06499
G1 E-.8
G1 X177.363 Y194.712 F21000
G1 E.8 F1800

G1 X167.842 Y204.233 E1.06499
G1 E-.8
G1 X168.954 Y204.233 F21000
G1 E.8 F1800

M73 P20 R5
G1 X178.475 Y194.712 E1.06499
G1 E-.8
G1 X179.587 Y194.712 F21000
G1 E.8 F1800

G1 X170.066 Y204.233 E1.06499
G1 E-.8
G1 X171.178 Y204.233 F21000
G1 E.8 F1800

G1 X180.699 Y194.712 E1.06499
G1 E-.8
G1 X181.811 Y194.712 F21000
G1 E.8 F1800

G1 X172.29 Y204.233 E1.06499
G1 E-.8
G1 X173.402 Y204.233 F21000
G1 E.8 F1800

G1 X182.923 Y194.712 E1.06499
G1 E-.8
G1 X184.035 Y194.712 F21000
G1 E.8 F1800

G1 X174.514 Y204.233 E1.06499
G1 E-.8
G1 X175.626 Y204.233 F21000
M73 P21 R5
G1 E.8 F1800

G1 X185.147 Y194.712 E1.06499
M73 P21 R4
G1 E-.8
G1 X186.259 Y194.712 F21000
G1 E.8 F1800

G1 X176.738 Y204.233 E1.06499
G1 E-.8
G1 X177.85 Y204.233 F21000
G1 E.8 F1800

G1 X187.371 Y194.712 E1.06499
G1 E-.8
G1 X188.484 Y194.712 F21000
G1 E.8 F1800

G1 X178.963 Y204.233 E1.06499
G1 E-.8
G1 X180.075 Y204.233 F21000
G1 E.8 F1800

G1 X189.596 Y194.712 E1.06499
G1 E-.8
G1 X190.708 Y194.712 F21000
G1 E.8 F1800

G1 X181.187 Y204.233 E1.06499
M73 P22 R4
G1 E-.8
G1 X182.299 Y204.233 F21000
G1 E.8 F1800

G1 X191.82 Y194.712 E1.06499
G1 E-.8
G1 X192.932 Y194.712 F21000
G1 E.8 F1800

G1 X183.411 Y204.233 E1.06499
G1 E-.8
G1 X184.523 Y204.233 F21000
G1 E.8 F1800

G1 X194.044 Y194.712 E1.06499
G1 E-.8
G1 X195.156 Y194.712 F21000
G1 E.8 F1800

G1 X185.635 Y204.233 E1.06499
G1 E-.8
G1 X186.747 Y204.233 F21000
G1 E.8 F1800

G1 X196.268 Y194.712 E1.06499
G1 E-.8
G1 X197.38 Y194.712 F21000
G1 E.8 F1800

G1 X187.859 Y204.233 E1.06499
M73 P23 R4
G1 E-.8
G1 X188.971 Y204.233 F21000
G1 E.8 F1800

G1 X198.492 Y194.712 E1.06499
G1 E-.8
G1 X199.604 Y194.712 F21000
G1 E.8 F1800

G1 X190.083 Y204.233 E1.06499
G1 E-.8
G1 X191.195 Y204.233 F21000
G1 E.8 F1800

G1 X200.716 Y194.712 E1.06499
G1 E-.8
G1 X201.828 Y194.712 F21000
G1 E.8 F1800

G1 X192.307 Y204.233 E1.06499
G1 E-.8
G1 X193.419 Y204.233 F21000
G1 E.8 F1800

G1 X202.94 Y194.712 E1.06499
G1 E-.8
G1 X204.052 Y194.712 F21000
G1 E.8 F1800

G1 X194.531 Y204.233 E1.06499
M73 P24 R4
G1 E-.8
G1 X195.644 Y204.233 F21000
G1 E.8 F1800

G1 X205.164 Y194.712 E1.06499
G1 E-.8
G1 X205.853 Y195.136 F21000
G1 E.8 F1800

G1 X196.756 Y204.233 E1.01759
G1 E-.8
G1 X197.868 Y204.233 F21000
G1 E.8 F1800

G1 X205.853 Y196.248 E.8932
G1 E-.8
G1 X205.853 Y197.36 F21000
G1 E.8 F1800

G1 X198.98 Y204.233 E.76881
G1 E-.8
G1 X200.092 Y204.233 F21000
G1 E.8 F1800

G1 X205.853 Y198.472 E.64441
G1 E-.8
G1 X205.853 Y199.584 F21000
G1 E.8 F1800

G1 X201.204 Y204.233 E.52002
G1 E-.8
G1 X202.316 Y204.233 F21000
G1 E.8 F1800

G1 X205.853 Y200.696 E.39563
G1 E-.8
M73 P25 R4
G1 X205.853 Y201.808 F21000
G1 E.8 F1800

G1 X203.428 Y204.233 E.27124
G1 E-.8
G1 X204.54 Y204.233 F21000
G1 E.8 F1800

G1 X205.853 Y202.92 E.14684
G1 E-.8
G1 X205.853 Y204.033 F21000
G1 E.8 F1800

G1 X205.652 Y204.233 E.02245
G1 E-.8
G1 X132.957 Y151.499 F21000
G1 E.8 F1800
SET_PRESSURE_ADVANCE ADVANCE=0; Override pressure advance value

G1 X152.037 Y170.58 E1.68645

G1 X132.957 Y189.661 E1.68645
G1 E-.8
G1 X133.851 Y151.499 F21000
M73 P26 R4
G1 E.8 F1800

G1 X152.931 Y170.58 E1.68645

G1 X133.851 Y189.661 E1.68645
G1 E-.8
G1 X134.744 Y151.499 F21000
G1 E.8 F1800

G1 X153.825 Y170.58 E1.68645

G1 X134.744 Y189.661 E1.68645
M73 P27 R4
G1 E-.8
G1 X137.419 Y151.499 F21000
G1 E.8 F1800
SET_PRESSURE_ADVANCE ADVANCE=0.005; Override pressure advance value

G1 X156.5 Y170.58 E1.68645

G1 X137.419 Y189.661 E1.68645
G1 E-.8
G1 X138.313 Y151.499 F21000
M73 P28 R4
G1 E.8 F1800

G1 X157.394 Y170.58 E1.68645

G1 X138.313 Y189.661 E1.68645
G1 E-.8
G1 X139.207 Y151.499 F21000
G1 E.8 F1800

G1 X158.288 Y170.58 E1.68645

G1 X139.207 Y189.661 E1.68645
M73 P29 R4
G1 E-.8
G1 X141.882 Y151.499 F21000
G1 E.8 F1800
SET_PRESSURE_ADVANCE ADVANCE=0.01; Override pressure advance value

G1 X160.963 Y170.58 E1.68645

G1 X141.882 Y189.661 E1.68645
G1 E-.8
G1 X142.776 Y151.499 F21000
G1 E.8 F1800

G1 X161.857 Y170.58 E1.68645

M73 P30 R4
G1 X142.776 Y189.661 E1.68645
G1 E-.8
G1 X143.67 Y151.499 F21000
G1 E.8 F1800

G1 X162.751 Y170.58 E1.68645

G1 X143.67 Y189.661 E1.68645
M73 P31 R4
G1 E-.8
G1 X146.345 Y151.499 F21000
G1 E.8 F1800
SET_PRESSURE_ADVANCE ADVANCE=0.015; Override pressure advance value

G1 X165.426 Y170.58 E1.68645

G1 X146.345 Y189.661 E1.68645
G1 E-.8
G1 X147.239 Y151.499 F21000
G1 E.8 F1800

G1 X166.319 Y170.58 E1.68645

M73 P32 R4
G1 X147.239 Y189.661 E1.68645
G1 E-.8
G1 X148.133 Y151.499 F21000
G1 E.8 F1800

G1 X167.213 Y170.58 E1.68645

G1 X148.133 Y189.661 E1.68645
M73 P33 R4
G1 E-.8
G1 X150.808 Y151.499 F21000
G1 E.8 F1800
SET_PRESSURE_ADVANCE ADVANCE=0.02; Override pressure advance value

G1 X169.888 Y170.58 E1.68645

G1 X150.808 Y189.661 E1.68645
G1 E-.8
G1 X151.702 Y151.499 F21000
G1 E.8 F1800

G1 X170.782 Y170.58 E1.68645

M73 P34 R4
G1 X151.702 Y189.661 E1.68645
G1 E-.8
G1 X152.596 Y151.499 F21000
G1 E.8 F1800

G1 X171.676 Y170.58 E1.68645

G1 X152.596 Y189.661 E1.68645
M73 P35 R4
G1 E-.8
G1 X155.271 Y151.499 F21000
G1 E.8 F1800
SET_PRESSURE_ADVANCE ADVANCE=0.025; Override pressure advance value

G1 X174.351 Y170.58 E1.68645

G1 X155.271 Y189.661 E1.68645
G1 E-.8
G1 X156.165 Y151.499 F21000
G1 E.8 F1800

G1 X175.245 Y170.58 E1.68645

M73 P36 R4
G1 X156.165 Y189.661 E1.68645
G1 E-.8
G1 X157.058 Y151.499 F21000
G1 E.8 F1800

G1 X176.139 Y170.58 E1.68645

G1 X157.058 Y189.661 E1.68645
M73 P37 R3
G1 E-.8
G1 X159.733 Y151.499 F21000
G1 E.8 F1800
SET_PRESSURE_ADVANCE ADVANCE=0.03; Override pressure advance value

G1 X178.814 Y170.58 E1.68645

G1 X159.733 Y189.661 E1.68645
G1 E-.8
G1 X160.627 Y151.499 F21000
G1 E.8 F1800

G1 X179.708 Y170.58 E1.68645

M73 P38 R3
G1 X160.627 Y189.661 E1.68645
G1 E-.8
G1 X161.521 Y151.499 F21000
G1 E.8 F1800

G1 X180.602 Y170.58 E1.68645

G1 X161.521 Y189.661 E1.68645
G1 E-.8
G1 X164.196 Y151.499 F21000
M73 P39 R3
G1 E.8 F1800
SET_PRESSURE_ADVANCE ADVANCE=0.035; Override pressure advance value

G1 X183.277 Y170.58 E1.68645

G1 X164.196 Y189.661 E1.68645
G1 E-.8
G1 X165.09 Y151.499 F21000
G1 E.8 F1800

G1 X184.171 Y170.58 E1.68645

M73 P40 R3
G1 X165.09 Y189.661 E1.68645
G1 E-.8
G1 X165.984 Y151.499 F21000
G1 E.8 F1800

G1 X185.065 Y170.58 E1.68645

G1 X165.984 Y189.661 E1.68645
G1 E-.8
G1 X168.659 Y151.499 F21000
M73 P41 R3
G1 E.8 F1800
SET_PRESSURE_ADVANCE ADVANCE=0.04; Override pressure advance value

G1 X187.74 Y170.58 E1.68645

G1 X168.659 Y189.661 E1.68645
G1 E-.8
G1 X169.553 Y151.499 F21000
G1 E.8 F1800

G1 X188.633 Y170.58 E1.68645

M73 P42 R3
G1 X169.553 Y189.661 E1.68645
G1 E-.8
G1 X170.447 Y151.499 F21000
G1 E.8 F1800

G1 X189.527 Y170.58 E1.68645

G1 X170.447 Y189.661 E1.68645
G1 E-.8
G1 X173.122 Y151.499 F21000
M73 P43 R3
G1 E.8 F1800
SET_PRESSURE_ADVANCE ADVANCE=0.045; Override pressure advance value

G1 X192.202 Y170.58 E1.68645

G1 X173.122 Y189.661 E1.68645
G1 E-.8
G1 X174.016 Y151.499 F21000
G1 E.8 F1800

G1 X193.096 Y170.58 E1.68645

G1 X174.016 Y189.661 E1.68645
M73 P44 R3
G1 E-.8
G1 X174.91 Y151.499 F21000
G1 E.8 F1800

G1 X193.99 Y170.58 E1.68645

G1 X174.91 Y189.661 E1.68645
G1 E-.8
G1 X177.585 Y151.499 F21000
M73 P45 R3
G1 E.8 F1800
SET_PRESSURE_ADVANCE ADVANCE=0.05; Override pressure advance value

G1 X196.665 Y170.58 E1.68645

G1 X177.585 Y189.661 E1.68645
G1 E-.8
G1 X178.479 Y151.499 F21000
G1 E.8 F1800

G1 X197.559 Y170.58 E1.68645

G1 X178.479 Y189.661 E1.68645
M73 P46 R3
G1 E-.8
G1 X179.372 Y151.499 F21000
G1 E.8 F1800

G1 X198.453 Y170.58 E1.68645

G1 X179.372 Y189.661 E1.68645
G1 E-.8
G1 X182.047 Y151.499 F21000
G1 E.8 F1800
SET_PRESSURE_ADVANCE ADVANCE=0.055; Override pressure advance value

G1 X201.128 Y170.58 E1.68645

M73 P47 R3
G1 X182.047 Y189.661 E1.68645
G1 E-.8
G1 X182.941 Y151.499 F21000
G1 E.8 F1800

G1 X202.022 Y170.58 E1.68645

G1 X182.941 Y189.661 E1.68645
M73 P48 R3
G1 E-.8
G1 X183.835 Y151.499 F21000
G1 E.8 F1800

G1 X202.916 Y170.58 E1.68645

G1 X183.835 Y189.661 E1.68645
G1 E-.8
G1 X186.51 Y151.499 F21000
G1 E.8 F1800
SET_PRESSURE_ADVANCE ADVANCE=0.06; Override pressure advance value

G1 X205.591 Y170.58 E1.68645

M73 P49 R3
G1 X186.51 Y189.661 E1.68645
G1 E-.8
G1 X187.404 Y151.499 F21000
G1 E.8 F1800

G1 X206.485 Y170.58 E1.68645

G1 X187.404 Y189.661 E1.68645
M73 P50 R3
G1 E-.8
G1 X188.298 Y151.499 F21000
G1 E.8 F1800

G1 X207.378 Y170.58 E1.68645

G1 X188.298 Y189.661 E1.68645
G1 E-.8
G1 X190.973 Y151.499 F21000
G1 E.8 F1800
SET_PRESSURE_ADVANCE ADVANCE=0.065; Override pressure advance value

G1 X210.053 Y170.58 E1.68645

M73 P51 R3
G1 X190.973 Y189.661 E1.68645
G1 E-.8
G1 X191.867 Y151.499 F21000
G1 E.8 F1800

G1 X210.947 Y170.58 E1.68645

G1 X191.867 Y189.661 E1.68645
M73 P52 R3
G1 E-.8
G1 X192.761 Y151.499 F21000
G1 E.8 F1800

G1 X211.841 Y170.58 E1.68645

G1 X192.761 Y189.661 E1.68645
M73 P52 R2
G1 E-.8
G1 X195.436 Y151.499 F21000
G1 E.8 F1800
SET_PRESSURE_ADVANCE ADVANCE=0.07; Override pressure advance value

G1 X214.516 Y170.58 E1.68645

M73 P53 R2
G1 X195.436 Y189.661 E1.68645
G1 E-.8
G1 X196.33 Y151.499 F21000
G1 E.8 F1800

G1 X215.41 Y170.58 E1.68645

G1 X196.33 Y189.661 E1.68645
M73 P54 R2
G1 E-.8
G1 X197.224 Y151.499 F21000
G1 E.8 F1800

G1 X216.304 Y170.58 E1.68645

G1 X197.224 Y189.661 E1.68645
G1 E-.8
G1 X199.899 Y151.499 F21000
G1 E.8 F1800
SET_PRESSURE_ADVANCE ADVANCE=0.075; Override pressure advance value

G1 X218.979 Y170.58 E1.68645

M73 P55 R2
G1 X199.899 Y189.661 E1.68645
G1 E-.8
G1 X200.792 Y151.499 F21000
G1 E.8 F1800

G1 X219.873 Y170.58 E1.68645

G1 X200.792 Y189.661 E1.68645
G1 E-.8
G1 X201.686 Y151.499 F21000
M73 P56 R2
G1 E.8 F1800

G1 X220.767 Y170.58 E1.68645

G1 X201.686 Y189.661 E1.68645
G1 E-.8
G1 X204.361 Y151.499 F21000
G1 E.8 F1800
SET_PRESSURE_ADVANCE ADVANCE=0.08; Override pressure advance value

G1 X223.442 Y170.58 E1.68645

M73 P57 R2
G1 X204.361 Y189.661 E1.68645
G1 E-.8
G1 X205.255 Y151.499 F21000
G1 E.8 F1800

G1 X224.336 Y170.58 E1.68645

G1 X205.255 Y189.661 E1.68645
G1 E-.8
G1 X206.149 Y151.499 F21000
M73 P58 R2
G1 E.8 F1800

G1 X225.23 Y170.58 E1.68645

G1 X206.149 Y189.661 E1.68645
G1 E-.8
G1 X132.957 Y151.499 F21000
G1 E.8 F1800
; end pressure advance pattern for layer

; printing object Cube id:4519452301179402317 copy 0
EXCLUDE_OBJECT_START NAME=Cube_id_4519452301179402317_copy_0
