; HEADER_BLOCK_START
; generated by OrcaSlicer 1.8.1 on 2023-12-19 at 00:19:52
; total layer number: 106
; HEADER_BLOCK_END

; THUMBNAIL_BLOCK_START

;
; THUMBNAIL_BLOCK_END

; external perimeters extrusion width = 0.62mm
; perimeters extrusion width = 0.62mm
; infill extrusion width = 0.62mm
; solid infill extrusion width = 0.62mm
; top infill extrusion width = 0.62mm
; first layer extrusion width = 0.62mm

; EXECUTABLE_BLOCK_START
EXCLUDE_OBJECT_DEFINE NAME=retraction_tower.stl_id_0_copy_0 CENTER=175,175 POLYGON=[[155,170.5],[155.102,169.724],[155.402,169],[155.879,168.379],[156.5,167.902],[157.224,167.602],[158,167.5],[192,167.5],[192.776,167.602],[193.5,167.902],[194.121,168.379],[194.598,169],[194.898,169.724],[195,170.5],[195,179.5],[194.898,180.276],[194.598,181],[194.121,181.621],[193.5,182.098],[192.776,182.398],[192,182.5],[158,182.5],[157.224,182.398],[156.5,182.098],[155.879,181.621],[155.402,181],[155.102,180.276],[155,179.5],[155,170.5]]
M73 P0 R12
;TYPE:Custom
status_heating
M190 S50
M109 S205
PRINT_START
G90
G21
M83 ; use relative distances for extrusion
; filament start gcode
SET_PRESSURE_ADVANCE ADVANCE=0.015; Override pressure advance value
M106 S0
;LAYER_CHANGE
;Z:0.3
;HEIGHT:0.3
;BEFORE_LAYER_CHANGE
;0.3
G92 E0

G1 E-.8 F1800
;AFTER_LAYER_CHANGE
;0.3
;_SET_FAN_SPEED_CHANGING_LAYER
; Calib_Retraction_tower: Z_HEIGHT: 0.3, length:0
SET_VELOCITY_LIMIT ACCEL=500 ACCEL_TO_DECEL=250
SET_VELOCITY_LIMIT SQUARE_CORNER_VELOCITY=9
; printing object retraction_tower.stl id:0 copy 0
EXCLUDE_OBJECT_START NAME=retraction_tower.stl_id_0_copy_0
G1 Z.4 F21000
G1 X194.054 Y169.95
G1 Z.4
G1 Z.3
G1 E.8 F1800
;TYPE:Inner wall
;WIDTH:0.62
G1 F3000
G1 X194.134 Y170.71 E.04874
G1 X194.134 Y179.443 E.55636
G1 X194.054 Y180.05 E.03902
G1 X193.842 Y180.563 E.03537
G1 X193.504 Y181.004 E.03537
G1 X193.063 Y181.342 E.03537
G1 X192.55 Y181.554 E.03537
G1 X191.943 Y181.634 E.03902
G1 X158.057 Y181.634 E2.15886
G1 X157.45 Y181.554 E.03902
G1 X156.937 Y181.342 E.03537
G1 X156.496 Y181.004 E.03537
G1 X156.158 Y180.563 E.03537
G1 X155.946 Y180.05 E.03537
G1 X155.866 Y179.443 E.03902
G1 X155.866 Y170.557 E.56615
G1 X155.946 Y169.95 E.03902
G1 X156.158 Y169.437 E.03537
G1 X156.496 Y168.996 E.03537
G1 X156.937 Y168.658 E.03537
G1 X157.45 Y168.446 E.03537
G1 X158.057 Y168.366 E.03902
G1 X191.943 Y168.366 E2.15886
G1 X192.55 Y168.446 E.03902
G1 X193.063 Y168.658 E.03537
G1 X193.504 Y168.996 E.03537
G1 X193.842 Y169.437 E.03537
G1 X194.031 Y169.894 E.03155
G1 X194.596 Y169.804 F21000
;TYPE:Outer wall
G1 F3000
G1 X194.69 Y170.71 E.05803
G1 X194.69 Y179.48 E.55868
G1 X194.596 Y180.196 E.046
G1 X194.327 Y180.844 E.04469
G1 X193.9 Y181.4 E.04469
G1 X193.344 Y181.827 E.04469
G1 X192.696 Y182.096 E.04469
G1 X191.98 Y182.19 E.046
G1 X158.02 Y182.19 E2.1635
G1 X157.304 Y182.096 E.046
G1 X156.656 Y181.827 E.04469
G1 X156.1 Y181.4 E.04469
G1 X155.673 Y180.844 E.04469
G1 X155.404 Y180.196 E.04469
G1 X155.31 Y179.48 E.046
G1 X155.31 Y170.52 E.57079
G1 X155.404 Y169.804 E.046
G1 X155.673 Y169.156 E.04469
G1 X156.1 Y168.6 E.04469
G1 X156.656 Y168.173 E.04469
G1 X157.304 Y167.904 E.04469
G1 X158.02 Y167.81 E.046
G1 X191.98 Y167.81 E2.1635
G1 X192.696 Y167.904 E.046
G1 X193.344 Y168.173 E.04469
G1 X193.9 Y168.6 E.04469
G1 X194.327 Y169.156 E.04469
G1 X194.573 Y169.749 E.04087
G1 X193.883 Y169.972 F21000
;TYPE:Bottom surface
;WIDTH:0.627973
G1 F4258.392
G1 X193.197 Y169.286 E.06275
G1 X192.853 Y169.022 E.02798
G1 X192.442 Y168.852 E.02879
G1 X191.896 Y168.782 E.03552
G1 X193.718 Y170.604 E.16644
G1 X193.718 Y171.401 E.05151
G1 X191.099 Y168.782 E.23928
G1 X190.302 Y168.782 E.05151
G1 X193.718 Y172.198 E.31212
G1 X193.718 Y172.995 E.05151
G1 X189.505 Y168.782 E.38497
G1 X188.708 Y168.782 E.05151
G1 X193.718 Y173.792 E.45781
G1 X193.718 Y174.589 E.05151
G1 X187.911 Y168.782 E.53065
M73 P1 R12
G1 X187.114 Y168.782 E.05151
G1 X193.718 Y175.386 E.60349
G1 X193.718 Y176.183 E.05151
G1 X186.317 Y168.782 E.67633
G1 X185.52 Y168.782 E.05151
G1 X193.718 Y176.98 E.74917
G1 X193.718 Y177.777 E.05151
G1 X184.723 Y168.782 E.82202
G1 X183.926 Y168.782 E.05151
G1 X193.718 Y178.574 E.89486
G1 X193.718 Y179.371 E.05151
G1 X183.129 Y168.782 E.9677
G1 X182.332 Y168.782 E.05151
G1 X193.602 Y180.053 E1.03001
G1 X193.478 Y180.353 E.02102
G1 X193.316 Y180.564 E.01715
G1 X181.535 Y168.782 E1.07671
G1 X180.738 Y168.782 E.05151
G1 X192.899 Y180.943 E1.11138
G1 X192.853 Y180.978 E.0037
G1 X192.442 Y181.148 E.02879
G1 X192.323 Y181.164 E.00776
G1 X179.941 Y168.782 E1.13158
G1 X179.144 Y168.782 E.05151
G1 X191.579 Y181.218 E1.13647
G1 X190.782 Y181.218 E.05151
G1 X178.347 Y168.782 E1.13647
G1 X177.55 Y168.782 E.05151
G1 X189.985 Y181.218 E1.13647
G1 X189.188 Y181.218 E.05151
G1 X176.753 Y168.782 E1.13647
G1 X175.956 Y168.782 E.05151
G1 X188.391 Y181.218 E1.13647
G1 X187.594 Y181.218 E.05151
G1 X175.159 Y168.782 E1.13647
G1 X174.362 Y168.782 E.05151
G1 X186.797 Y181.218 E1.13647
G1 X186 Y181.218 E.05151
G1 X173.565 Y168.782 E1.13647
G1 X172.767 Y168.782 E.05151
G1 X185.203 Y181.218 E1.13647
M73 P2 R12
G1 X184.406 Y181.218 E.05151
G1 X171.97 Y168.782 E1.13647
G1 X171.173 Y168.782 E.05151
G1 X183.609 Y181.218 E1.13647
G1 X182.812 Y181.218 E.05151
G1 X170.376 Y168.782 E1.13647
G1 X169.579 Y168.782 E.05151
G1 X182.015 Y181.218 E1.13647
G1 X181.218 Y181.218 E.05151
G1 X168.782 Y168.782 E1.13647
M73 P2 R11
G1 X167.985 Y168.782 E.05151
G1 X180.421 Y181.218 E1.13647
G1 X179.624 Y181.218 E.05151
G1 X167.188 Y168.782 E1.13647
G1 X166.391 Y168.782 E.05151
G1 X178.827 Y181.218 E1.13647
G1 X178.029 Y181.218 E.05151
G1 X165.594 Y168.782 E1.13647
G1 X164.797 Y168.782 E.05151
G1 X177.232 Y181.218 E1.13647
G1 X176.435 Y181.218 E.05151
G1 X164 Y168.782 E1.13647
G1 X163.203 Y168.782 E.05151
G1 X175.638 Y181.218 E1.13647
G1 X174.841 Y181.218 E.05151
G1 X162.406 Y168.782 E1.13647
G1 X161.609 Y168.782 E.05151
G1 X174.044 Y181.218 E1.13647
G1 X173.247 Y181.218 E.05151
G1 X160.812 Y168.782 E1.13647
G1 X160.015 Y168.782 E.05151
G1 X172.45 Y181.218 E1.13647
G1 X171.653 Y181.218 E.05151
G1 X159.218 Y168.782 E1.13647
G1 X158.421 Y168.782 E.05151
G1 X170.856 Y181.218 E1.13647
M73 P3 R11
G1 X170.059 Y181.218 E.05151
G1 X157.677 Y168.836 E1.13158
G1 X157.558 Y168.852 E.00775
G1 X157.147 Y169.022 E.02879
G1 X157.101 Y169.057 E.0037
G1 X169.262 Y181.218 E1.11138
G1 X168.465 Y181.218 E.05151
G1 X156.684 Y169.436 E1.07671
G1 X156.522 Y169.647 E.01714
G1 X156.398 Y169.947 E.02102
G1 X167.668 Y181.218 E1.03
G1 X166.871 Y181.218 E.05151
G1 X156.282 Y170.629 E.96769
G1 X156.282 Y171.426 E.05151
G1 X166.074 Y181.218 E.89485
G1 X165.277 Y181.218 E.05151
G1 X156.282 Y172.223 E.82201
G1 X156.282 Y173.02 E.05151
G1 X164.48 Y181.218 E.74917
G1 X163.683 Y181.218 E.05151
G1 X156.282 Y173.817 E.67632
G1 X156.282 Y174.614 E.05151
G1 X162.886 Y181.218 E.60348
G1 X162.089 Y181.218 E.05151
G1 X156.282 Y175.411 E.53064
G1 X156.282 Y176.208 E.05151
G1 X161.292 Y181.218 E.4578
G1 X160.495 Y181.218 E.05151
G1 X156.282 Y177.005 E.38496
G1 X156.282 Y177.802 E.05151
G1 X159.698 Y181.218 E.31212
G1 X158.9 Y181.218 E.05151
G1 X156.282 Y178.6 E.23927
G1 X156.282 Y179.397 E.05151
G1 X158.103 Y181.218 E.16643
G1 X157.558 Y181.148 E.03551
G1 X157.147 Y180.978 E.02879
G1 X156.803 Y180.714 E.02801
G1 X156.117 Y180.028 E.06271
; stop printing object retraction_tower.stl id:0 copy 0
M106 S255
;LAYER_CHANGE
;Z:0.5
;HEIGHT:0.2
;BEFORE_LAYER_CHANGE
;0.5
G92 E0

;WIPE_START
G1 F4258.392
G1 X156.803 Y180.714
G1 X156.826 Y180.732
;WIPE_END
EXCLUDE_OBJECT_END NAME=retraction_tower.stl_id_0_copy_0
;AFTER_LAYER_CHANGE
;0.5
;_SET_FAN_SPEED_CHANGING_LAYER
; Calib_Retraction_tower: Z_HEIGHT: 0.5, length:0
SET_VELOCITY_LIMIT ACCEL=5000 ACCEL_TO_DECEL=2500
M104 S210 ; set nozzle temperature
M140 S45 ; set bed temperature
; printing object retraction_tower.stl id:0 copy 0
SET_VELOCITY_LIMIT ACCEL=7000 ACCEL_TO_DECEL=3500 SQUARE_CORNER_VELOCITY=12
EXCLUDE_OBJECT_START NAME=retraction_tower.stl_id_0_copy_0
G1 X194.034 Y169.955 Z.5 F21000
SET_VELOCITY_LIMIT ACCEL=5000 ACCEL_TO_DECEL=2500 SQUARE_CORNER_VELOCITY=7
;TYPE:Inner wall
;WIDTH:0.619999
G1 F6238.314
G1 X194.113 Y170.71 E.0335
G1 X194.113 Y179.442 E.38517
G1 X194.034 Y180.045 E.02683
G1 X193.823 Y180.553 E.02424
G1 X193.489 Y180.989 E.02424
G1 X193.053 Y181.323 E.02424
G1 X192.545 Y181.534 E.02424
G1 X191.942 Y181.613 E.02683
G1 X158.058 Y181.613 E1.4947
G1 X157.455 Y181.534 E.02683
G1 X156.947 Y181.323 E.02424
G1 X156.511 Y180.989 E.02424
G1 X156.177 Y180.553 E.02424
G1 X155.966 Y180.045 E.02424
G1 X155.887 Y179.442 E.02683
G1 X155.887 Y170.558 E.39188
G1 X155.966 Y169.955 E.02683
G1 X156.177 Y169.447 E.02424
G1 X156.511 Y169.011 E.02424
G1 X156.947 Y168.677 E.02424
G1 X157.455 Y168.466 E.02424
G1 X158.058 Y168.387 E.02683
G1 X191.942 Y168.387 E1.4947
G1 X192.545 Y168.466 E.02683
G1 X193.053 Y168.677 E.02424
G1 X193.489 Y169.011 E.02424
G1 X193.823 Y169.447 E.02424
G1 X194.011 Y169.9 E.0216
SET_VELOCITY_LIMIT ACCEL=7000 ACCEL_TO_DECEL=3500 SQUARE_CORNER_VELOCITY=12
G1 X194.596 Y169.804 F21000
SET_VELOCITY_LIMIT ACCEL=3000 ACCEL_TO_DECEL=1500 SQUARE_CORNER_VELOCITY=7
;TYPE:Outer wall
G1 F6238.314
G1 X194.69 Y170.71 E.04018
G1 X194.69 Y179.48 E.38684
G1 X194.596 Y180.196 E.03185
G1 X194.327 Y180.844 E.03095
G1 X193.9 Y181.4 E.03095
G1 X193.344 Y181.827 E.03095
G1 X192.696 Y182.096 E.03095
G1 X191.98 Y182.19 E.03185
G1 X158.02 Y182.19 E1.49804
G1 X157.304 Y182.096 E.03185
G1 X156.656 Y181.827 E.03095
G1 X156.1 Y181.4 E.03095
G1 X155.673 Y180.844 E.03095
G1 X155.404 Y180.196 E.03095
G1 X155.31 Y179.48 E.03185
G1 X155.31 Y170.52 E.39522
M73 P4 R11
G1 X155.404 Y169.804 E.03185
G1 X155.673 Y169.156 E.03095
G1 X156.1 Y168.6 E.03095
G1 X156.656 Y168.173 E.03095
G1 X157.304 Y167.904 E.03095
G1 X158.02 Y167.81 E.03185
G1 X191.98 Y167.81 E1.49804
G1 X192.696 Y167.904 E.03185
G1 X193.344 Y168.173 E.03095
G1 X193.9 Y168.6 E.03095
G1 X194.327 Y169.156 E.03095
G1 X194.573 Y169.749 E.0283
SET_VELOCITY_LIMIT ACCEL=7000 ACCEL_TO_DECEL=3500 SQUARE_CORNER_VELOCITY=12
G1 X191.597 Y181.44 F21000
SET_VELOCITY_LIMIT ACCEL=5000 ACCEL_TO_DECEL=2500
;TYPE:Internal solid infill
;WIDTH:0.624701
G1 F6187.895
G1 X193.68 Y179.357 E.13098
G1 X193.68 Y178.534 E.03659
G1 X191.034 Y181.18 E.1664
G1 X190.212 Y181.18 E.03659
G1 X193.68 Y177.712 E.21814
G1 X193.68 Y176.889 E.03659
G1 X189.389 Y181.18 E.26989
G1 X188.566 Y181.18 E.03659
G1 X193.68 Y176.066 E.32163
G1 X193.68 Y175.243 E.03659
G1 X187.743 Y181.18 E.37338
G1 X186.921 Y181.18 E.03659
G1 X193.68 Y174.421 E.42513
G1 X193.68 Y173.598 E.03659
G1 X186.098 Y181.18 E.47687
G1 X185.275 Y181.18 E.03659
G1 X193.68 Y172.775 E.52862
G1 X193.68 Y171.952 E.03659
G1 X184.452 Y181.18 E.58036
G1 X183.63 Y181.18 E.03659
G1 X193.68 Y171.13 E.63211
G1 X193.68 Y170.587 E.02415
G1 X193.648 Y170.339 E.01109
G1 X182.807 Y181.18 E.68181
G1 X181.984 Y181.18 E.03659
G1 X193.461 Y169.703 E.72181
G1 X193.18 Y169.32 E.02113
G1 X193.09 Y169.251 E.00503
G1 X181.161 Y181.18 E.75025
G1 X180.339 Y181.18 E.03659
G1 X192.572 Y168.946 E.76942
G1 X192.432 Y168.888 E.00676
G1 X191.876 Y168.82 E.02491
G1 X179.516 Y181.18 E.77737
G1 X178.693 Y181.18 E.03659
G1 X191.053 Y168.82 E.77737
G1 X190.23 Y168.82 E.03659
G1 X177.87 Y181.18 E.77737
G1 X177.047 Y181.18 E.03659
G1 X189.408 Y168.82 E.77737
G1 X188.585 Y168.82 E.03659
G1 X176.225 Y181.18 E.77737
G1 X175.402 Y181.18 E.03659
G1 X187.762 Y168.82 E.77737
G1 X186.939 Y168.82 E.03659
G1 X174.579 Y181.18 E.77737
G1 X173.756 Y181.18 E.03659
G1 X186.117 Y168.82 E.77737
G1 X185.294 Y168.82 E.03659
G1 X172.934 Y181.18 E.77737
G1 X172.111 Y181.18 E.03659
G1 X184.471 Y168.82 E.77737
G1 X183.648 Y168.82 E.03659
G1 X171.288 Y181.18 E.77737
G1 X170.465 Y181.18 E.03659
G1 X182.826 Y168.82 E.77737
G1 X182.003 Y168.82 E.03659
G1 X169.643 Y181.18 E.77737
G1 X168.82 Y181.18 E.03659
G1 X181.18 Y168.82 E.77737
G1 X180.357 Y168.82 E.03659
G1 X167.997 Y181.18 E.77737
G1 X167.174 Y181.18 E.03659
G1 X179.535 Y168.82 E.77737
G1 X178.712 Y168.82 E.03659
G1 X166.352 Y181.18 E.77737
G1 X165.529 Y181.18 E.03659
G1 X177.889 Y168.82 E.77737
G1 X177.066 Y168.82 E.03659
G1 X164.706 Y181.18 E.77737
G1 X163.883 Y181.18 E.03659
G1 X176.243 Y168.82 E.77737
G1 X175.421 Y168.82 E.03659
G1 X163.06 Y181.18 E.77737
G1 X162.238 Y181.18 E.03659
G1 X174.598 Y168.82 E.77737
G1 X173.775 Y168.82 E.03659
G1 X161.415 Y181.18 E.77737
M73 P5 R11
G1 X160.592 Y181.18 E.03659
G1 X172.952 Y168.82 E.77737
G1 X172.13 Y168.82 E.03659
G1 X159.769 Y181.18 E.77737
G1 X158.947 Y181.18 E.03659
G1 X171.307 Y168.82 E.77737
G1 X170.484 Y168.82 E.03659
G1 X158.124 Y181.18 E.77737
G1 X158.087 Y181.18 E.00166
G1 X157.568 Y181.112 E.02325
G1 X157.428 Y181.054 E.00676
G1 X169.661 Y168.82 E.76942
G1 X168.839 Y168.82 E.03659
G1 X156.91 Y180.749 E.75025
G1 X156.82 Y180.68 E.00503
G1 X156.539 Y180.297 E.02114
G1 X168.016 Y168.82 E.7218
G1 X167.193 Y168.82 E.03659
G1 X156.352 Y179.661 E.6818
G1 X156.32 Y179.413 E.01108
G1 X156.32 Y178.87 E.02416
G1 X166.37 Y168.82 E.6321
G1 X165.548 Y168.82 E.03659
G1 X156.32 Y178.048 E.58036
G1 X156.32 Y177.225 E.03659
G1 X164.725 Y168.82 E.52861
G1 X163.902 Y168.82 E.03659
G1 X156.32 Y176.402 E.47686
G1 X156.32 Y175.579 E.03659
G1 X163.079 Y168.82 E.42512
G1 X162.257 Y168.82 E.03659
G1 X156.32 Y174.757 E.37337
G1 X156.32 Y173.934 E.03659
G1 X161.434 Y168.82 E.32163
G1 X160.611 Y168.82 E.03659
G1 X156.32 Y173.111 E.26988
G1 X156.32 Y172.288 E.03659
G1 X159.788 Y168.82 E.21813
G1 X158.965 Y168.82 E.03659
G1 X156.32 Y171.465 E.16639
G1 X156.32 Y170.643 E.03659
G1 X158.402 Y168.56 E.13097
; stop printing object retraction_tower.stl id:0 copy 0
;LAYER_CHANGE
;Z:0.7
;HEIGHT:0.2
;BEFORE_LAYER_CHANGE
;0.7
G92 E0

;WIPE_START
G1 F6187.895
G1 X157.695 Y169.267
;WIPE_END
EXCLUDE_OBJECT_END NAME=retraction_tower.stl_id_0_copy_0
;AFTER_LAYER_CHANGE
;0.7
;_SET_FAN_SPEED_CHANGING_LAYER
; Calib_Retraction_tower: Z_HEIGHT: 0.7, length:0
; printing object retraction_tower.stl id:0 copy 0
SET_VELOCITY_LIMIT ACCEL=7000 ACCEL_TO_DECEL=3500
EXCLUDE_OBJECT_START NAME=retraction_tower.stl_id_0_copy_0
G1 X160.092 Y173.076 Z.7 F21000
G1 X161.081 Y173.999
G1 X161.224 Y174.343
G1 X161.204 Y174.351
SET_VELOCITY_LIMIT ACCEL=5000 ACCEL_TO_DECEL=2500 SQUARE_CORNER_VELOCITY=7
;TYPE:Inner wall
;WIDTH:0.619999
G1 F723
G1 X161.215 Y174.377 E.00126
G1 X161.345 Y174.972 E.02684
G1 X161.167 Y175.743 E.03489
G1 X160.891 Y176.257 E.02576
G1 X160.599 Y176.577 E.0191
G1 X160.106 Y176.898 E.02594
G1 X159.549 Y177.079 E.02584
G1 X159.117 Y177.106 E.0191
G1 X158.541 Y176.997 E.02586
G1 X158.012 Y176.741 E.02592
G1 X157.681 Y176.461 E.0191
G1 X157.405 Y176.101 E.02002
G1 X157.205 Y175.643 E.02205
G1 X157.115 Y175.212 E.01942
G1 X157.112 Y174.794 E.01843
G1 X157.187 Y174.408 E.01736
G1 X157.424 Y173.864 E.02619
G1 X157.67 Y173.55 E.01759
G1 X157.97 Y173.287 E.01759
G1 X158.315 Y173.086 E.01759
G1 X158.691 Y172.954 E.01759
G1 X159.085 Y172.894 E.01759
G1 X159.483 Y172.91 E.01757
G1 X159.872 Y173.001 E.0176
G1 X160.236 Y173.163 E.01759
G1 X160.563 Y173.391 E.01759
G1 X160.842 Y173.676 E.01759
G1 X161.062 Y174.009 E.01759
G1 X161.181 Y174.296 E.01368
SET_VELOCITY_LIMIT ACCEL=7000 ACCEL_TO_DECEL=3500 SQUARE_CORNER_VELOCITY=12
G1 X161.719 Y174.126 F21000
SET_VELOCITY_LIMIT ACCEL=3000 ACCEL_TO_DECEL=1500 SQUARE_CORNER_VELOCITY=7
;TYPE:Outer wall
G1 F723
G1 X161.82 Y174.452 E.01507
G1 X161.957 Y174.988 E.0244
G1 X161.902 Y175.127 E.00657
G1 X161.812 Y175.573 E.02006
G1 X161.642 Y176.115 E.02508
G1 X161.358 Y176.601 E.02483
G1 X160.983 Y177.011 E.02452
G1 X160.681 Y177.226 E.01636
G1 X160.188 Y177.498 E.02485
G1 X159.647 Y177.651 E.0248
G1 X159.092 Y177.686 E.02452
G1 X158.719 Y177.63 E.01663
G1 X158.18 Y177.486 E.02461
G1 X157.685 Y177.221 E.02477
G1 X157.261 Y176.861 E.02452
G1 X157.028 Y176.557 E.01691
G1 X156.741 Y176.085 E.02437
G1 X156.569 Y175.551 E.02474
G1 X156.513 Y174.996 E.02462
G1 X156.537 Y174.739 E.01139
G1 X156.633 Y174.246 E.02217
G1 X156.82 Y173.776 E.02228
G1 X157.093 Y173.351 E.02231
G1 X157.441 Y172.983 E.02231
G1 X157.852 Y172.688 E.02232
G1 X158.311 Y172.476 E.02232
G1 X158.802 Y172.353 E.02233
G1 X159.307 Y172.326 E.02231
