; HEADER_BLOCK_START
; generated by OrcaSlicer 1.8.0 on 2023-12-18 at 19:30:44
; total layer number: 250
; HEADER_BLOCK_END

; THUMBNAIL_BLOCK_START

;
; THUMBNAIL_BLOCK_END

; external perimeters extrusion width = 0.62mm
; perimeters extrusion width = 0.62mm
; infill extrusion width = 0.62mm
; solid infill extrusion width = 0.62mm
; top infill extrusion width = 0.62mm
; first layer extrusion width = 0.62mm

; EXECUTABLE_BLOCK_START
EXCLUDE_OBJECT_DEFINE NAME=temperature_tower.stl_id_0_copy_0 CENTER=175,175 POLYGON=[[152.756,170],[192.785,170],[192.995,170.006],[193.145,170.016],[193.154,170.016],[193.208,170.021],[193.251,170.025],[193.285,170.029],[193.336,170.035],[193.473,170.053],[193.503,170.057],[193.535,170.062],[193.627,170.078],[193.792,170.11],[193.857,170.124],[194.04,170.17],[194.133,170.195],[194.309,170.25],[194.361,170.267],[194.444,170.296],[194.511,170.321],[194.55,170.336],[194.663,170.381],[194.684,170.389],[194.752,170.418],[194.762,170.423],[194.785,170.433],[194.943,170.507],[194.987,170.529],[195.246,170.668],[195.375,170.745],[195.517,170.836],[195.746,170.998],[196.063,171.257],[196.334,171.516],[196.508,171.704],[196.566,171.772],[196.708,171.947],[196.76,172.017],[196.877,172.18],[196.916,172.238],[197.009,172.383],[197.036,172.427],[197.11,172.555],[197.125,172.582],[197.185,172.694],[197.19,172.704],[197.23,172.783],[197.244,172.811],[197.242,177.192],[197.237,177.204],[197.22,177.237],[197.197,177.282],[197.166,177.342],[197.124,177.42],[197.074,177.508],[197.021,177.597],[196.943,177.72],[196.895,177.794],[196.777,177.962],[196.744,178.006],[196.575,178.218],[196.565,178.231],[196.353,178.465],[196.334,178.484],[196.055,178.75],[195.877,178.9],[195.738,179.008],[195.382,179.25],[195.369,179.258],[195.135,179.394],[194.939,179.495],[194.891,179.518],[194.785,179.567],[194.762,179.577],[194.752,179.582],[194.684,179.611],[194.663,179.619],[194.55,179.664],[194.519,179.676],[194.458,179.699],[194.444,179.704],[194.361,179.733],[194.32,179.746],[194.273,179.762],[194.112,179.811],[194.04,179.83],[193.857,179.876],[193.792,179.89],[193.627,179.922],[193.535,179.938],[193.503,179.943],[193.473,179.947],[193.336,179.965],[193.285,179.971],[193.251,179.975],[193.208,179.979],[193.154,179.984],[193.145,179.984],[192.995,179.994],[192.785,180],[152.756,180],[152.756,170]]
M73 P0 R44
;TYPE:Custom
status_heating
M190 S60
M109 S230
PRINT_START
G90
G21
M83 ; use relative distances for extrusion
; filament start gcode
SET_PRESSURE_ADVANCE ADVANCE=0.02; Override pressure advance value
M106 S0
;LAYER_CHANGE
;Z:0.3
;HEIGHT:0.3
;BEFORE_LAYER_CHANGE
;0.3
G92 E0

G1 E-.8 F1800
;AFTER_LAYER_CHANGE
;0.3
;_SET_FAN_SPEED_CHANGING_LAYER
M104 S230 ; set nozzle temperature
SET_VELOCITY_LIMIT ACCEL=500 ACCEL_TO_DECEL=250
SET_VELOCITY_LIMIT SQUARE_CORNER_VELOCITY=9
; printing object temperature_tower.stl id:0 copy 0
EXCLUDE_OBJECT_START NAME=temperature_tower.stl_id_0_copy_0
G1 Z.4 F21000
G1 X159.337 Y167.41
G1 Z.4
G1 Z.3
G1 E.8 F1800
;TYPE:Brim
;WIDTH:0.62
G1 F3000
G1 X159.796 Y166.986 E.04241
G1 X160.313 Y166.635 E.04241
G1 X160.876 Y166.366 E.04241
G1 X161.469 Y166.186 E.04208
G1 X162.401 Y166.083 E.06365
G1 X192.901 Y166.084 E2.07139
G1 X193.627 Y166.127 E.04942
G1 X194.178 Y166.201 E.03772
G1 X194.922 Y166.39 E.05215
G1 X195.492 Y166.64 E.04229
G1 X196.021 Y166.972 E.04241
G1 X196.494 Y167.38 E.04241
G1 X196.9 Y167.855 E.04241
G1 X197.231 Y168.384 E.04241
G1 X197.479 Y168.957 E.04241
G1 X197.638 Y169.559 E.04225
G1 X197.71 Y170.335 E.05292
G1 X197.71 Y179.668 E.63387
G1 X197.662 Y180.301 E.04312
G1 X197.523 Y180.91 E.04241
G1 X197.294 Y181.491 E.04241
G1 X196.981 Y182.031 E.04241
G1 X196.591 Y182.519 E.04241
G1 X196.132 Y182.942 E.04241
G1 X195.615 Y183.293 E.04241
G1 X195.055 Y183.56 E.04212
G1 X194.177 Y183.799 E.06183
G1 X193.437 Y183.89 E.05063
G1 X192.778 Y183.917 E.04475
G1 X162.396 Y183.917 E2.06341
G1 X161.763 Y183.87 E.04312
G1 X161.154 Y183.73 E.04241
G1 X160.573 Y183.502 E.04241
G1 X160.032 Y183.189 E.04241
G1 X159.545 Y182.798 E.04241
G1 X159.121 Y182.339 E.04241
G1 X158.771 Y181.823 E.04241
G1 X158.502 Y181.259 E.04241
G1 X158.321 Y180.666 E.04208
G1 X158.218 Y179.735 E.06365
G1 X158.218 Y170.26 E.64345
G1 X158.266 Y169.627 E.04312
G1 X158.405 Y169.018 E.04241
G1 X158.634 Y168.437 E.04241
G1 X158.947 Y167.897 E.04241
G1 X159.3 Y167.456 E.03834
G1 X159.734 Y167.806 F21000
G1 F3000
G1 X159.754 Y167.781 E.00221
G1 X160.133 Y167.431 E.03504
G1 X160.58 Y167.126 E.03673
G1 X161.067 Y166.891 E.03673
G1 X161.597 Y166.731 E.03761
G1 X162.44 Y166.638 E.05763
G1 X192.88 Y166.64 E2.06725
G1 X193.568 Y166.68 E.0468
G1 X194.062 Y166.746 E.0339
G1 X194.728 Y166.914 E.04661
G1 X195.22 Y167.127 E.03643
G1 X195.679 Y167.414 E.03673
G1 X196.107 Y167.783 E.03842
G1 X196.458 Y168.195 E.03673
G1 X196.743 Y168.655 E.03673
G1 X196.948 Y169.128 E.03504
G1 X197.091 Y169.67 E.03803
G1 X197.154 Y170.368 E.0476
G1 X197.154 Y179.641 E.62977
G1 X197.108 Y180.23 E.04013
G1 X196.993 Y180.733 E.03504
G1 X196.797 Y181.237 E.03673
G1 X196.513 Y181.726 E.03842
G1 X196.191 Y182.129 E.03504
G1 X195.795 Y182.497 E.03673
G1 X195.348 Y182.802 E.03673
G1 X194.875 Y183.031 E.03569
G1 X194.058 Y183.254 E.05753
G1 X193.398 Y183.335 E.04512
G1 X192.764 Y183.362 E.04313
G1 X162.41 Y183.361 E2.06141
G1 X161.858 Y183.32 E.03759
G1 X161.331 Y183.201 E.03673
G1 X160.827 Y183.004 E.03673
G1 X160.358 Y182.735 E.03673
G1 X159.935 Y182.398 E.03673
G1 X159.566 Y182.002 E.03673
G1 X159.261 Y181.556 E.03673
G1 X159.027 Y181.069 E.03673
G1 X158.866 Y180.538 E.03761
G1 X158.774 Y179.695 E.05763
G1 X158.774 Y170.287 E.6389
G1 X158.816 Y169.723 E.03844
G1 X158.942 Y169.171 E.03842
G1 X159.142 Y168.669 E.03673
G1 X159.415 Y168.202 E.03673
G1 X159.696 Y167.853 E.03044
G1 X160.128 Y168.204 F21000
G1 F3000
G1 X160.17 Y168.153 E.00449
G1 X160.49 Y167.86 E.02949
G1 X160.848 Y167.615 E.02944
G1 X161.257 Y167.416 E.03092
G1 X161.724 Y167.276 E.03308
G1 X162.48 Y167.194 E.05164
G1 X192.859 Y167.196 E2.06314
G1 X193.508 Y167.233 E.0442
G1 X193.948 Y167.292 E.0301
G1 X194.536 Y167.439 E.04115
G1 X194.95 Y167.616 E.03059
G1 X195.337 Y167.855 E.03095
G1 X195.702 Y168.168 E.03261
G1 X196.014 Y168.534 E.03269
G1 X196.243 Y168.903 E.02944
G1 X196.416 Y169.299 E.02938
G1 X196.543 Y169.78 E.03381
G1 X196.599 Y170.401 E.04229
G1 X196.599 Y179.613 E.62565
G1 X196.559 Y180.134 E.03548
G1 X196.464 Y180.557 E.02947
G1 X196.299 Y180.983 E.03101
G1 X196.046 Y181.421 E.03438
G1 X195.774 Y181.758 E.0294
G1 X195.437 Y182.069 E.03113
G1 X195.08 Y182.313 E.02936
G1 X194.693 Y182.501 E.02921
G1 X193.938 Y182.709 E.05319
G1 X193.346 Y182.781 E.04053
G1 X192.749 Y182.806 E.04058
G1 X162.425 Y182.805 E2.0594
G1 X161.953 Y182.77 E.03215
G1 X161.506 Y182.671 E.0311
G1 X161.079 Y182.506 E.03105
G1 X160.682 Y182.28 E.03105
G1 X160.323 Y181.997 E.03105
G1 X160.01 Y181.664 E.03105
G1 X159.751 Y181.287 E.03105
G1 X159.551 Y180.878 E.03092
G1 X159.411 Y180.411 E.03308
G1 X159.329 Y179.655 E.05164
G1 X159.329 Y170.314 E.6344
G1 X159.366 Y169.819 E.03375
G1 X159.479 Y169.325 E.03437
G1 X159.649 Y168.902 E.03096
G1 X159.881 Y168.508 E.03105
G1 X160.09 Y168.251 E.02253
G1 X160.522 Y168.601 F21000
G1 F3000
G1 X160.568 Y168.545 E.00495
G1 X160.827 Y168.304 E.02404
G1 X161.118 Y168.104 E.02396
G1 X161.448 Y167.941 E.02502
G1 X161.85 Y167.821 E.02848
G1 X162.519 Y167.75 E.04568
G1 X192.838 Y167.751 E2.05908
G1 X193.45 Y167.786 E.04162
G1 X193.834 Y167.837 E.02633
G1 X194.345 Y167.964 E.03577
G1 X194.682 Y168.105 E.02477
G1 X194.998 Y168.299 E.02517
G1 X195.316 Y168.571 E.02847
G1 X195.571 Y168.873 E.02683
G1 X195.743 Y169.152 E.02225
G1 X195.885 Y169.47 E.02366
G1 X195.995 Y169.89 E.02951
G1 X196.043 Y170.433 E.03699
G1 X196.043 Y179.585 E.62157
G1 X196.009 Y180.039 E.03092
G1 X195.933 Y180.384 E.02395
G1 X195.801 Y180.73 E.02519
G1 X195.578 Y181.116 E.03024
G1 X195.358 Y181.386 E.02366
G1 X195.099 Y181.625 E.02395
G1 X194.81 Y181.824 E.02384
G1 X194.51 Y181.972 E.02271
G1 X193.818 Y182.163 E.04878
G1 X193.293 Y182.227 E.03588
G1 X192.734 Y182.25 E.03805
G1 X162.452 Y182.249 E2.05654
G1 X162.046 Y182.219 E.02765
G1 X161.679 Y182.14 E.02552
G1 X161.329 Y182.007 E.02537
G1 X161.004 Y181.824 E.02537
G1 X160.709 Y181.595 E.02537
G1 X160.453 Y181.323 E.02537
G1 X160.239 Y181.017 E.02537
G1 X160.076 Y180.687 E.02497
G1 X159.956 Y180.285 E.02848
G1 X159.885 Y179.617 E.04568
G1 X159.885 Y170.341 E.62996
G1 X159.916 Y169.914 E.02905
G1 X160.015 Y169.48 E.03026
G1 X160.155 Y169.138 E.0251
G1 X160.347 Y168.817 E.02537
G1 X160.484 Y168.648 E.01478
G1 X160.914 Y169.009 F21000
G1 F3000
G1 X161.009 Y168.897 E.01
G1 X161.176 Y168.748 E.01524
G1 X161.403 Y168.592 E.0187
G1 X161.721 Y168.44 E.02391
G1 X162.09 Y168.337 E.026
G1 X162.414 Y168.305 E.0221
G1 X192.771 Y168.305 E2.06167
G1 X193.385 Y168.338 E.0418
G1 X193.779 Y168.391 E.027
G1 X194.233 Y168.521 E.03206
G1 X194.523 Y168.661 E.02187
G1 X194.762 Y168.822 E.0196
G1 X195.074 Y169.146 E.03052
G1 X195.206 Y169.357 E.01688
G1 X195.32 Y169.594 E.01787
G1 X195.456 Y170.078 E.03414
G1 X195.484 Y170.284 E.01413
G1 X195.487 Y179.638 E.63522
G1 X195.399 Y180.184 E.0376
G1 X195.317 Y180.438 E.0181
G1 X195.13 Y180.781 E.02653
G1 X194.921 Y181.029 E.02206
G1 X194.731 Y181.19 E.01687
G1 X194.385 Y181.403 E.02763
G1 X194.053 Y181.538 E.02435
G1 X193.844 Y181.596 E.01474
G1 X193.372 Y181.663 E.03237
G1 X192.843 Y181.693 E.03599
G1 X162.426 Y181.695 E2.06572
G1 X161.879 Y181.607 E.0376
G1 X161.623 Y181.524 E.0183
G1 X161.384 Y181.404 E.01817
G1 X161.122 Y181.211 E.02209
G1 X160.821 Y180.876 E.03063
G1 X160.678 Y180.643 E.01853
G1 X160.575 Y180.414 E.01708
G1 X160.493 Y180.155 E.01839
G1 X160.453 Y179.904 E.0173
G1 X160.441 Y170.291 E.65285
G1 X160.528 Y169.744 E.03762
G1 X160.611 Y169.491 E.0181
G1 X160.798 Y169.147 E.02654
G1 X160.875 Y169.055 E.00817
G1 X161.308 Y169.396 F21000
G1 F3000
G1 X161.368 Y169.321 E.00652
G1 X161.553 Y169.157 E.01677
G1 X161.713 Y169.053 E.01295
G1 X161.96 Y168.941 E.01846
G1 X162.138 Y168.89 E.01258
G1 X162.405 Y168.861 E.01826
G1 X192.775 Y168.861 E2.06253
G1 X193.361 Y168.894 E.03982
G1 X193.713 Y168.943 E.02417
G1 X193.978 Y169.014 E.0186
G1 X194.291 Y169.166 E.02366
G1 X194.447 Y169.279 E.01306
G1 X194.604 Y169.443 E.01543
G1 X194.701 Y169.589 E.01193
G1 X194.826 Y169.848 E.0195
G1 X194.918 Y170.219 E.026
G1 X194.932 Y170.348 E.00876
G1 X194.932 Y179.651 E.63181
G1 X194.851 Y180.095 E.03064
G1 X194.792 Y180.256 E.01166
G1 X194.701 Y180.429 E.01328
G1 X194.56 Y180.607 E.01543
G1 X194.429 Y180.724 E.01193
G1 X194.19 Y180.883 E.0195
G1 X193.836 Y181.026 E.02594
G1 X193.706 Y181.058 E.00904
G1 X193.293 Y181.113 E.02835
G1 X192.81 Y181.138 E.03284
G1 X162.413 Y181.139 E2.06438
G1 X161.969 Y181.059 E.03064
G1 X161.808 Y181 E.01166
G1 X161.635 Y180.908 E.01327
G1 X161.456 Y180.768 E.01545
G1 X161.292 Y180.583 E.01677
G1 X161.189 Y180.423 E.01295
G1 X161.077 Y180.175 E.01846
G1 X161.025 Y179.995 E.0127
G1 X161.002 Y179.823 E.01183
G1 X160.996 Y170.277 E.64826
G1 X161.077 Y169.834 E.03063
G1 X161.136 Y169.672 E.01166
G1 X161.227 Y169.5 E.01327
G1 X161.271 Y169.443 E.00486
G1 X161.725 Y169.747 F21000
G1 F3000
G1 X161.93 Y169.565 E.01863
G1 X162.201 Y169.442 E.02014
G1 X162.396 Y169.416 E.01341
G1 X192.78 Y169.416 E2.06347
G1 X193.276 Y169.443 E.03378
G1 X193.646 Y169.495 E.02535
G1 X193.83 Y169.549 E.01301
G1 X193.953 Y169.608 E.00928
G1 X194.133 Y169.738 E.01507
G1 X194.245 Y169.906 E.01373
G1 X194.322 Y170.082 E.01305
G1 X194.376 Y170.339 E.01784
G1 X194.376 Y179.666 E.63341
G1 X194.307 Y179.986 E.02223
G1 X194.203 Y180.182 E.01507
G1 X194.052 Y180.316 E.01373
G1 X193.888 Y180.417 E.01305
G1 X193.642 Y180.506 E.0178
G1 X193.212 Y180.563 E.02941
G1 X192.78 Y180.584 E.02938
G1 X162.398 Y180.584 E2.06339
G1 X162.078 Y180.514 E.02223
G1 X161.882 Y180.41 E.01507
G1 X161.7 Y180.205 E.01863
G1 X161.578 Y179.935 E.02014
G1 X161.552 Y179.739 E.01341
G1 X161.552 Y170.262 E.6436
G1 X161.621 Y169.943 E.02223
G1 X161.697 Y169.8 E.01099
G1 X162.156 Y170.093 F21000
G1 F3000
G1 X162.286 Y169.991 E.01119
G1 X162.385 Y169.972 E.00687
G1 X192.784 Y169.972 E2.06451
G1 X193.192 Y169.992 E.02774
G1 X193.581 Y170.047 E.02669
G1 X193.73 Y170.117 E.01119
G1 X193.821 Y170.322 E.0152
G1 X193.82 Y179.678 E.63544
G1 X193.772 Y179.836 E.01119
G1 X193.581 Y179.953 E.0152
G1 X193.192 Y180.008 E.02668
G1 X192.784 Y180.028 E.02774
G1 X162.385 Y180.028 E2.06451
G1 X162.228 Y179.979 E.01119
G1 X162.126 Y179.85 E.01119
G1 X162.107 Y179.75 E.00687
G1 X162.107 Y170.25 E.6452
G1 X162.139 Y170.15 E.00712
G1 E-.56 F1800
;WIPE_START
G1 F3000
G1 X162.286 Y169.991 E-.05206
G1 X162.385 Y169.972 E-.02429
G1 X163.067 Y169.972 E-.16365
;WIPE_END
G1 Z.7 F21000
G1 X192.122 Y171.674 Z.7
G1 Z.3
G1 E.8 F1800
;TYPE:Inner wall
;WIDTH:0.62
G1 F3000
G1 X192.121 Y178.329 E.45194
G1 X163.807 Y178.329 E1.92297
G1 X163.807 Y171.671 E.45214
G1 X192.062 Y171.674 E1.91891
G1 X192.677 Y171.119 F21000
G1 F3000
G1 X192.677 Y178.884 E.5274
G1 X163.251 Y178.884 E1.99844
G1 X163.251 Y171.116 E.52762
G1 X192.617 Y171.119 E1.99437
G1 X193.233 Y170.6 F21000
;TYPE:Outer wall
G1 F3000
G1 X193.233 Y170.929 E.02238
G1 X193.233 Y179.397 E.57509
G1 X192.771 Y179.44 E.03152
G1 X162.695 Y179.44 E2.04253
G1 X162.695 Y170.56 E.60309
G1 X192.867 Y170.563 E2.04906
G1 X193.173 Y170.594 E.02091
G1 E-.56 F1800
;WIPE_START
G1 F3000
G1 X193.233 Y170.929 E-.08177
G1 X193.233 Y171.589 E-.15823
;WIPE_END
G1 Z.7 F21000
G1 X190.81 Y171.841 Z.7
G1 Z.3
G1 E.8 F1800
;TYPE:Bottom surface
;WIDTH:0.630295
G1 F4240.927
G1 X191.705 Y172.736 E.08756
G1 X191.705 Y173.536 E.05536
G1 X190.259 Y172.091 E.1414
G1 X189.459 Y172.091 E.05537
G1 X191.705 Y174.337 E.2197
G1 X191.705 Y175.137 E.05536
G1 X188.659 Y172.091 E.29799
G1 X187.858 Y172.091 E.05537
G1 X191.705 Y175.937 E.37629
G1 X191.705 Y176.738 E.05536
G1 X187.058 Y172.09 E.45459
G1 X186.257 Y172.09 E.05537
G1 X191.705 Y177.538 E.53289
G1 X191.705 Y177.912 E.02589
G1 X191.279 Y177.912 E.02947
G1 X185.457 Y172.09 E.56952
M73 P1 R44
G1 X184.656 Y172.09 E.05537
G1 X190.478 Y177.912 E.56953
G1 X189.678 Y177.912 E.05536
G1 X183.856 Y172.09 E.56953
G1 X183.056 Y172.09 E.05537
G1 X188.878 Y177.912 E.56954
G1 X188.077 Y177.912 E.05536
G1 X182.255 Y172.09 E.56955
G1 X181.455 Y172.09 E.05537
G1 X187.277 Y177.912 E.56956
G1 X186.477 Y177.912 E.05536
G1 X180.654 Y172.09 E.56957
G1 X179.854 Y172.09 E.05537
G1 X185.676 Y177.912 E.56958
G1 X184.876 Y177.912 E.05536
G1 X179.054 Y172.09 E.56959
G1 X178.253 Y172.09 E.05537
G1 X184.076 Y177.912 E.56959
G1 X183.275 Y177.912 E.05536
G1 X177.453 Y172.089 E.5696
G1 X176.652 Y172.089 E.05537
G1 X182.475 Y177.912 E.56961
G1 X181.675 Y177.912 E.05536
G1 X175.852 Y172.089 E.56962
G1 X175.052 Y172.089 E.05537
G1 X180.875 Y177.912 E.56963
G1 X180.074 Y177.912 E.05536
G1 X174.251 Y172.089 E.56964
G1 X173.451 Y172.089 E.05537
G1 X179.274 Y177.912 E.56964
G1 X178.474 Y177.912 E.05536
G1 X172.65 Y172.089 E.56965
G1 X171.85 Y172.089 E.05537
G1 X177.673 Y177.912 E.56966
G1 X176.873 Y177.912 E.05536
G1 X171.05 Y172.089 E.56967
G1 X170.249 Y172.089 E.05537
G1 X176.073 Y177.912 E.56968
G1 X175.272 Y177.912 E.05536
G1 X169.449 Y172.089 E.56969
G1 X168.648 Y172.089 E.05537
G1 X174.472 Y177.912 E.5697
G1 X173.672 Y177.912 E.05536
G1 X167.848 Y172.088 E.5697
G1 X167.047 Y172.088 E.05537
G1 X172.871 Y177.912 E.56971
G1 X172.071 Y177.912 E.05536
G1 X166.247 Y172.088 E.56972
G1 X165.447 Y172.088 E.05537
G1 X171.271 Y177.912 E.56973
G1 X170.47 Y177.912 E.05536
G1 X164.646 Y172.088 E.56974
G1 X164.223 Y172.088 E.02926
G1 X164.223 Y172.465 E.0261
G1 X169.67 Y177.912 E.53283
G1 X168.87 Y177.912 E.05536
G1 X164.223 Y173.266 E.45454
G1 X164.223 Y174.066 E.05536
G1 X168.069 Y177.912 E.37624
G1 X167.269 Y177.912 E.05536
G1 X164.223 Y174.866 E.29795
G1 X164.223 Y175.667 E.05536
G1 X166.469 Y177.912 E.21966
G1 X165.668 Y177.912 E.05536
G1 X164.223 Y176.467 E.14137
G1 X164.223 Y177.267 E.05536
G1 X165.118 Y178.162 E.08754
; stop printing object temperature_tower.stl id:0 copy 0
M106 S255
;LAYER_CHANGE
;Z:0.66
;HEIGHT:0.36
;BEFORE_LAYER_CHANGE
;0.66
G92 E0

G1 E-.56 F1800
;WIPE_START
