; HEADER_BLOCK_START
; generated by OrcaSlicer 1.8.1 on 2023-12-19 at 00:45:03
; total layer number: 100
; HEADER_BLOCK_END

; THUMBNAIL_BLOCK_START

;
; THUMBNAIL_BLOCK_END

; external perimeters extrusion width = 0.62mm
; perimeters extrusion width = 0.62mm
; infill extrusion width = 0.62mm
; solid infill extrusion width = 0.62mm
; top infill extrusion width = 0.62mm
; first layer extrusion width = 0.62mm

; EXECUTABLE_BLOCK_START
EXCLUDE_OBJECT_DEFINE NAME=Voron_Design_Cube_v7.stl_id_0_copy_0 CENTER=175,175 POLYGON=[[160,160],[190,160],[190,190],[160,190],[160,160]]
M73 P0 R25
;TYPE:Custom
status_heating
M190 S50
M109 S205
PRINT_START
G90
G21
M83 ; use relative distances for extrusion
; filament start gcode
SET_PRESSURE_ADVANCE ADVANCE=0.015; Override pressure advance value
M106 S0
;LAYER_CHANGE
;Z:0.3
;HEIGHT:0.3
;BEFORE_LAYER_CHANGE
;0.3
G92 E0

G1 E-.2 F1800
;AFTER_LAYER_CHANGE
;0.3
;_SET_FAN_SPEED_CHANGING_LAYER
SET_VELOCITY_LIMIT ACCEL=500 ACCEL_TO_DECEL=250
SET_VELOCITY_LIMIT SQUARE_CORNER_VELOCITY=9
; printing object Voron_Design_Cube_v7.stl id:0 copy 0
EXCLUDE_OBJECT_START NAME=Voron_Design_Cube_v7.stl_id_0_copy_0
G1 Z.4 F21000
G1 X188.529 Y166.412
G1 Z.4
G1 Z.3
G1 E.2 F1800
;TYPE:Inner wall
;WIDTH:0.62
G1 F3000
G1 X188.529 Y167.698 E.08196
G1 X188.529 Y183.588 E1.01233
G1 X183.588 Y188.529 E.44512
G1 X166.412 Y188.529 E1.09429
G1 X161.471 Y183.588 E.44512
G1 X161.471 Y166.412 E1.09429
G1 X166.412 Y161.471 E.44513
G1 X183.588 Y161.471 E1.09429
G1 X188.486 Y166.369 E.4413
G1 X189.084 Y166.182 F21000
G1 F3000
G1 X189.084 Y167.698 E.09662
G1 X189.084 Y183.818 E1.02699
G1 X183.818 Y189.084 E.47445
G1 X166.182 Y189.084 E1.12361
G1 X160.916 Y183.818 E.47445
G1 X160.916 Y166.182 E1.12361
G1 X166.182 Y160.916 E.47445
G1 X183.818 Y160.916 E1.12361
G1 X189.042 Y166.139 E.47063
G1 X189.64 Y165.951 F21000
;TYPE:Outer wall
G1 F3000
G1 X189.64 Y167.698 E.11128
G1 X189.64 Y184.049 E1.04165
G1 X184.049 Y189.64 E.50377
G1 X165.951 Y189.64 E1.15294
G1 X160.36 Y184.049 E.50377
G1 X160.36 Y165.951 E1.15294
G1 X165.951 Y160.36 E.50377
G1 X184.049 Y160.36 E1.15294
G1 X189.598 Y165.909 E.49995
G1 E-.14 F1800
;WIPE_START
G1 F3000
G1 X189.621 Y166.909 E-.06
;WIPE_END
G1 Z.7 F21000
G1 X189.116 Y167.555 Z.7
G1 X182.933 Y179.322
G1 X182.698 Y179.727
G1 X182.443 Y180.119
G1 X182.168 Y180.498
G1 X181.874 Y180.862
G1 X181.561 Y181.21
G1 X181.23 Y181.541
G1 X180.883 Y181.855
G1 X180.52 Y182.151
G1 X180.142 Y182.427
G1 X179.751 Y182.684
G1 X179.346 Y182.919
G1 X178.933 Y183.133
G1 X178.623 Y183.274
G1 X178.496 Y183.33
G1 X178.068 Y183.497
G1 X177.624 Y183.644
G1 X177.172 Y183.769
G1 X176.715 Y183.869
G1 X176.254 Y183.946
G1 X175.789 Y183.999
G1 X175.826 Y184.564
G1 Z.3
G1 E.2 F1800
;TYPE:Inner wall
G1 F3000
G1 X175.449 Y184.607 E.02414
G1 X174.418 Y184.602 E.06574
G1 X173.427 Y184.49 E.06349
G1 X172.454 Y184.277 E.06349
G1 X171.506 Y183.963 E.06362
G1 X170.599 Y183.554 E.06336
G1 X169.738 Y183.053 E.06348
G1 X168.933 Y182.466 E.06349
G1 X168.193 Y181.798 E.06349
G1 X167.527 Y181.057 E.06349
G1 X166.862 Y180.131 E.07264
G1 X166.44 Y179.39 E.05433
G1 X166.032 Y178.481 E.06349
G1 X165.72 Y177.534 E.06349
G1 X165.445 Y176.102 E.09292
G1 X165.38 Y175.072 E.06574
G1 X165.425 Y174.076 E.06348
G1 X165.572 Y173.091 E.06349
G1 X165.82 Y172.126 E.06349
G1 X166.241 Y171.028 E.07492
G1 X166.845 Y169.901 E.08148
G1 X167.437 Y169.055 E.06574
G1 X168.093 Y168.305 E.06349
G1 X168.822 Y167.626 E.06349
G1 X169.551 Y167.077 E.05813
G1 X170.472 Y166.513 E.06882
G1 X171.375 Y166.089 E.06353
G1 X172.316 Y165.762 E.06345
G1 X173.286 Y165.534 E.06348
G1 X174.274 Y165.408 E.06349
G1 X175.733 Y165.41 E.09292
G1 X176.756 Y165.542 E.06573
G1 X177.725 Y165.774 E.06349
G1 X178.666 Y166.106 E.06356
G1 X179.565 Y166.533 E.06342
G1 X180.417 Y167.05 E.06349
G1 X181.21 Y167.653 E.06348
G1 X182.059 Y168.468 E.07492
G1 X182.863 Y169.462 E.08147
G1 X183.413 Y170.335 E.06573
G1 X183.851 Y171.232 E.06359
G1 X184.193 Y172.166 E.06339
G1 X184.436 Y173.132 E.06348
G1 X184.579 Y174.119 E.06348
G1 X184.619 Y175.109 E.06314
G1 X184.59 Y175.764 E.04181
G1 X184.463 Y176.726 E.06181
G1 X184.234 Y177.696 E.06348
G1 X183.905 Y178.637 E.06349
G1 X183.481 Y179.539 E.06348
G1 X182.966 Y180.392 E.06349
G1 X182.366 Y181.187 E.06349
G1 X181.343 Y182.23 E.09305
G1 X180.535 Y182.868 E.0656
G1 X179.691 Y183.398 E.06349
G1 X178.794 Y183.84 E.06371
G1 X177.863 Y184.184 E.06327
G1 X176.72 Y184.463 E.07491
G1 X175.886 Y184.558 E.05351
G1 X175.763 Y184.012 F21000
G1 F3000
G1 X175.387 Y184.055 E.02414
G1 X174.427 Y184.047 E.06116
G1 X173.494 Y183.939 E.05982
G1 X172.577 Y183.735 E.05982
G1 X171.685 Y183.437 E.05995
G1 X170.831 Y183.049 E.0597
G1 X170.021 Y182.575 E.05982
G1 X169.264 Y182.019 E.05982
G1 X168.569 Y181.388 E.05982
G1 X167.942 Y180.689 E.05982
G1 X167.345 Y179.855 E.06532
G1 X166.923 Y179.114 E.05433
G1 X166.54 Y178.257 E.05983
G1 X166.249 Y177.364 E.05982
G1 X165.991 Y175.995 E.08875
G1 X165.935 Y175.043 E.06076
G1 X165.979 Y174.105 E.05982
G1 X166.12 Y173.177 E.05983
G1 X166.357 Y172.268 E.05982
G1 X166.73 Y171.29 E.06669
G1 X167.335 Y170.163 E.08148
G1 X167.889 Y169.379 E.06116
G1 X168.508 Y168.673 E.05982
G1 X169.198 Y168.036 E.05982
G1 X169.882 Y167.523 E.05447
G1 X170.755 Y166.991 E.06515
G1 X171.607 Y166.594 E.05987
G1 X172.494 Y166.289 E.05978
G1 X173.409 Y166.076 E.05982
G1 X174.341 Y165.959 E.05982
G1 X175.727 Y165.966 E.08834
G1 X176.679 Y166.092 E.06116
G1 X177.591 Y166.314 E.05982
G1 X178.477 Y166.629 E.05989
G1 X179.323 Y167.033 E.05976
G1 X180.124 Y167.523 E.05982
G1 X180.87 Y168.093 E.05982
G1 X181.627 Y168.817 E.06669
G1 X182.431 Y169.811 E.08147
G1 X182.939 Y170.626 E.06116
G1 X183.35 Y171.472 E.05992
G1 X183.669 Y172.353 E.05973
G1 X183.897 Y173.264 E.05982
G1 X184.028 Y174.194 E.05982
G1 X184.063 Y175.127 E.05948
G1 X184.035 Y175.736 E.03885
G1 X183.913 Y176.651 E.05881
G1 X183.694 Y177.564 E.05982
G1 X183.382 Y178.45 E.05982
G1 X182.98 Y179.299 E.05982
G1 X182.493 Y180.101 E.05982
G1 X181.925 Y180.849 E.05982
G1 X180.95 Y181.837 E.08842
G1 X180.195 Y182.428 E.06108
G1 X179.399 Y182.926 E.05982
G1 X178.553 Y183.339 E.06003
G1 X177.674 Y183.661 E.05962
G1 X176.657 Y183.911 E.06668
G1 X175.823 Y184.006 E.05351
G1 X175.7 Y183.46 F21000
;TYPE:Outer wall
G1 F3000
G1 X175.324 Y183.503 E.02414
G1 X174.436 Y183.491 E.05659
G1 X173.56 Y183.387 E.05616
G1 X172.7 Y183.193 E.05616
G1 X171.863 Y182.911 E.05628
G1 X171.063 Y182.545 E.05604
G1 X170.304 Y182.097 E.05616
G1 X169.595 Y181.573 E.05616
G1 X168.944 Y180.979 E.05616
G1 X168.358 Y180.32 E.05616
G1 X168.013 Y179.841 E.03763
G1 X167.405 Y178.839 E.07462
G1 X167.049 Y178.033 E.05616
G1 X166.778 Y177.194 E.05616
G1 X166.538 Y175.899 E.0839
G1 X166.49 Y175.014 E.05646
G1 X166.534 Y174.134 E.05616
G1 X166.669 Y173.263 E.05616
G1 X166.894 Y172.41 E.05616
G1 X167.22 Y171.553 E.05845
G1 X167.825 Y170.426 E.08148
G1 X168.34 Y169.702 E.05659
G1 X168.924 Y169.042 E.05616
G1 X169.573 Y168.445 E.05616
G1 X170.213 Y167.969 E.05081
G1 X171.038 Y167.469 E.06149
G1 X171.839 Y167.099 E.0562
G1 X172.673 Y166.815 E.05612
G1 X173.532 Y166.618 E.05616
G1 X174.407 Y166.511 E.05616
G1 X175.722 Y166.521 E.08376
G1 X176.602 Y166.642 E.05659
G1 X177.458 Y166.853 E.05616
G1 X178.288 Y167.151 E.05623
G1 X179.082 Y167.533 E.05609
G1 X179.832 Y167.996 E.05616
G1 X180.531 Y168.533 E.05616
G1 X181.195 Y169.166 E.05845
G1 X181.999 Y170.161 E.08147
G1 X182.466 Y170.916 E.05659
G1 X182.849 Y171.712 E.05625
G1 X183.146 Y172.54 E.05607
G1 X183.357 Y173.396 E.05616
G1 X183.478 Y174.269 E.05616
G1 X183.508 Y175.145 E.05582
G1 X183.48 Y175.708 E.03588
G1 X183.362 Y176.576 E.05581
G1 X183.154 Y177.432 E.05616
G1 X182.859 Y178.263 E.05616
G1 X182.479 Y179.058 E.05616
G1 X182.019 Y179.81 E.05616
G1 X181.484 Y180.511 E.05616
G1 X180.557 Y181.444 E.08379
G1 X179.856 Y181.988 E.05656
G1 X179.107 Y182.453 E.05616
G1 X178.311 Y182.839 E.05636
G1 X177.485 Y183.139 E.05596
G1 X176.595 Y183.359 E.05844
G1 X175.76 Y183.453 E.05351
G1 E-.14 F1800
;WIPE_START
G1 F3000
G1 X175.324 Y183.503 E-.02634
G1 X174.763 Y183.495 E-.03366
;WIPE_END
G1 Z.7 F21000
G1 X174.74 Y184.028 Z.7
G1 X174.853 Y184.033
G1 X175.321 Y184.028
G1 X175.789 Y183.999
G1 X176.254 Y183.946
G1 X176.715 Y183.869
G1 X177.172 Y183.769
G1 X177.624 Y183.644
G1 X178.068 Y183.497
G1 X178.496 Y183.33
G1 X178.623 Y183.274
G1 X178.933 Y183.133
G1 X179.346 Y182.919
G1 X179.751 Y182.684
G1 X180.142 Y182.427
G1 X180.52 Y182.151
G1 X180.883 Y181.855
G1 X181.23 Y181.541
G1 X181.561 Y181.21
G1 X181.874 Y180.862
G1 X182.168 Y180.498
G1 X182.443 Y180.119
G1 X182.698 Y179.727
G1 X182.933 Y179.322
G1 X183.146 Y178.905
G1 X183.337 Y178.478
G1 X183.506 Y178.041
G1 X183.652 Y177.597
G1 X183.775 Y177.145
G1 X183.875 Y176.688
G1 X183.95 Y176.226
G1 X184.001 Y175.76
G1 X184.028 Y175.306
G1 X184.032 Y175.162
G1 X184.029 Y174.707
G1 X184.001 Y174.24
G1 X183.95 Y173.774
G1 X183.875 Y173.312
G1 X183.775 Y172.855
G1 X183.694 Y172.557
G1 X189.116 Y166.84
G1 X188.362 Y166.84
G1 Z.3
G1 E.2 F1800
;TYPE:Bottom surface
;WIDTH:0.628024
G1 F4258.015
G1 X183.41 Y161.888 E.45262
G1 X182.613 Y161.888 E.05152
G1 X188.112 Y167.387 E.50262
G1 X188.112 Y168.184 E.05152
G1 X181.816 Y161.888 E.57548
G1 X181.019 Y161.888 E.05152
G1 X188.112 Y168.981 E.64833
M73 P1 R25
G1 X188.112 Y169.779 E.05152
G1 X180.221 Y161.888 E.72119
G1 X179.424 Y161.888 E.05152
G1 X188.112 Y170.576 E.79404
G1 X188.112 Y171.373 E.05152
G1 X178.627 Y161.888 E.8669
G1 X177.83 Y161.888 E.05152
G1 X188.112 Y172.17 E.93975
G1 X188.112 Y172.967 E.05152
G1 X177.033 Y161.888 E1.01261
G1 X176.236 Y161.888 E.05152
G1 X188.112 Y173.764 E1.08546
G1 X188.112 Y174.561 E.05152
G1 X183.879 Y170.329 E.38685
G1 X183.247 Y169.277 E.0793
G1 X182.38 Y168.202 E.08926
G1 X182.227 Y168.036 E.01458
G1 X181.47 Y167.328 E.06702
G1 X180.735 Y166.762 E.05993
G1 X179.674 Y166.123 E.08004
G1 X175.439 Y161.888 E.38709
G1 X174.642 Y161.888 E.05152
G1 X178.276 Y165.522 E.33219
G1 X177.998 Y165.422 E.0191
G1 X177.164 Y165.208 E.05564
G1 X173.845 Y161.888 E.30341
G1 X173.047 Y161.888 E.05152
G1 X176.206 Y165.046 E.28865
G1 X175.962 Y165.01 E.01592
G1 X175.361 Y164.998 E.03887
G1 X172.25 Y161.888 E.28428
G1 X171.453 Y161.888 E.05152
G1 X174.548 Y164.983 E.28287
G1 X174.229 Y164.993 E.02066
G1 X173.813 Y165.045 E.02708
G1 X170.656 Y161.888 E.28851
G1 X169.859 Y161.888 E.05152
G1 X173.119 Y165.148 E.29796
G1 X172.473 Y165.299 E.04288
G1 X169.062 Y161.888 E.31176
G1 X168.265 Y161.888 E.05152
G1 X171.858 Y165.481 E.32838
G1 X171.267 Y165.687 E.04045
G1 X167.468 Y161.888 E.34724
G1 X166.671 Y161.888 E.05152
G1 X170.72 Y165.937 E.37008
G1 X170.185 Y166.199 E.0385
G1 X166.229 Y162.243 E.36155
G1 X165.83 Y162.642 E.03643
G1 X169.688 Y166.499 E.35255
G1 X169.375 Y166.688 E.02362
G1 X169.207 Y166.815 E.01363
G1 X165.432 Y163.041 E.345
G1 X165.033 Y163.439 E.03643
G1 X168.752 Y167.158 E.33992
G1 X168.545 Y167.314 E.01675
G1 X168.319 Y167.522 E.01985
G1 X164.635 Y163.838 E.33677
G1 X164.236 Y164.236 E.03643
G1 X167.904 Y167.904 E.33524
G1 X167.523 Y168.321 E.03646
G1 X163.838 Y164.635 E.33688
G1 X163.439 Y165.033 E.03643
G1 X167.154 Y168.748 E.33956
G1 X166.818 Y169.209 E.03687
G1 X163.04 Y165.432 E.34524
G1 X162.642 Y165.83 E.03643
G1 X166.492 Y169.681 E.3519
G1 X166.213 Y170.198 E.03802
G1 X162.243 Y166.229 E.3628
G1 X161.888 Y166.584 E.03248
G1 X161.888 Y166.671 E.00558
G1 X165.934 Y170.717 E.36984
G1 X165.778 Y171.04 E.02317
G1 X165.692 Y171.272 E.016
G1 X161.888 Y167.468 E.3477
M73 P1 R24
G1 X161.888 Y168.265 E.05152
G1 X165.477 Y171.854 E.32804
G1 X165.418 Y172.013 E.01096
G1 X165.3 Y172.474 E.03078
G1 X161.888 Y169.062 E.31188
G1 X161.888 Y169.859 E.05152
G1 X165.146 Y173.117 E.29775
G1 X165.038 Y173.806 E.04508
G1 X161.888 Y170.656 E.28788
G1 X161.888 Y171.453 E.05152
G1 X164.987 Y174.553 E.28329
G1 X164.962 Y174.999 E.0289
G1 X164.979 Y175.341 E.02211
G1 X161.888 Y172.25 E.28248
G1 X161.888 Y173.048 E.05152
G1 X165.04 Y176.199 E.28807
G1 X165.219 Y177.175 E.06413
G1 X161.888 Y173.845 E.30442
G1 X161.888 Y174.642 E.05152
G1 X165.949 Y178.703 E.37121
G1 E-.14 F1800
;WIPE_START
G1 F4258.015
G1 X165.242 Y177.996 E-.06
;WIPE_END
G1 Z.7 F21000
G1 X166.159 Y173.141 Z.7
G1 X166.268 Y172.685
G1 X166.399 Y172.236
G1 X166.554 Y171.794
G1 X166.731 Y171.361
G1 X166.931 Y170.938
G1 X167.152 Y170.525
G1 X167.394 Y170.125
G1 X167.657 Y169.738
G1 X167.939 Y169.364
G1 X168.241 Y169.006
G1 X168.56 Y168.664
G1 X168.897 Y168.339
G1 X169.25 Y168.032
G1 X169.619 Y167.743
G1 X170.002 Y167.474
G1 X170.399 Y167.226
G1 X170.807 Y166.998
G1 X171.223 Y166.794
G1 X171.349 Y166.739
G1 X171.659 Y166.607
G1 X172.097 Y166.445
G1 X172.544 Y166.306
G1 X172.998 Y166.191
G1 X173.457 Y166.099
G1 X173.92 Y166.031
G1 X174.386 Y165.987
G1 X174.853 Y165.967
G1 X175.321 Y165.972
G1 X175.789 Y166.001
G1 X176.254 Y166.054
G1 X176.715 Y166.131
G1 X177.172 Y166.231
G1 X177.624 Y166.356
G1 X178.06 Y166.501
G1 X178.19 Y166.549
G1 X178.506 Y166.675
G1 X178.93 Y166.866
G1 X179.346 Y167.081
G1 X179.751 Y167.316
G1 X180.142 Y167.573
G1 X180.52 Y167.849
G1 X180.883 Y168.145
G1 X181.23 Y168.459
G1 X181.561 Y168.79
G1 X181.874 Y169.138
G1 X182.168 Y169.502
G1 X182.443 Y169.881
G1 X182.698 Y170.273
G1 X182.933 Y170.678
G1 X183.141 Y171.085
G1 X183.2 Y171.211
G1 X183.339 Y171.526
G1 X183.36 Y171.581
G1 X184.063 Y171.309
G1 Z.3
G1 E.2 F1800
G1 F4258.015
G1 X188.112 Y175.358 E.37011
G1 X188.112 Y176.155 E.05152
G1 X184.785 Y172.829 E.30405
G1 X184.875 Y173.211 E.02539
G1 X184.949 Y173.79 E.03771
G1 X188.112 Y176.953 E.28905
G1 X188.112 Y177.75 E.05152
G1 X185.02 Y174.658 E.28256
G1 X185.036 Y175.156 E.03218
G1 X185.019 Y175.454 E.01931
G1 X188.112 Y178.547 E.28266
G1 X188.112 Y179.344 E.05152
G1 X184.957 Y176.189 E.28836
G1 X184.857 Y176.886 E.04551
G1 X188.112 Y180.141 E.29751
G1 X188.112 Y180.938 E.05152
G1 X184.698 Y177.524 E.31205
G1 X184.587 Y177.968 E.0296
G1 X184.522 Y178.145 E.01218
G1 X188.112 Y181.735 E.32812
G1 X188.112 Y182.532 E.05152
G1 X184.308 Y178.728 E.34769
G1 X184.228 Y178.944 E.01489
G1 X184.064 Y179.281 E.02422
G1 X188.112 Y183.329 E.37002
G1 X188.112 Y183.416 E.00557
G1 X187.757 Y183.771 E.03249
G1 X183.801 Y179.816 E.3615
G1 X183.501 Y180.313 E.03752
G1 X187.358 Y184.17 E.35252
G1 X186.959 Y184.568 E.03643
G1 X183.188 Y180.797 E.34469
G1 X182.837 Y181.243 E.03669
G1 X186.561 Y184.967 E.34033
G1 X186.162 Y185.365 E.03643
G1 X182.478 Y181.681 E.33678
G1 X182.076 Y182.076 E.03643
G1 X185.764 Y185.764 E.33707
G1 X185.365 Y186.162 E.03643
G1 X181.674 Y182.471 E.33735
G1 X181.471 Y182.672 E.01845
G1 X181.249 Y182.843 E.01813
G1 X184.967 Y186.561 E.33983
M73 P2 R24
G1 X184.568 Y186.96 E.03643
G1 X180.798 Y183.19 E.34456
G1 X180.31 Y183.498 E.03734
G1 X184.17 Y187.358 E.35276
G1 X183.771 Y187.757 E.03643
G1 X179.815 Y183.801 E.36153
G1 X179.28 Y184.063 E.03851
G1 X183.329 Y188.112 E.37009
G1 X182.532 Y188.112 E.05152
G1 X178.732 Y184.312 E.3473
G1 X178.142 Y184.519 E.04041
G1 X181.735 Y188.112 E.32836
G1 X180.938 Y188.112 E.05152
G1 X177.528 Y184.702 E.31164
G1 X176.887 Y184.858 E.04264
G1 X180.141 Y188.112 E.29738
G1 X179.344 Y188.112 E.05152
G1 X176.174 Y184.943 E.28968
G1 X175.458 Y185.023 E.04659
G1 X178.547 Y188.112 E.2823
G1 X177.75 Y188.112 E.05152
G1 X174.655 Y185.017 E.28285
G1 X174.23 Y185.007 E.02745
G1 X173.79 Y184.95 E.02867
G1 X176.952 Y188.112 E.28901
G1 X176.155 Y188.112 E.05152
G1 X172.829 Y184.786 E.30399
G1 X172.187 Y184.634 E.04265
G1 X171.716 Y184.47 E.03227
G1 X175.358 Y188.112 E.33292
G1 X174.561 Y188.112 E.05152
G1 X170.328 Y183.879 E.38691
G1 X169.375 Y183.312 E.07167
G1 X168.545 Y182.686 E.06716
G1 X167.854 Y182.05 E.0607
G1 X167.211 Y181.329 E.06245
G1 X166.598 Y180.49 E.06717
G1 X166.124 Y179.675 E.06092
G1 X161.888 Y175.439 E.38716
G1 X161.888 Y176.236 E.05152
G1 X173.764 Y188.112 E1.08545
G1 X172.967 Y188.112 E.05152
G1 X161.888 Y177.033 E1.0126
G1 X161.888 Y177.83 E.05152
G1 X172.17 Y188.112 E.93974
G1 X171.373 Y188.112 E.05152
G1 X161.888 Y178.627 E.86689
G1 X161.888 Y179.424 E.05152
G1 X170.576 Y188.112 E.79403
G1 X169.778 Y188.112 E.05152
G1 X161.888 Y180.222 E.72118
G1 X161.888 Y181.019 E.05152
